( pcb2gcode 2.5.0 )
( Software-independent Gcode )

G94 ( Millimeters per minute feed rate. )
G21 ( Units == Millimeters. )

G90 ( Absolute coordinates. )
G00 S15000 ( RPM spindle speed. )
G01 F20.00000 ( Feedrate. )


G00 Z25.00000 (Retract to tool change height)
T0
M5      (Spindle stop.)
G04 P1.00000 (Wait for spindle to stop)
(MSG, Change tool bit to mill diameter 0.25000mm)
M6      (Tool change.)
M0      (Temporary machine stop.)
M3 ( Spindle on clockwise. )
G04 P1.00000 (Wait for spindle to get up to speed)
G04 P0 ( dwell for no time -- G64 should not smooth over this point )
G00 Z2.00000 ( retract )

G00 X2.35050 Y2.64951 ( rapid move to begin. )
G01 F10.00000
( Mill infeed pass 1/1 )
G01 Z-0.10000
G04 P0 ( dwell for no time -- G64 should not smooth over this point )
G01 F20.00000
G01 X2.35050 Y2.64951
G01 X2.35449 Y2.61235
G01 X2.37422 Y2.53297
G01 X2.40445 Y2.48339
G01 X2.45022 Y2.43059
G01 X2.47428 Y2.40765
G01 X2.50227 Y2.38967
G01 X2.60016 Y2.35764
G01 X2.64948 Y2.35055
G01 X27.43549 Y2.35055
G01 X27.52416 Y2.36574
G01 X27.57806 Y2.38731
G01 X27.65441 Y2.45027
G01 X27.67735 Y2.47433
G01 X27.69533 Y2.50232
G01 X27.70768 Y2.53318
G01 X27.72736 Y2.60021
G01 X27.73445 Y2.64951
G01 X27.73445 Y31.24552
G01 X27.71926 Y31.33421
G01 X27.69769 Y31.38811
G01 X27.63473 Y31.46446
G01 X27.61067 Y31.48740
G01 X27.58268 Y31.50538
G01 X27.55182 Y31.51773
G01 X27.48479 Y31.53741
G01 X27.43549 Y31.54450
G01 X2.64948 Y31.54450
G01 X2.56079 Y31.52931
G01 X2.50689 Y31.50775
G01 X2.43054 Y31.44478
G01 X2.40760 Y31.42072
G01 X2.38962 Y31.39273
G01 X2.37727 Y31.36187
G01 X2.35759 Y31.29484
G01 X2.35050 Y31.24552
G01 X2.35050 Y2.64951
G01 X2.40046 Y2.64951
G01 X2.40046 Y31.24552
G01 X2.40554 Y31.28075
G01 X2.42523 Y31.34778
G01 X2.44689 Y31.38981
G01 X2.53290 Y31.46505
G01 X2.57140 Y31.48047
G01 X2.64948 Y31.49454
G01 X27.43549 Y31.49454
G01 X27.47069 Y31.48946
G01 X27.53773 Y31.46977
G01 X27.55977 Y31.46096
G01 X27.59696 Y31.43172
G01 X27.64273 Y31.37892
G01 X27.66432 Y31.34351
G01 X27.68162 Y31.27208
G01 X27.68449 Y31.24552
G01 X27.68449 Y2.64951
G01 X27.67941 Y2.61431
G01 X27.65972 Y2.54727
G01 X27.63806 Y2.50524
G01 X27.55205 Y2.43000
G01 X27.51354 Y2.41459
G01 X27.43549 Y2.40051
G01 X2.64948 Y2.40051
G01 X2.61425 Y2.40559
G01 X2.54722 Y2.42528
G01 X2.52518 Y2.43409
G01 X2.48799 Y2.46333
G01 X2.44222 Y2.51613
G01 X2.42063 Y2.55154
G01 X2.40333 Y2.62297
G01 X2.40046 Y2.64951
G04 P0 ( dwell for no time -- G64 should not smooth over this point )
G00 Z2.00000 ( retract )

G00 X9.90502 Y5.58001 ( rapid move to begin. )
G01 F10.00000
( Mill infeed pass 1/1 )
G01 Z-0.10000
G04 P0 ( dwell for no time -- G64 should not smooth over this point )
G01 F20.00000
G01 X9.90502 Y5.58001
G01 X9.93001 Y5.82700
G01 X9.93761 Y5.86279
G01 X10.01523 Y6.09860
G01 X10.14850 Y6.32944
G01 X10.32686 Y6.52751
G01 X10.52714 Y6.67419
G01 X10.55882 Y6.69250
G01 X10.76890 Y6.78603
G01 X10.80502 Y6.79761
G01 X10.81322 Y6.79222
G01 X10.80502 Y6.79761
G01 X10.80502 Y8.35752
G01 X10.81637 Y8.44734
G01 X10.84088 Y8.51655
G01 X10.85937 Y8.55115
G01 X10.91482 Y8.62270
G01 X11.68106 Y9.38892
G01 X11.68764 Y9.38696
G01 X11.68106 Y9.38892
G01 X11.65429 Y9.47165
G01 X11.64500 Y9.56001
G01 X11.64500 Y10.18500
G01 X11.65142 Y10.25529
G01 X11.65904 Y10.29107
G01 X11.68175 Y10.35788
G01 X11.72617 Y10.43481
G01 X11.78561 Y10.50083
G01 X11.84213 Y10.54309
G01 X11.87382 Y10.56138
G01 X11.95635 Y10.59394
G01 X12.00748 Y10.60479
G01 X12.06999 Y10.61000
G01 X13.32000 Y10.61000
G01 X13.38251 Y10.60479
G01 X13.46841 Y10.58264
G01 X13.53247 Y10.55305
G01 X13.59013 Y10.51236
G01 X13.61731 Y10.48787
G01 X13.66381 Y10.43481
G01 X13.69991 Y10.37418
G01 X13.71479 Y10.34076
G01 X13.73567 Y10.27337
G01 X13.73935 Y10.24749
G01 X13.73201 Y10.23814
G01 X13.73935 Y10.24749
G01 X13.97598 Y10.24749
G01 X14.03214 Y10.24281
G01 X14.06577 Y10.23613
G01 X14.13498 Y10.21162
G01 X14.19808 Y10.17408
G01 X14.22840 Y10.14922
G01 X15.51867 Y8.86014
G01 X15.51667 Y8.85115
G01 X15.51867 Y8.86014
G01 X15.53450 Y8.87045
G01 X15.57946 Y8.89153
G01 X15.61425 Y8.90284
G01 X15.66302 Y8.91221
G01 X16.01268 Y8.91318
G01 X16.04905 Y8.90934
G01 X16.11451 Y8.89153
G01 X16.15947 Y8.87045
G01 X16.20021 Y8.84206
G01 X16.22738 Y8.81757
G01 X16.25990 Y8.78003
G01 X16.29388 Y8.72120
G01 X16.31486 Y8.65658
G01 X16.32197 Y8.58902
G01 X16.32197 Y7.41402
G01 X16.31486 Y7.34645
G01 X16.29388 Y7.28183
G01 X16.25990 Y7.22298
G01 X16.21443 Y7.17251
G01 X16.15947 Y7.13258
G01 X16.09304 Y7.10358
G01 X15.99652 Y7.08902
G01 X15.66279 Y7.09083
G01 X15.61425 Y7.10020
G01 X15.57946 Y7.11150
G01 X15.53450 Y7.13258
G01 X15.49376 Y7.16098
G01 X15.46658 Y7.18547
G01 X15.43407 Y7.22298
G01 X15.40841 Y7.26550
G01 X15.39353 Y7.29893
G01 X15.37910 Y7.34645
G01 X15.37201 Y7.41402
G01 X15.37201 Y7.94620
G01 X15.37572 Y7.94775
G01 X15.37201 Y7.94620
G01 X13.82066 Y9.49755
G01 X13.82223 Y9.50134
G01 X13.82066 Y9.49755
G01 X13.73935 Y9.49755
G01 X13.73171 Y9.50766
G01 X13.73935 Y9.49755
G01 X13.73567 Y9.47165
G01 X13.71479 Y9.40426
G01 X13.69991 Y9.37083
G01 X13.66381 Y9.31023
G01 X13.61731 Y9.25714
G01 X13.59013 Y9.23266
G01 X13.53247 Y9.19197
G01 X13.45132 Y9.15582
G01 X13.38251 Y9.14023
G01 X13.32000 Y9.13504
G01 X12.48779 Y9.13504
G01 X12.48622 Y9.13883
G01 X12.48779 Y9.13504
G01 X11.55495 Y8.20220
G01 X11.55117 Y8.20380
G01 X11.55495 Y8.20220
G01 X11.55495 Y6.79761
G01 X11.54675 Y6.79222
G01 X11.55495 Y6.79761
G01 X11.59107 Y6.78603
G01 X11.81749 Y6.68417
G01 X12.03311 Y6.52751
G01 X12.21147 Y6.32944
G01 X12.34474 Y6.09860
G01 X12.42711 Y5.84508
G01 X12.45498 Y5.58001
G01 X12.42711 Y5.31494
G01 X12.35129 Y5.07854
G01 X12.33643 Y5.04511
G01 X12.21147 Y4.83061
G01 X12.03311 Y4.63251
G01 X11.81749 Y4.47585
G01 X11.59107 Y4.37399
G01 X11.55627 Y4.36269
G01 X11.33136 Y4.31489
G01 X11.29496 Y4.31105
G01 X11.04672 Y4.31202
G01 X10.80370 Y4.36269
G01 X10.76890 Y4.37399
G01 X10.54251 Y4.47585
G01 X10.34109 Y4.62098
G01 X10.31391 Y4.64547
G01 X10.14850 Y4.83061
G01 X10.01523 Y5.06144
G01 X9.93761 Y5.29723
G01 X9.93001 Y5.33302
G01 X9.90502 Y5.58001
G01 X9.95498 Y5.58001
G01 X9.98513 Y5.84734
G01 X10.06090 Y6.07826
G01 X10.18894 Y6.30005
G01 X10.36031 Y6.49037
G01 X10.55650 Y6.63378
G01 X10.78922 Y6.74036
G01 X10.85498 Y6.75715
G01 X10.85498 Y8.35752
G01 X10.86420 Y8.43284
G01 X10.88498 Y8.49301
G01 X10.90344 Y8.52758
G01 X10.95018 Y8.58734
G01 X11.74261 Y9.37977
G01 X11.72742 Y9.40748
G01 X11.70319 Y9.48203
G01 X11.69498 Y9.56001
G01 X11.69498 Y10.18500
G01 X11.70113 Y10.25005
G01 X11.72742 Y10.33753
G01 X11.76661 Y10.40543
G01 X11.81906 Y10.46369
G01 X11.89414 Y10.51571
G01 X11.96674 Y10.54505
G01 X12.01787 Y10.55592
G01 X12.06999 Y10.56001
G01 X13.32000 Y10.56001
G01 X13.37212 Y10.55592
G01 X13.44809 Y10.53697
G01 X13.50748 Y10.50977
G01 X13.56074 Y10.47192
G01 X13.62338 Y10.40543
G01 X13.66727 Y10.32531
G01 X13.68680 Y10.26298
G01 X13.69434 Y10.19753
G01 X13.97598 Y10.19753
G01 X14.02724 Y10.19308
G01 X14.11144 Y10.16753
G01 X14.14601 Y10.14906
G01 X14.19668 Y10.11058
G01 X15.51395 Y8.79418
G01 X15.55949 Y8.82717
G01 X15.59980 Y8.84587
G01 X15.65533 Y8.86047
G01 X15.68131 Y8.86319
G01 X16.02573 Y8.86250
G01 X16.09419 Y8.84587
G01 X16.13450 Y8.82717
G01 X16.17082 Y8.80162
G01 X16.21946 Y8.75067
G01 X16.24821 Y8.70086
G01 X16.26597 Y8.64620
G01 X16.27199 Y8.58902
G01 X16.27199 Y7.41402
G01 X16.26597 Y7.35684
G01 X16.24821 Y7.30215
G01 X16.21123 Y7.24221
G01 X16.18100 Y7.20965
G01 X16.14547 Y7.18298
G01 X16.07885 Y7.15151
G01 X16.01654 Y7.14056
G01 X15.66808 Y7.14053
G01 X15.61202 Y7.15247
G01 X15.57115 Y7.16992
G01 X15.51298 Y7.20965
G01 X15.47450 Y7.25237
G01 X15.45169 Y7.29050
G01 X15.43137 Y7.34419
G01 X15.42594 Y7.36977
G01 X15.42198 Y7.41402
G01 X15.42198 Y7.96690
G01 X13.84136 Y9.54751
G01 X13.69434 Y9.54751
G01 X13.68680 Y9.48203
G01 X13.66727 Y9.41970
G01 X13.62338 Y9.33959
G01 X13.56074 Y9.27309
G01 X13.50748 Y9.23525
G01 X13.43587 Y9.20337
G01 X13.37212 Y9.18912
G01 X13.32000 Y9.18501
G01 X12.46709 Y9.18501
G01 X11.50499 Y8.22293
G01 X11.50499 Y6.75715
G01 X11.57075 Y6.74036
G01 X11.79249 Y6.64089
G01 X12.00893 Y6.48113
G01 X12.17103 Y6.30005
G01 X12.29313 Y6.08991
G01 X12.30377 Y6.06604
G01 X12.38028 Y5.82179
G01 X12.40499 Y5.58001
G01 X12.37484 Y5.31267
G01 X12.29907 Y5.08176
G01 X12.17817 Y4.87094
G01 X12.00893 Y4.67892
G01 X11.79249 Y4.51913
G01 X11.54589 Y4.41158
G01 X11.30804 Y4.36172
G01 X11.06501 Y4.36104
G01 X10.81409 Y4.41158
G01 X10.78922 Y4.41966
G01 X10.56748 Y4.51913
G01 X10.37047 Y4.66142
G01 X10.18894 Y4.85997
G01 X10.06090 Y5.08176
G01 X9.98513 Y5.31267
G01 X9.95498 Y5.58001
G04 P0 ( dwell for no time -- G64 should not smooth over this point )
G00 Z2.00000 ( retract )

G00 X5.30935 Y10.41505 ( rapid move to begin. )
G01 F10.00000
( Mill infeed pass 1/1 )
G01 Z-0.10000
G04 P0 ( dwell for no time -- G64 should not smooth over this point )
G01 F20.00000
G01 X5.30935 Y10.41505
G01 X5.33541 Y10.21675
G01 X5.38722 Y10.02356
G01 X5.46373 Y9.83880
G01 X5.56373 Y9.66562
G01 X5.68550 Y9.50695
G01 X5.82687 Y9.36555
G01 X5.98552 Y9.24378
G01 X6.15870 Y9.14381
G01 X6.34351 Y9.06728
G01 X6.53670 Y9.01549
G01 X6.73500 Y8.98940
G01 X7.63495 Y8.98950
G01 X7.83319 Y9.01561
G01 X8.02639 Y9.06738
G01 X8.21114 Y9.14388
G01 X8.38432 Y9.24388
G01 X8.54300 Y9.36563
G01 X8.68437 Y9.50700
G01 X8.80609 Y9.66568
G01 X8.90611 Y9.83885
G01 X8.98264 Y10.02361
G01 X9.03438 Y10.21675
G01 X9.06044 Y10.41503
G01 X9.06044 Y10.61503
G01 X9.03438 Y10.81330
G01 X8.98264 Y11.00644
G01 X8.90611 Y11.19120
G01 X8.80609 Y11.36438
G01 X8.68437 Y11.52305
G01 X8.54300 Y11.66443
G01 X8.38432 Y11.78617
G01 X8.21114 Y11.88617
G01 X8.02639 Y11.96267
G01 X7.80622 Y12.01896
G01 X7.74038 Y12.00065
G01 X7.53500 Y11.98002
G01 X6.83495 Y11.98002
G01 X6.62959 Y12.00065
G01 X6.56380 Y12.01802
G01 X6.53665 Y12.01535
G01 X6.34351 Y11.96278
G01 X6.15870 Y11.88625
G01 X5.98552 Y11.78627
G01 X5.82687 Y11.66450
G01 X5.68550 Y11.52310
G01 X5.56373 Y11.36443
G01 X5.46373 Y11.19125
G01 X5.38722 Y11.00649
G01 X5.33541 Y10.81330
G01 X5.30935 Y10.61500
G01 X5.30935 Y10.41505
G01 X5.25949 Y10.41178
G01 X5.28644 Y10.20703
G01 X5.33990 Y10.00751
G01 X5.41892 Y9.81670
G01 X5.52215 Y9.63786
G01 X5.64788 Y9.47398
G01 X5.79393 Y9.32796
G01 X5.95776 Y9.20223
G01 X6.13665 Y9.09898
G01 X6.32746 Y9.01996
G01 X6.52695 Y8.96649
G01 X6.73172 Y8.93954
G01 X7.63822 Y8.93954
G01 X7.84300 Y8.96649
G01 X8.04249 Y9.01996
G01 X8.23329 Y9.09898
G01 X8.41213 Y9.20223
G01 X8.57602 Y9.32796
G01 X8.72201 Y9.47398
G01 X8.84774 Y9.63786
G01 X8.95102 Y9.81670
G01 X9.03007 Y10.00751
G01 X9.08351 Y10.20698
G01 X9.11046 Y10.41175
G01 X9.11046 Y10.61830
G01 X9.08351 Y10.82308
G01 X9.03007 Y11.02254
G01 X8.95102 Y11.21335
G01 X8.84774 Y11.39219
G01 X8.72201 Y11.55607
G01 X8.57602 Y11.70210
G01 X8.41213 Y11.82783
G01 X8.23329 Y11.93108
G01 X8.04249 Y12.01010
G01 X7.84297 Y12.06356
G01 X7.80147 Y12.06902
G01 X7.73517 Y12.05035
G01 X7.53500 Y12.03001
G01 X6.83495 Y12.03001
G01 X6.63480 Y12.05035
G01 X6.56848 Y12.06905
G01 X6.52695 Y12.06356
G01 X6.32746 Y12.01010
G01 X6.13665 Y11.93108
G01 X5.95776 Y11.82783
G01 X5.79393 Y11.70210
G01 X5.64788 Y11.55607
G01 X5.52215 Y11.39219
G01 X5.41892 Y11.21335
G01 X5.33990 Y11.02254
G01 X5.28644 Y10.82303
G01 X5.25949 Y10.61828
G01 X5.25949 Y10.41178
G01 X5.76495 Y10.42094
G01 X5.76876 Y10.38455
G01 X5.80782 Y10.20052
G01 X5.81918 Y10.16573
G01 X5.90401 Y9.97751
G01 X6.03612 Y9.79570
G01 X6.20310 Y9.64533
G01 X6.38143 Y9.54129
G01 X6.41483 Y9.52641
G01 X6.59380 Y9.46827
G01 X6.62959 Y9.46065
G01 X6.83495 Y9.44002
G01 X7.53500 Y9.44002
G01 X7.74038 Y9.46065
G01 X7.77617 Y9.46827
G01 X7.97223 Y9.53296
G01 X8.16680 Y9.64533
G01 X8.33385 Y9.79570
G01 X8.45598 Y9.96217
G01 X8.47426 Y9.99384
G01 X8.55735 Y10.18282
G01 X8.60121 Y10.38455
G01 X8.60505 Y10.42094
G01 X8.60505 Y10.60908
G01 X8.60121 Y10.64548
G01 X8.55735 Y10.84721
G01 X8.47426 Y11.03618
G01 X8.45598 Y11.06786
G01 X8.33385 Y11.23430
G01 X8.16680 Y11.38470
G01 X7.97223 Y11.49707
G01 X7.75847 Y11.56651
G01 X7.53500 Y11.59000
G01 X6.81668 Y11.58904
G01 X6.61148 Y11.56651
G01 X6.41483 Y11.50362
G01 X6.38143 Y11.48874
G01 X6.20310 Y11.38470
G01 X6.04907 Y11.24726
G01 X6.02459 Y11.22008
G01 X5.90401 Y11.05249
G01 X5.81918 Y10.86430
G01 X5.80782 Y10.82950
G01 X5.76586 Y10.62737
G01 X5.76495 Y10.42094
G01 X5.81491 Y10.42094
G01 X5.81557 Y10.62216
G01 X5.85672 Y10.81912
G01 X5.94727 Y11.02752
G01 X6.07325 Y11.20088
G01 X6.22235 Y11.33603
G01 X6.41806 Y11.45140
G01 X6.62187 Y11.51762
G01 X6.83495 Y11.54002
G01 X7.54800 Y11.53933
G01 X7.74810 Y11.51762
G01 X7.93967 Y11.45610
G01 X8.13743 Y11.34426
G01 X8.30495 Y11.19069
G01 X8.42268 Y11.02752
G01 X8.50510 Y10.84398
G01 X8.55232 Y10.63507
G01 X8.55506 Y10.60908
G01 X8.55437 Y10.40786
G01 X8.51315 Y10.21091
G01 X8.42268 Y10.00250
G01 X8.28747 Y9.81990
G01 X8.13743 Y9.68577
G01 X7.96355 Y9.58457
G01 X7.74810 Y9.51241
G01 X7.53500 Y9.49001
G01 X6.82189 Y9.49070
G01 X6.62187 Y9.51241
G01 X6.43030 Y9.57393
G01 X6.23246 Y9.68577
G01 X6.06502 Y9.83931
G01 X5.94727 Y10.00250
G01 X5.86479 Y10.18605
G01 X5.85672 Y10.21091
G01 X5.81491 Y10.42094
G01 X5.76497 Y10.42011
G04 P0 ( dwell for no time -- G64 should not smooth over this point )
G00 Z2.00000 ( retract )

G00 X5.81491 Y15.50094 ( rapid move to begin. )
G01 F10.00000
( Mill infeed pass 1/1 )
G01 Z-0.10000
G04 P0 ( dwell for no time -- G64 should not smooth over this point )
G01 F20.00000
G01 X5.81491 Y15.50094
G01 X5.86012 Y15.27826
G01 X5.95443 Y15.07153
G01 X6.07325 Y14.90915
G01 X6.22235 Y14.77400
G01 X6.41806 Y14.65863
G01 X6.62187 Y14.59241
G01 X6.83495 Y14.57001
G01 X7.53500 Y14.57001
G01 X7.73050 Y14.58987
G01 X11.16016 Y11.16021
G01 X11.21993 Y11.11348
G01 X11.27715 Y11.08564
G01 X11.32656 Y11.07126
G01 X11.38998 Y11.06501
G01 X14.88499 Y11.06501
G01 X14.93625 Y11.06946
G01 X15.02045 Y11.09501
G01 X15.07539 Y11.12709
G01 X15.10570 Y11.15198
G01 X15.59604 Y11.64144
G01 X15.66256 Y11.61091
G01 X15.72886 Y11.59681
G01 X16.10323 Y11.59516
G01 X16.47196 Y11.22640
G01 X16.47196 Y10.67566
G01 X16.42451 Y10.62564
G01 X16.39576 Y10.57586
G01 X16.37801 Y10.52120
G01 X16.37199 Y10.46402
G01 X16.37199 Y9.28902
G01 X16.37801 Y9.23184
G01 X16.39106 Y9.18937
G01 X16.42451 Y9.12737
G01 X16.46297 Y9.08465
G01 X16.50948 Y9.05084
G01 X16.56513 Y9.02651
G01 X16.64732 Y9.01401
G01 X16.97590 Y9.01554
G01 X17.03196 Y9.02748
G01 X17.07282 Y9.04493
G01 X17.09545 Y9.05798
G01 X17.14026 Y9.09390
G01 X17.16947 Y9.12737
G01 X17.19822 Y9.17716
G01 X17.21598 Y9.23184
G01 X17.22131 Y9.27594
G01 X17.22200 Y10.46402
G01 X17.21598 Y10.52120
G01 X17.19822 Y10.57586
G01 X17.16947 Y10.62564
G01 X17.12174 Y10.67586
G01 X17.11793 Y11.41208
G01 X17.08654 Y11.50860
G01 X17.03952 Y11.57593
G01 X16.63798 Y11.97962
G01 X16.63798 Y12.32000
G01 X16.63089 Y12.38759
G01 X16.60988 Y12.45221
G01 X16.57592 Y12.51103
G01 X16.53046 Y12.56153
G01 X16.47549 Y12.60146
G01 X16.41029 Y12.63008
G01 X16.31298 Y12.64502
G01 X15.76300 Y12.64502
G01 X15.66569 Y12.63008
G01 X15.60049 Y12.60146
G01 X15.54552 Y12.56153
G01 X15.50006 Y12.51103
G01 X15.46610 Y12.45221
G01 X15.44793 Y12.39816
G01 X15.38517 Y12.34982
G01 X14.75037 Y11.71502
G01 X11.52457 Y11.71502
G01 X8.31140 Y14.92820
G01 X8.42268 Y15.08251
G01 X8.50982 Y15.27826
G01 X8.55437 Y15.48786
G01 X8.55437 Y15.70216
G01 X8.50982 Y15.91176
G01 X8.42268 Y16.10752
G01 X8.29672 Y16.28088
G01 X8.13743 Y16.42426
G01 X7.95189 Y16.53140
G01 X7.73517 Y16.59967
G01 X7.53500 Y16.62002
G01 X6.83495 Y16.62002
G01 X6.62187 Y16.59762
G01 X6.41806 Y16.53140
G01 X6.24343 Y16.43137
G01 X6.08252 Y16.29012
G01 X6.06502 Y16.27069
G01 X5.94727 Y16.10752
G01 X5.86479 Y15.92398
G01 X5.81557 Y15.70216
G01 X5.81491 Y15.50094
G01 X5.76495 Y15.50094
G01 X5.76586 Y15.70737
G01 X5.81262 Y15.92721
G01 X5.89571 Y16.11618
G01 X5.91399 Y16.14786
G01 X6.03612 Y16.31430
G01 X6.18887 Y16.45317
G01 X6.21849 Y16.47465
G01 X6.39774 Y16.57707
G01 X6.61148 Y16.64651
G01 X6.83495 Y16.67001
G01 X7.53500 Y16.67001
G01 X7.74038 Y16.64935
G01 X7.77617 Y16.64176
G01 X7.97223 Y16.57707
G01 X8.16680 Y16.46470
G01 X8.33385 Y16.31430
G01 X8.46596 Y16.13249
G01 X8.55735 Y15.92721
G01 X8.60408 Y15.70737
G01 X8.60408 Y15.48266
G01 X8.55735 Y15.26282
G01 X8.46596 Y15.05751
G01 X8.37693 Y14.93336
G01 X8.36141 Y14.93209
G01 X8.37693 Y14.93336
G01 X11.54530 Y11.76499
G01 X11.54370 Y11.76120
G01 X11.54530 Y11.76499
G01 X14.72965 Y11.76499
G01 X14.73120 Y11.76128
G01 X14.72965 Y11.76499
G01 X15.34981 Y12.38518
G01 X15.40613 Y12.42975
G01 X15.42873 Y12.48886
G01 X15.47115 Y12.55465
G01 X15.51207 Y12.59869
G01 X15.56013 Y12.63478
G01 X15.59183 Y12.65307
G01 X15.65149 Y12.67799
G01 X15.76300 Y12.69498
G01 X16.31298 Y12.69498
G01 X16.42449 Y12.67799
G01 X16.50049 Y12.64477
G01 X16.56391 Y12.59869
G01 X16.61636 Y12.54042
G01 X16.65555 Y12.47253
G01 X16.67503 Y12.41566
G01 X16.68263 Y12.37989
G01 X16.68796 Y12.32000
G01 X16.68796 Y12.00032
G01 X16.68453 Y11.99884
G01 X16.68796 Y12.00032
G01 X17.07994 Y11.60532
G01 X17.13107 Y11.53128
G01 X17.16729 Y11.41998
G01 X17.16937 Y10.69758
G01 X17.20991 Y10.65503
G01 X17.24387 Y10.59620
G01 X17.26487 Y10.53159
G01 X17.27196 Y10.46402
G01 X17.27196 Y9.28902
G01 X17.26487 Y9.22146
G01 X17.25045 Y9.17393
G01 X17.23556 Y9.14051
G01 X17.20991 Y9.09799
G01 X17.16444 Y9.04752
G01 X17.10948 Y9.00756
G01 X17.04742 Y8.97993
G01 X16.99904 Y8.96867
G01 X16.96312 Y8.96486
G01 X16.64745 Y8.96403
G01 X16.55093 Y8.97858
G01 X16.48451 Y9.00756
G01 X16.44377 Y9.03598
G01 X16.41659 Y9.06044
G01 X16.38408 Y9.09799
G01 X16.35009 Y9.15684
G01 X16.32911 Y9.22146
G01 X16.32200 Y9.28902
G01 X16.32200 Y10.46402
G01 X16.32911 Y10.53159
G01 X16.35009 Y10.59620
G01 X16.38408 Y10.65503
G01 X16.42434 Y10.69722
G01 X16.42200 Y11.20570
G01 X16.42578 Y11.20728
G01 X16.42200 Y11.20570
G01 X16.08245 Y11.54522
G01 X16.08403 Y11.54896
G01 X16.08245 Y11.54522
G01 X15.72355 Y11.54710
G01 X15.64712 Y11.56339
G01 X15.60592 Y11.58066
G01 X15.60399 Y11.58830
G01 X15.60592 Y11.58066
G01 X15.13742 Y11.11332
G01 X15.07859 Y11.06941
G01 X15.04400 Y11.05092
G01 X14.97478 Y11.02640
G01 X14.94115 Y11.01972
G01 X14.88499 Y11.01505
G01 X11.38998 Y11.01505
G01 X11.31680 Y11.02224
G01 X11.26262 Y11.03781
G01 X11.19636 Y11.06941
G01 X11.12480 Y11.12485
G01 X7.71198 Y14.53767
G01 X7.71376 Y14.54268
G01 X7.71198 Y14.53767
G01 X7.53500 Y14.52002
G01 X6.81668 Y14.52099
G01 X6.61148 Y14.54352
G01 X6.39774 Y14.61296
G01 X6.21849 Y14.71535
G01 X6.18887 Y14.73686
G01 X6.03612 Y14.87570
G01 X5.91399 Y15.04217
G01 X5.89571 Y15.07384
G01 X5.81262 Y15.26282
G01 X5.76876 Y15.46455
G01 X5.76495 Y15.50094
G04 P0 ( dwell for no time -- G64 should not smooth over this point )
G00 Z2.00000 ( retract )

G00 X5.76002 Y19.77500 ( rapid move to begin. )
G01 F10.00000
( Mill infeed pass 1/1 )
G01 Z-0.10000
G04 P0 ( dwell for no time -- G64 should not smooth over this point )
G01 F20.00000
G01 X5.76002 Y19.77500
G01 X5.76337 Y19.74087
G01 X5.77328 Y19.70805
G01 X5.78951 Y19.67780
G01 X5.81123 Y19.65128
G01 X5.83777 Y19.62951
G01 X5.86802 Y19.61336
G01 X5.90086 Y19.60340
G01 X5.93500 Y19.60002
G01 X8.43499 Y19.60002
G01 X8.46911 Y19.60340
G01 X8.50195 Y19.61336
G01 X8.53220 Y19.62951
G01 X8.55867 Y19.65128
G01 X8.58046 Y19.67780
G01 X8.59659 Y19.70805
G01 X8.60660 Y19.74087
G01 X8.60998 Y19.77500
G01 X8.60998 Y21.57502
G01 X8.60660 Y21.60916
G01 X8.59659 Y21.64198
G01 X8.58046 Y21.67223
G01 X8.55867 Y21.69875
G01 X8.53220 Y21.72052
G01 X8.50195 Y21.73667
G01 X8.46911 Y21.74663
G01 X8.43499 Y21.75001
G01 X7.55994 Y21.75001
G01 X7.54539 Y21.73548
G01 X7.55994 Y21.75001
G01 X7.55994 Y24.47670
G01 X7.55615 Y24.47830
G01 X7.55994 Y24.47670
G01 X7.72748 Y24.64423
G01 X7.72598 Y24.64769
G01 X7.72748 Y24.64423
G01 X8.08641 Y24.64611
G01 X8.16286 Y24.66239
G01 X8.21813 Y24.68597
G01 X8.28366 Y24.72882
G01 X8.31084 Y24.75330
G01 X8.35036 Y24.79861
G01 X8.38953 Y24.86648
G01 X8.41374 Y24.94106
G01 X8.42196 Y25.01901
G01 X8.42196 Y25.56902
G01 X8.41374 Y25.64697
G01 X8.38953 Y25.72152
G01 X8.36032 Y25.77405
G01 X8.33883 Y25.80364
G01 X8.29786 Y25.84769
G01 X8.24983 Y25.88378
G01 X8.17995 Y25.91908
G01 X8.14518 Y25.93039
G01 X8.06786 Y25.94288
G01 X7.60779 Y25.94194
G01 X7.54881 Y25.93039
G01 X7.51402 Y25.91908
G01 X7.45951 Y25.89376
G01 X7.39608 Y25.84769
G01 X7.34363 Y25.78942
G01 X7.31275 Y25.73786
G01 X7.29784 Y25.70443
G01 X7.28021 Y25.64697
G01 X7.27201 Y25.56902
G01 X7.27201 Y25.24936
G01 X7.27569 Y25.24784
G01 X7.27201 Y25.24936
G01 X6.91981 Y24.89719
G01 X6.86434 Y24.82564
G01 X6.83850 Y24.77553
G01 X6.81468 Y24.68820
G01 X6.81000 Y24.63202
G01 X6.81000 Y21.75001
G01 X6.82446 Y21.73550
G01 X6.81000 Y21.75001
G01 X5.93500 Y21.75001
G01 X5.90086 Y21.74663
G01 X5.86802 Y21.73667
G01 X5.83777 Y21.72052
G01 X5.81123 Y21.69875
G01 X5.78951 Y21.67223
G01 X5.77328 Y21.64198
G01 X5.76337 Y21.60916
G01 X5.76002 Y21.57502
G01 X5.76002 Y19.77500
G01 X5.80998 Y19.77500
G01 X5.80998 Y21.57502
G01 X5.81234 Y21.59941
G01 X5.83106 Y21.64447
G01 X5.84656 Y21.66339
G01 X5.88715 Y21.69049
G01 X5.93500 Y21.70002
G01 X6.85997 Y21.70002
G01 X6.85997 Y24.63202
G01 X6.86916 Y24.70733
G01 X6.88466 Y24.75640
G01 X6.90838 Y24.80207
G01 X6.95517 Y24.86184
G01 X7.32199 Y25.22866
G01 X7.32199 Y25.56902
G01 X7.32908 Y25.63659
G01 X7.35603 Y25.71286
G01 X7.38402 Y25.76006
G01 X7.42951 Y25.81053
G01 X7.48448 Y25.85048
G01 X7.53429 Y25.87342
G01 X7.61303 Y25.89224
G01 X8.06786 Y25.89292
G01 X8.13479 Y25.88149
G01 X8.15963 Y25.87342
G01 X8.20949 Y25.85048
G01 X8.26446 Y25.81053
G01 X8.31704 Y25.74906
G01 X8.34386 Y25.70120
G01 X8.36144 Y25.64921
G01 X8.37193 Y25.56902
G01 X8.37193 Y25.01901
G01 X8.36692 Y24.96438
G01 X8.34386 Y24.88683
G01 X8.30993 Y24.82798
G01 X8.26446 Y24.77748
G01 X8.20949 Y24.73755
G01 X8.14742 Y24.70992
G01 X8.08110 Y24.69582
G01 X7.70665 Y24.69414
G01 X7.50998 Y24.49742
G01 X7.50998 Y21.70002
G01 X8.43499 Y21.70002
G01 X8.48282 Y21.69049
G01 X8.50444 Y21.67894
G01 X8.53893 Y21.64447
G01 X8.55044 Y21.62285
G01 X8.55996 Y21.57502
G01 X8.55996 Y19.77500
G01 X8.55044 Y19.72717
G01 X8.53893 Y19.70556
G01 X8.50444 Y19.67109
G01 X8.48282 Y19.65953
G01 X8.43499 Y19.65001
G01 X5.93500 Y19.65001
G01 X5.88715 Y19.65953
G01 X5.84656 Y19.68664
G01 X5.81951 Y19.72717
G01 X5.80998 Y19.77500
G04 P0 ( dwell for no time -- G64 should not smooth over this point )
G00 Z2.00000 ( retract )

G00 X15.03297 Y17.97602 ( rapid move to begin. )
G01 F10.00000
( Mill infeed pass 1/1 )
G01 Z-0.10000
G04 P0 ( dwell for no time -- G64 should not smooth over this point )
G01 F20.00000
G01 X15.03297 Y17.97602
G01 X14.94781 Y17.95316
G01 X14.87148 Y17.92604
G01 X14.79086 Y17.92939
G01 X14.75802 Y17.93934
G01 X14.72777 Y17.95552
G01 X14.70125 Y17.97729
G01 X14.67951 Y18.00381
G01 X14.66333 Y18.03406
G01 X14.65337 Y18.06688
G01 X14.65002 Y18.10102
G01 X14.65002 Y19.15100
G01 X14.65337 Y19.18514
G01 X14.66333 Y19.21798
G01 X14.67951 Y19.24823
G01 X14.70125 Y19.27475
G01 X14.72777 Y19.29649
G01 X14.75802 Y19.31267
G01 X14.79086 Y19.32263
G01 X14.82500 Y19.32598
G01 X16.32500 Y19.32598
G01 X16.35913 Y19.32263
G01 X16.39195 Y19.31267
G01 X16.42220 Y19.29649
G01 X16.44872 Y19.27475
G01 X16.47049 Y19.24823
G01 X16.48664 Y19.21798
G01 X16.49660 Y19.18514
G01 X16.49998 Y19.15100
G01 X16.49998 Y19.00099
G01 X16.48720 Y18.98742
G01 X16.49998 Y19.00099
G01 X20.58016 Y19.00099
G01 X20.58115 Y18.99819
G01 X20.58016 Y19.00099
G01 X20.61254 Y19.03553
G01 X20.65214 Y19.06548
G01 X20.68381 Y19.08377
G01 X20.73393 Y19.10444
G01 X20.83012 Y19.11900
G01 X22.03901 Y19.11722
G01 X22.10540 Y19.10310
G01 X22.15115 Y19.08377
G01 X22.20820 Y19.04704
G01 X22.23540 Y19.02258
G01 X22.23776 Y19.01648
G01 X23.57406 Y19.01900
G01 X23.57675 Y19.01366
G01 X23.57406 Y19.01900
G01 X23.64012 Y19.10830
G01 X23.80713 Y19.25870
G01 X24.00177 Y19.37107
G01 X24.21548 Y19.44051
G01 X24.43898 Y19.46401
G01 X25.13900 Y19.46401
G01 X25.36249 Y19.44051
G01 X25.55912 Y19.37762
G01 X25.59254 Y19.36274
G01 X25.77085 Y19.25870
G01 X25.92490 Y19.12126
G01 X25.94939 Y19.09408
G01 X26.06994 Y18.92649
G01 X26.15480 Y18.73830
G01 X26.16610 Y18.70350
G01 X26.20522 Y18.51948
G01 X26.20903 Y18.48308
G01 X26.20809 Y18.27666
G01 X26.16135 Y18.05682
G01 X26.06994 Y17.85151
G01 X25.93786 Y17.66970
G01 X25.77085 Y17.51933
G01 X25.57621 Y17.40696
G01 X25.36249 Y17.33752
G01 X25.16394 Y17.31570
G01 X25.15119 Y17.32713
G01 X25.16394 Y17.31570
G01 X25.16394 Y16.92233
G01 X25.15119 Y16.91090
G01 X25.16394 Y16.92233
G01 X25.34441 Y16.90335
G01 X25.38017 Y16.89576
G01 X25.57621 Y16.83107
G01 X25.75548 Y16.72865
G01 X25.78507 Y16.70717
G01 X25.93786 Y16.56830
G01 X26.06994 Y16.38649
G01 X26.16135 Y16.18121
G01 X26.20522 Y15.97948
G01 X26.20903 Y15.94308
G01 X26.20903 Y15.75494
G01 X26.20522 Y15.71855
G01 X26.16135 Y15.51682
G01 X26.06994 Y15.31151
G01 X25.93786 Y15.12970
G01 X25.78507 Y14.99086
G01 X25.75548 Y14.96935
G01 X25.59254 Y14.87529
G01 X25.55912 Y14.86041
G01 X25.36249 Y14.79752
G01 X25.13900 Y14.77402
G01 X24.43898 Y14.77402
G01 X24.21548 Y14.79752
G01 X24.00177 Y14.86696
G01 X23.80713 Y14.97933
G01 X23.64012 Y15.12970
G01 X23.50802 Y15.31151
G01 X23.41663 Y15.51682
G01 X23.37276 Y15.71855
G01 X23.36895 Y15.75494
G01 X23.36895 Y15.94308
G01 X23.37276 Y15.97948
G01 X23.41663 Y16.18121
G01 X23.49971 Y16.37018
G01 X23.51800 Y16.40186
G01 X23.64012 Y16.56830
G01 X23.79290 Y16.70717
G01 X23.82249 Y16.72865
G01 X24.00177 Y16.83107
G01 X24.19780 Y16.89576
G01 X24.23357 Y16.90335
G01 X24.41401 Y16.92233
G01 X24.42676 Y16.91090
G01 X24.41401 Y16.92233
G01 X24.41401 Y17.31570
G01 X24.42676 Y17.32713
G01 X24.41401 Y17.31570
G01 X24.21548 Y17.33752
G01 X24.00177 Y17.40696
G01 X23.80713 Y17.51933
G01 X23.65307 Y17.65677
G01 X23.62859 Y17.68395
G01 X23.50802 Y17.85151
G01 X23.42318 Y18.03973
G01 X23.41188 Y18.07452
G01 X23.37276 Y18.25855
G01 X23.37111 Y18.26906
G01 X23.38008 Y18.28016
G01 X23.37111 Y18.26906
G01 X22.23779 Y18.27158
G01 X22.20820 Y18.24097
G01 X22.15115 Y18.20427
G01 X22.10540 Y18.18494
G01 X22.03911 Y18.17084
G01 X21.55514 Y18.16932
G01 X21.47370 Y18.14674
G01 X21.41752 Y18.14206
G01 X21.36136 Y18.14674
G01 X21.27815 Y18.16909
G01 X20.79588 Y18.17084
G01 X20.72956 Y18.18494
G01 X20.68381 Y18.20427
G01 X20.65214 Y18.22255
G01 X20.61485 Y18.25288
G01 X16.49998 Y18.25105
G01 X16.48720 Y18.26462
G01 X16.49998 Y18.25105
G01 X16.49998 Y18.10102
G01 X16.49660 Y18.06688
G01 X16.48664 Y18.03406
G01 X16.47049 Y18.00381
G01 X16.44872 Y17.97729
G01 X16.42220 Y17.95552
G01 X16.39195 Y17.93934
G01 X16.35913 Y17.92939
G01 X16.27849 Y17.92604
G01 X16.20214 Y17.95316
G01 X16.11697 Y17.97602
G01 X15.98586 Y17.97605
G01 X16.32500 Y17.97602
G01 X16.34938 Y17.97841
G01 X16.39444 Y17.99708
G01 X16.42893 Y18.03157
G01 X16.44758 Y18.07663
G01 X16.44999 Y18.30102
G01 X20.63482 Y18.30102
G01 X20.65615 Y18.28141
G01 X20.70413 Y18.24991
G01 X20.74500 Y18.23246
G01 X20.80114 Y18.22052
G01 X21.28826 Y18.21907
G01 X21.34221 Y18.20124
G01 X21.41752 Y18.19202
G01 X21.49283 Y18.20127
G01 X21.54581 Y18.21905
G01 X22.04665 Y18.22255
G01 X22.08996 Y18.23246
G01 X22.14249 Y18.25585
G01 X22.18899 Y18.28964
G01 X22.21637 Y18.31902
G01 X23.41891 Y18.31902
G01 X23.42166 Y18.26896
G01 X23.46885 Y18.06005
G01 X23.55132 Y17.87650
G01 X23.68653 Y17.69390
G01 X23.83651 Y17.55977
G01 X24.02209 Y17.45263
G01 X24.22587 Y17.38641
G01 X24.42592 Y17.36470
G01 X24.46397 Y17.36401
G01 X24.46397 Y16.87402
G01 X24.42592 Y16.87333
G01 X24.22587 Y16.85162
G01 X24.01043 Y16.77945
G01 X23.83651 Y16.67826
G01 X23.68653 Y16.54412
G01 X23.55843 Y16.37249
G01 X23.54538 Y16.34986
G01 X23.46077 Y16.15311
G01 X23.41960 Y15.95616
G01 X23.41891 Y15.75494
G01 X23.46415 Y15.53226
G01 X23.55132 Y15.33651
G01 X23.67726 Y15.16315
G01 X23.83651 Y15.01977
G01 X24.02209 Y14.91263
G01 X24.21325 Y14.84979
G01 X24.43898 Y14.82401
G01 X25.13900 Y14.82401
G01 X25.33918 Y14.84435
G01 X25.54367 Y14.90793
G01 X25.56755 Y14.91857
G01 X25.74146 Y15.01977
G01 X25.90895 Y15.17331
G01 X26.02665 Y15.33651
G01 X26.11383 Y15.53226
G01 X26.15838 Y15.74186
G01 X26.15838 Y15.95616
G01 X26.11383 Y16.16576
G01 X26.02665 Y16.36152
G01 X25.90072 Y16.53488
G01 X25.75165 Y16.67003
G01 X25.55589 Y16.78540
G01 X25.36473 Y16.84824
G01 X25.15206 Y16.87333
G01 X25.11398 Y16.87402
G01 X25.11398 Y17.36401
G01 X25.15206 Y17.36470
G01 X25.35211 Y17.38641
G01 X25.55589 Y17.45263
G01 X25.74146 Y17.55977
G01 X25.90072 Y17.70315
G01 X26.02665 Y17.87650
G01 X26.11383 Y18.07226
G01 X26.15838 Y18.28186
G01 X26.15906 Y18.48308
G01 X26.11383 Y18.70576
G01 X26.03260 Y18.88986
G01 X26.01954 Y18.91249
G01 X25.89145 Y19.08412
G01 X25.74146 Y19.21826
G01 X25.55589 Y19.32540
G01 X25.35211 Y19.39161
G01 X25.13900 Y19.41402
G01 X24.43898 Y19.41402
G01 X24.21325 Y19.38824
G01 X24.02209 Y19.32540
G01 X23.83651 Y19.21826
G01 X23.67726 Y19.07488
G01 X23.59951 Y18.96904
G01 X22.21635 Y18.96904
G01 X22.18899 Y18.99837
G01 X22.14249 Y19.03218
G01 X22.08996 Y19.05555
G01 X22.03377 Y19.06751
G01 X20.83007 Y19.06901
G01 X20.74813 Y19.05651
G01 X20.69248 Y19.03218
G01 X20.64597 Y18.99837
G01 X20.60449 Y18.95103
G01 X16.44999 Y18.95103
G01 X16.44999 Y19.15100
G01 X16.44047 Y19.19885
G01 X16.42893 Y19.22047
G01 X16.39444 Y19.25494
G01 X16.34938 Y19.27361
G01 X14.82500 Y19.27602
G01 X14.77715 Y19.26649
G01 X14.75553 Y19.25494
G01 X14.72106 Y19.22047
G01 X14.70239 Y19.17541
G01 X14.69998 Y18.10102
G01 X14.65002 Y18.10102
G01 X14.69998 Y18.10102
G01 X14.70951 Y18.05319
G01 X14.73661 Y18.01262
G01 X14.75553 Y17.99708
G01 X14.80059 Y17.97841
G01 X15.16414 Y17.97605
G01 X15.08560 Y17.94981
G01 X14.96793 Y17.88186
G01 X14.86694 Y17.79096
G01 X14.79419 Y17.69197
G01 X14.77948 Y17.66569
G01 X14.73950 Y17.65103
G01 X14.70493 Y17.63256
G01 X14.64517 Y17.58583
G01 X13.47918 Y16.41984
G01 X13.43877 Y16.37059
G01 X13.40461 Y16.30285
G01 X13.39023 Y16.25345
G01 X13.38459 Y16.20229
G01 X13.38398 Y15.36000
G01 X13.33402 Y15.36000
G01 X13.38398 Y15.36000
G01 X13.39023 Y15.29660
G01 X13.41398 Y15.22454
G01 X13.43877 Y15.17946
G01 X13.47918 Y15.13021
G01 X15.06917 Y13.54022
G01 X15.10857 Y13.50710
G01 X15.16351 Y13.47502
G01 X15.23557 Y13.45127
G01 X15.29899 Y13.44502
G01 X15.46333 Y13.44502
G01 X15.50006 Y13.37898
G01 X15.55568 Y13.32025
G01 X15.61215 Y13.28261
G01 X15.66256 Y13.26092
G01 X15.71608 Y13.24883
G01 X15.74184 Y13.24611
G01 X16.31275 Y13.24502
G01 X16.41029 Y13.25995
G01 X16.48646 Y13.29569
G01 X16.53046 Y13.32848
G01 X16.56769 Y13.36882
G01 X16.60988 Y13.43783
G01 X16.63292 Y13.51538
G01 X16.63798 Y13.57001
G01 X16.63798 Y13.97001
G01 X16.63292 Y14.02467
G01 X16.62751 Y14.05022
G01 X16.60394 Y14.11385
G01 X16.57592 Y14.16104
G01 X16.53046 Y14.21154
G01 X16.47549 Y14.25147
G01 X16.42563 Y14.27443
G01 X16.34697 Y14.29323
G01 X15.72901 Y14.29323
G01 X15.66256 Y14.27910
G01 X15.58951 Y14.24436
G01 X15.54552 Y14.21154
G01 X15.50829 Y14.17120
G01 X15.46333 Y14.09503
G01 X15.43358 Y14.09503
G01 X14.03399 Y15.49462
G01 X14.03399 Y16.05543
G01 X14.88367 Y16.90511
G01 X14.96793 Y16.83015
G01 X15.07395 Y16.76815
G01 X15.21179 Y16.72103
G01 X15.93803 Y16.72103
G01 X16.07603 Y16.67387
G01 X16.18205 Y16.61186
G01 X16.23366 Y16.56632
G01 X16.28227 Y16.61407
G01 X16.33295 Y16.65256
G01 X16.39017 Y16.68042
G01 X16.42769 Y16.69180
G01 X16.50300 Y16.70102
G01 X16.80798 Y16.70102
G01 X16.84575 Y16.76134
G01 X16.92220 Y16.84107
G01 X16.96330 Y16.86078
G01 X17.02581 Y16.87768
G01 X17.05842 Y16.88202
G01 X18.39324 Y16.88110
G01 X18.47978 Y16.85990
G01 X18.64719 Y16.77346
G01 X18.80937 Y16.72705
G01 X18.90538 Y16.71852
G01 X20.17955 Y16.71852
G01 X20.27559 Y16.72705
G01 X20.43776 Y16.77346
G01 X20.58658 Y16.85121
G01 X20.71671 Y16.95728
G01 X20.82280 Y17.08740
G01 X20.90053 Y17.23622
G01 X20.94693 Y17.39843
G01 X20.95313 Y17.45372
G01 X20.99474 Y17.55697
G01 X21.02720 Y17.59147
G01 X21.10370 Y17.64407
G01 X21.14805 Y17.65568
G01 X21.21356 Y17.66038
G01 X21.24691 Y17.65829
G01 X21.33124 Y17.64153
G01 X21.50469 Y17.64153
G01 X21.66398 Y17.66853
G01 X22.05455 Y17.66853
G01 X22.15059 Y17.67706
G01 X22.31279 Y17.72347
G01 X22.37294 Y17.75083
G01 X22.44513 Y17.76762
G01 X22.85203 Y17.76726
G01 X22.95678 Y17.73584
G01 X22.99176 Y17.71008
G01 X23.03210 Y17.66777
G01 X23.04985 Y17.64402
G01 X23.12618 Y17.51186
G01 X23.25193 Y17.34798
G01 X23.31647 Y17.28161
G01 X23.35960 Y17.20531
G01 X23.37403 Y17.16023
G01 X23.36641 Y17.04620
G01 X23.35008 Y17.00805
G01 X23.31373 Y16.95288
G01 X23.25191 Y16.89007
G01 X23.12618 Y16.72619
G01 X23.02293 Y16.54735
G01 X22.94391 Y16.35654
G01 X22.89925 Y16.19002
G01 X22.89044 Y16.15705
G01 X22.86349 Y15.95228
G01 X22.86349 Y15.74578
G01 X22.89044 Y15.54103
G01 X22.94391 Y15.34151
G01 X23.02293 Y15.15070
G01 X23.12618 Y14.97186
G01 X23.25191 Y14.80798
G01 X23.39793 Y14.66196
G01 X23.56181 Y14.53623
G01 X23.74065 Y14.43298
G01 X23.93146 Y14.35396
G01 X24.13095 Y14.30049
G01 X24.17256 Y14.29500
G01 X24.23880 Y14.31367
G01 X24.43898 Y14.33402
G01 X25.13900 Y14.33402
G01 X25.33918 Y14.31367
G01 X25.40542 Y14.29500
G01 X25.44700 Y14.30049
G01 X25.64649 Y14.35396
G01 X25.83730 Y14.43298
G01 X26.01614 Y14.53623
G01 X26.18002 Y14.66196
G01 X26.32604 Y14.80798
G01 X26.45177 Y14.97186
G01 X26.55502 Y15.15070
G01 X26.63404 Y15.34151
G01 X26.68751 Y15.54100
G01 X26.71446 Y15.74575
G01 X26.71446 Y15.95230
G01 X26.68751 Y16.15705
G01 X26.63404 Y16.35654
G01 X26.55502 Y16.54735
G01 X26.45177 Y16.72619
G01 X26.32604 Y16.89007
G01 X26.26145 Y16.95644
G01 X26.20898 Y17.05461
G01 X26.20336 Y17.10158
G01 X26.21154 Y17.19180
G01 X26.22785 Y17.22992
G01 X26.26419 Y17.28512
G01 X26.32604 Y17.34798
G01 X26.45177 Y17.51186
G01 X26.55502 Y17.69070
G01 X26.63404 Y17.88151
G01 X26.68751 Y18.08100
G01 X26.71446 Y18.28575
G01 X26.71446 Y18.49230
G01 X26.68751 Y18.69705
G01 X26.63404 Y18.89654
G01 X26.55502 Y19.08735
G01 X26.45886 Y19.25646
G01 X26.43359 Y19.36487
G01 X26.44032 Y19.41168
G01 X26.47039 Y19.49449
G01 X26.49170 Y19.52400
G01 X26.56996 Y19.60444
G01 X26.65144 Y19.73408
G01 X26.70171 Y19.87775
G01 X26.71446 Y19.99108
G01 X26.71446 Y21.86697
G01 X26.70171 Y21.98031
G01 X26.65144 Y22.12397
G01 X26.57044 Y22.25287
G01 X26.46282 Y22.36049
G01 X26.33392 Y22.44149
G01 X26.19026 Y22.49176
G01 X26.07692 Y22.50451
G01 X23.50103 Y22.50451
G01 X23.38770 Y22.49176
G01 X23.24403 Y22.44149
G01 X23.11513 Y22.36047
G01 X23.00748 Y22.25287
G01 X22.91978 Y22.11566
G01 X22.83578 Y22.04266
G01 X22.79125 Y22.02674
G01 X22.72219 Y22.01607
G01 X22.69844 Y22.01470
G01 X22.65229 Y22.02539
G01 X22.56778 Y22.06545
G01 X22.53484 Y22.09933
G01 X22.49646 Y22.15770
G01 X22.48069 Y22.19204
G01 X22.47162 Y22.25216
G01 X22.47162 Y22.29372
G01 X20.27028 Y24.39023
G01 X20.24826 Y24.41817
G01 X20.20673 Y24.49168
G01 X20.14485 Y24.69549
G01 X20.06134 Y24.85173
G01 X19.94881 Y24.98886
G01 X19.81168 Y25.10138
G01 X19.65524 Y25.18500
G01 X19.48552 Y25.23649
G01 X19.35321 Y25.24952
G01 X18.56472 Y25.24952
G01 X18.43243 Y25.23649
G01 X18.26269 Y25.18500
G01 X18.10643 Y25.10146
G01 X17.95558 Y24.97695
G01 X17.89157 Y24.93560
G01 X17.86101 Y24.92175
G01 X17.78710 Y24.91053
G01 X17.49850 Y24.91053
G01 X17.46327 Y24.91561
G01 X17.39624 Y24.93529
G01 X17.37417 Y24.94411
G01 X17.33698 Y24.97337
G01 X17.29124 Y25.02617
G01 X17.26759 Y25.06712
G01 X17.25075 Y25.17799
G01 X17.25446 Y25.21050
G01 X17.25446 Y25.39950
G01 X17.22489 Y25.58614
G01 X17.16652 Y25.76587
G01 X17.08072 Y25.93422
G01 X16.96967 Y26.08708
G01 X16.83604 Y26.22071
G01 X16.68316 Y26.33181
G01 X16.51481 Y26.41759
G01 X16.33508 Y26.47595
G01 X16.14844 Y26.50552
G01 X15.50950 Y26.50552
G01 X15.32287 Y26.47595
G01 X15.14313 Y26.41759
G01 X14.97478 Y26.33181
G01 X14.89653 Y26.27684
G01 X14.80552 Y26.24565
G01 X14.76691 Y26.23953
G01 X12.25963 Y26.23953
G01 X12.22440 Y26.24461
G01 X12.13567 Y26.27291
G01 X12.09963 Y26.29810
G01 X11.94040 Y26.38126
G01 X11.89666 Y26.39511
G01 X11.82191 Y26.44090
G01 X11.78746 Y26.47331
G01 X11.73804 Y26.57956
G01 X11.73545 Y26.62678
G01 X11.74489 Y26.69602
G01 X11.75036 Y26.71916
G01 X11.77372 Y26.76033
G01 X11.81911 Y26.81344
G01 X11.85150 Y26.84039
G01 X12.17352 Y26.96188
G01 X12.39633 Y27.08357
G01 X12.59966 Y27.23577
G01 X12.77923 Y27.41535
G01 X12.93143 Y27.61867
G01 X13.05317 Y27.84156
G01 X13.14189 Y28.07951
G01 X13.19589 Y28.32772
G01 X13.21403 Y28.58103
G01 X13.19589 Y28.83434
G01 X13.14189 Y29.08253
G01 X13.05317 Y29.32050
G01 X12.93143 Y29.54339
G01 X12.77923 Y29.74671
G01 X12.59966 Y29.92629
G01 X12.39633 Y30.07849
G01 X12.17342 Y30.20020
G01 X11.93547 Y30.28898
G01 X11.68729 Y30.34295
G01 X11.43397 Y30.36106
G01 X11.18066 Y30.34295
G01 X10.93250 Y30.28898
G01 X10.69450 Y30.20020
G01 X10.47162 Y30.07849
G01 X10.26829 Y29.92629
G01 X10.08871 Y29.74671
G01 X9.93652 Y29.54339
G01 X9.81480 Y29.32050
G01 X9.77040 Y29.20150
G01 X9.72603 Y29.08253
G01 X9.67205 Y28.83434
G01 X9.65394 Y28.58103
G01 X9.67205 Y28.32769
G01 X9.69400 Y28.22078
G01 X9.68902 Y28.13325
G01 X9.67926 Y28.09294
G01 X9.64101 Y28.03023
G01 X9.62422 Y28.00943
G01 X8.81691 Y27.20212
G01 X8.72113 Y27.05871
G01 X8.65514 Y26.89940
G01 X8.62146 Y26.73026
G01 X8.62016 Y26.62772
G01 X8.59672 Y26.54326
G01 X8.57505 Y26.50123
G01 X8.48648 Y26.42447
G01 X8.44175 Y26.40897
G01 X8.35544 Y26.39777
G01 X8.32143 Y26.40232
G01 X8.20198 Y26.43542
G01 X8.09949 Y26.44451
G01 X7.59446 Y26.44451
G01 X7.49248 Y26.43547
G01 X7.32052 Y26.38627
G01 X7.16271 Y26.30382
G01 X7.02471 Y26.19130
G01 X6.91219 Y26.05327
G01 X6.82974 Y25.89546
G01 X6.78054 Y25.72348
G01 X6.77147 Y25.62150
G01 X6.77020 Y25.54202
G01 X6.74109 Y25.44217
G01 X6.72408 Y25.41429
G01 X6.69855 Y25.38375
G01 X6.50490 Y25.19010
G01 X6.40912 Y25.04672
G01 X6.34313 Y24.88739
G01 X6.30945 Y24.71827
G01 X6.30945 Y22.49951
G01 X6.30439 Y22.46430
G01 X6.28471 Y22.39727
G01 X6.26304 Y22.35524
G01 X6.24666 Y22.33804
G01 X6.19385 Y22.29227
G01 X6.15844 Y22.27068
G01 X6.07381 Y22.25122
G01 X5.89703 Y22.25051
G01 X5.78369 Y22.23776
G01 X5.64003 Y22.18749
G01 X5.51112 Y22.10649
G01 X5.40350 Y21.99887
G01 X5.32250 Y21.86997
G01 X5.27224 Y21.72631
G01 X5.25949 Y21.61297
G01 X5.25949 Y19.73708
G01 X5.27224 Y19.62375
G01 X5.30561 Y19.52834
G01 X5.31247 Y19.49347
G01 X5.31501 Y19.39990
G01 X5.29967 Y19.35509
G01 X5.26490 Y19.29449
G01 X5.23406 Y19.25865
G01 X5.15217 Y19.21351
G01 X5.11656 Y19.20139
G01 X5.04417 Y19.19888
G01 X4.92446 Y19.20952
G01 X4.26950 Y19.20952
G01 X4.16752 Y19.20045
G01 X3.99553 Y19.15125
G01 X3.83770 Y19.06881
G01 X3.69970 Y18.95631
G01 X3.58720 Y18.81829
G01 X3.50473 Y18.66048
G01 X3.45555 Y18.48852
G01 X3.44649 Y18.38651
G01 X3.44649 Y17.88156
G01 X3.49642 Y17.88377
G01 X3.44649 Y17.88156
G01 X3.45555 Y17.77953
G01 X3.50473 Y17.60757
G01 X3.58720 Y17.44976
G01 X3.69970 Y17.31176
G01 X3.83772 Y17.19924
G01 X3.99553 Y17.11679
G01 X4.16752 Y17.06759
G01 X4.26950 Y17.05852
G01 X4.92446 Y17.05852
G01 X5.02644 Y17.06759
G01 X5.19840 Y17.11679
G01 X5.33767 Y17.18811
G01 X5.42344 Y17.20643
G01 X5.47076 Y17.20668
G01 X5.55862 Y17.17447
G01 X5.59017 Y17.15634
G01 X5.70330 Y17.03853
G01 X5.72212 Y17.01260
G01 X5.75563 Y16.95128
G01 X5.77003 Y16.90623
G01 X5.76561 Y16.81278
G01 X5.75585 Y16.77247
G01 X5.70975 Y16.69888
G01 X5.64788 Y16.63605
G01 X5.52215 Y16.47219
G01 X5.41892 Y16.29335
G01 X5.33990 Y16.10254
G01 X5.28644 Y15.90303
G01 X5.25949 Y15.69828
G01 X5.25949 Y15.49178
G01 X5.28644 Y15.28703
G01 X5.33990 Y15.08751
G01 X5.41892 Y14.89670
G01 X5.52215 Y14.71786
G01 X5.64788 Y14.55398
G01 X5.79393 Y14.40796
G01 X5.95776 Y14.28223
G01 X6.13665 Y14.17898
G01 X6.32746 Y14.09996
G01 X6.52695 Y14.04649
G01 X6.56855 Y14.04100
G01 X6.63480 Y14.05967
G01 X6.83495 Y14.08002
G01 X7.53500 Y14.08002
G01 X7.73517 Y14.05967
G01 X7.95189 Y13.99140
G01 X8.13743 Y13.88426
G01 X8.29672 Y13.74088
G01 X8.42859 Y13.55586
G01 X8.51315 Y13.35912
G01 X8.55437 Y13.16216
G01 X8.55506 Y12.98680
G01 X10.83189 Y10.70997
G01 X10.97527 Y10.61416
G01 X11.03413 Y10.58432
G01 X11.08853 Y10.54048
G01 X11.11911 Y10.50433
G01 X11.15076 Y10.41630
G01 X11.15701 Y10.38269
G01 X11.14449 Y10.23100
G01 X11.14449 Y9.66329
G01 X11.13941 Y9.62808
G01 X11.11972 Y9.56105
G01 X11.11055 Y9.53835
G01 X11.07154 Y9.48724
G01 X10.49991 Y8.91564
G01 X10.40413 Y8.77221
G01 X10.33812 Y8.61290
G01 X10.30449 Y8.44376
G01 X10.30449 Y7.26713
G01 X10.29941 Y7.23192
G01 X10.27972 Y7.16489
G01 X10.26331 Y7.13007
G01 X10.22130 Y7.08272
G01 X10.01427 Y6.92530
G01 X9.83471 Y6.74572
G01 X9.68252 Y6.54239
G01 X9.56080 Y6.31948
G01 X9.47203 Y6.08151
G01 X9.41805 Y5.83335
G01 X9.39994 Y5.58003
G01 X9.41805 Y5.32672
G01 X9.47203 Y5.07854
G01 X9.56080 Y4.84059
G01 X9.68252 Y4.61768
G01 X9.83471 Y4.41433
G01 X10.01429 Y4.23477
G01 X10.21762 Y4.08255
G01 X10.44050 Y3.96086
G01 X10.67848 Y3.87211
G01 X10.92666 Y3.81811
G01 X11.17997 Y3.79998
G01 X11.43329 Y3.81811
G01 X11.68147 Y3.87211
G01 X11.91944 Y3.96086
G01 X12.14233 Y4.08255
G01 X12.34566 Y4.23475
G01 X12.52523 Y4.41433
G01 X12.67743 Y4.61765
G01 X12.79917 Y4.84056
G01 X12.88789 Y5.07851
G01 X12.94189 Y5.32672
G01 X12.96003 Y5.58003
G01 X12.94189 Y5.83335
G01 X12.88792 Y6.08153
G01 X12.79917 Y6.31948
G01 X12.67743 Y6.54239
G01 X12.52523 Y6.74572
G01 X12.34563 Y6.92530
G01 X12.15526 Y7.06781
G01 X12.13011 Y7.09296
G01 X12.08823 Y7.14889
G01 X12.07017 Y7.18290
G01 X12.05546 Y7.26713
G01 X12.05546 Y7.89174
G01 X12.06054 Y7.92697
G01 X12.08939 Y8.01671
G01 X12.12841 Y8.06781
G01 X12.62218 Y8.56159
G01 X12.65068 Y8.58292
G01 X12.73455 Y8.62598
G01 X12.78487 Y8.63380
G01 X13.36544 Y8.63454
G01 X13.50123 Y8.64790
G01 X13.69295 Y8.70665
G01 X13.79208 Y8.72417
G01 X13.83730 Y8.71589
G01 X13.90255 Y8.69090
G01 X13.93298 Y8.67406
G01 X14.81019 Y7.79837
G01 X14.85335 Y7.72202
G01 X14.86790 Y7.67551
G01 X14.87148 Y7.63573
G01 X14.87148 Y7.36444
G01 X14.88002 Y7.26842
G01 X14.92642 Y7.10622
G01 X15.00415 Y6.95743
G01 X15.11024 Y6.82730
G01 X15.24037 Y6.72121
G01 X15.38916 Y6.64346
G01 X15.55134 Y6.59708
G01 X15.64738 Y6.58854
G01 X16.04656 Y6.58854
G01 X16.14260 Y6.59708
G01 X16.30478 Y6.64346
G01 X16.45357 Y6.72121
G01 X16.58372 Y6.82733
G01 X16.61623 Y6.86517
G01 X16.70856 Y6.92730
G01 X16.75476 Y6.93766
G01 X16.82461 Y6.93975
G01 X16.87130 Y6.93218
G01 X16.95261 Y6.88593
G01 X16.96985 Y6.87345
G01 X17.01001 Y6.82748
G01 X17.14039 Y6.72121
G01 X17.28916 Y6.64346
G01 X17.45133 Y6.59708
G01 X17.54740 Y6.58854
G01 X17.94656 Y6.58854
G01 X18.04260 Y6.59708
G01 X18.20477 Y6.64346
G01 X18.35357 Y6.72121
G01 X18.48372 Y6.82730
G01 X18.58979 Y6.95743
G01 X18.66754 Y7.10624
G01 X18.71394 Y7.26842
G01 X18.72248 Y7.36444
G01 X18.72248 Y8.63860
G01 X18.71394 Y8.73464
G01 X18.66754 Y8.89682
G01 X18.58979 Y9.04564
G01 X18.48372 Y9.17576
G01 X18.35359 Y9.28186
G01 X18.20477 Y9.35958
G01 X18.04257 Y9.40599
G01 X17.98184 Y9.41267
G01 X17.87859 Y9.45427
G01 X17.84409 Y9.48673
G01 X17.80320 Y9.54340
G01 X17.78598 Y9.57703
G01 X17.77247 Y9.65783
G01 X17.77247 Y10.51360
G01 X17.76393 Y10.60964
G01 X17.71753 Y10.77185
G01 X17.69017 Y10.83197
G01 X17.67338 Y10.90421
G01 X17.67247 Y11.44726
G01 X17.63881 Y11.61640
G01 X17.57282 Y11.77573
G01 X17.47701 Y11.91911
G01 X17.26139 Y12.13476
G01 X17.24011 Y12.16321
G01 X17.20661 Y12.22452
G01 X17.19860 Y12.24235
G01 X17.19134 Y12.28068
G01 X17.18865 Y12.37062
G01 X17.17940 Y12.47448
G01 X17.13023 Y12.64634
G01 X17.03978 Y12.81870
G01 X17.00572 Y12.93026
G01 X17.00968 Y12.97740
G01 X17.03279 Y13.05711
G01 X17.13025 Y13.24377
G01 X17.17940 Y13.41555
G01 X17.18847 Y13.51753
G01 X17.18847 Y14.02251
G01 X17.17940 Y14.12449
G01 X17.13020 Y14.29648
G01 X17.04775 Y14.45431
G01 X16.93526 Y14.59231
G01 X16.79726 Y14.70481
G01 X16.63942 Y14.78726
G01 X16.46744 Y14.83646
G01 X16.36546 Y14.84552
G01 X15.71049 Y14.84552
G01 X15.57999 Y14.83519
G01 X15.49376 Y14.85109
G01 X15.45952 Y14.86330
G01 X15.39970 Y14.90747
G01 X14.70819 Y15.59896
G01 X14.68685 Y15.62744
G01 X14.64402 Y15.71060
G01 X14.63841 Y15.75756
G01 X14.64339 Y15.82726
G01 X14.65314 Y15.86757
G01 X14.66290 Y15.88593
G01 X14.69924 Y15.94115
G01 X14.71591 Y15.95881
G01 X14.70361 Y16.01748
G01 X14.70354 Y16.15395
G01 X14.73181 Y16.28687
G01 X14.78113 Y16.39934
G01 X14.86694 Y16.52096
G01 X14.96793 Y16.61186
G01 X15.08560 Y16.67981
G01 X15.21179 Y16.72103
G01 X15.13331 Y16.69604
G01 X15.01235 Y16.69604
G01 X14.93854 Y16.65230
G01 X14.82980 Y16.55438
G01 X14.74380 Y16.43599
G01 X14.68426 Y16.30231
G01 X14.65383 Y16.15919
G01 X14.65289 Y16.03114
G01 X14.65706 Y15.99312
G01 X14.66366 Y15.97308
G01 X14.64936 Y15.95731
G01 X14.60722 Y15.88723
G01 X14.59353 Y15.83081
G01 X14.58855 Y15.76112
G01 X14.58934 Y15.72787
G01 X14.59643 Y15.69538
G01 X14.60951 Y15.66480
G01 X14.65650 Y15.58248
G01 X15.36434 Y14.87212
G01 X15.43607 Y14.81918
G01 X15.48398 Y14.80209
G01 X15.57727 Y14.78530
G01 X15.71270 Y14.79556
G01 X16.36325 Y14.79556
G01 X16.45827 Y14.78710
G01 X16.62078 Y14.74060
G01 X16.76975 Y14.66307
G01 X16.89972 Y14.55678
G01 X17.00602 Y14.42680
G01 X17.08354 Y14.27783
G01 X17.13005 Y14.11532
G01 X17.13851 Y14.02030
G01 X17.13851 Y13.51974
G01 X17.13005 Y13.42472
G01 X17.08362 Y13.26249
G01 X16.98636 Y13.07563
G01 X16.96155 Y12.99092
G01 X16.95565 Y12.95820
G01 X16.95603 Y12.92495
G01 X16.96269 Y12.89236
G01 X16.99553 Y12.79546
G01 X17.08385 Y12.62775
G01 X17.13033 Y12.46537
G01 X17.14435 Y12.25195
G01 X17.16274 Y12.20054
G01 X17.19624 Y12.13923
G01 X17.22606 Y12.09943
G01 X17.43820 Y11.88726
G01 X17.52855 Y11.75206
G01 X17.59076 Y11.60182
G01 X17.62251 Y11.44233
G01 X17.62375 Y10.89819
G01 X17.64163 Y10.82005
G01 X17.67087 Y10.75320
G01 X17.71483 Y10.60052
G01 X17.72250 Y10.51139
G01 X17.72250 Y9.65783
G01 X17.73856 Y9.56123
G01 X17.76266 Y9.51414
G01 X17.80356 Y9.45747
G01 X17.82553 Y9.43245
G01 X17.85184 Y9.41203
G01 X17.88153 Y9.39699
G01 X17.97036 Y9.36403
G01 X18.03340 Y9.35663
G01 X18.18626 Y9.31328
G01 X18.32609 Y9.24012
G01 X18.44818 Y9.14023
G01 X18.54785 Y9.01800
G01 X18.62113 Y8.87828
G01 X18.66459 Y8.72547
G01 X18.67252 Y8.63639
G01 X18.67252 Y7.36665
G01 X18.66459 Y7.27759
G01 X18.62113 Y7.12479
G01 X18.54785 Y6.98506
G01 X18.44818 Y6.86284
G01 X18.32593 Y6.76314
G01 X18.18613 Y6.69012
G01 X18.03348 Y6.64595
G01 X17.94435 Y6.63850
G01 X17.54961 Y6.63850
G01 X17.46043 Y6.64595
G01 X17.30770 Y6.68989
G01 X17.16782 Y6.76286
G01 X17.04547 Y6.86309
G01 X17.00249 Y6.91130
G01 X16.97836 Y6.92877
G01 X16.88850 Y6.97912
G01 X16.85631 Y6.98753
G01 X16.82312 Y6.98968
G01 X16.75327 Y6.98760
G01 X16.72025 Y6.98346
G01 X16.68860 Y6.97312
G01 X16.65949 Y6.95699
G01 X16.58237 Y6.90193
G01 X16.54821 Y6.86284
G01 X16.42614 Y6.76284
G01 X16.28613 Y6.69012
G01 X16.13348 Y6.64595
G01 X16.04435 Y6.63850
G01 X15.64959 Y6.63850
G01 X15.56046 Y6.64595
G01 X15.40770 Y6.68989
G01 X15.26787 Y6.76294
G01 X15.14560 Y6.86266
G01 X15.04588 Y6.98491
G01 X14.97285 Y7.12476
G01 X14.92899 Y7.27752
G01 X14.92144 Y7.36665
G01 X14.92144 Y7.63573
G01 X14.91761 Y7.68089
G01 X14.91060 Y7.71442
G01 X14.89721 Y7.74597
G01 X14.86373 Y7.80728
G01 X14.83376 Y7.84726
G01 X13.96303 Y8.71401
G01 X13.92043 Y8.73759
G01 X13.85518 Y8.76258
G01 X13.82406 Y8.77129
G01 X13.79188 Y8.77414
G01 X13.67829 Y8.75443
G01 X13.49135 Y8.69715
G01 X13.36298 Y8.68450
G01 X12.79828 Y8.68450
G01 X12.71959 Y8.67368
G01 X12.62673 Y8.62682
G01 X12.58683 Y8.59695
G01 X12.09305 Y8.10317
G01 X12.04510 Y8.03987
G01 X12.01258 Y7.94107
G01 X12.00550 Y7.89174
G01 X12.00550 Y7.26713
G01 X12.00827 Y7.23606
G01 X12.02295 Y7.16654
G01 X12.04822 Y7.11892
G01 X12.09011 Y7.06299
G01 X12.12531 Y7.02781
G01 X12.31284 Y6.88742
G01 X12.48736 Y6.71290
G01 X12.63527 Y6.51529
G01 X12.75358 Y6.29865
G01 X12.83984 Y6.06741
G01 X12.89229 Y5.82621
G01 X12.90992 Y5.58003
G01 X12.89229 Y5.33386
G01 X12.83984 Y5.09263
G01 X12.75358 Y4.86139
G01 X12.63527 Y4.64476
G01 X12.48736 Y4.44714
G01 X12.31284 Y4.27262
G01 X12.11523 Y4.12472
G01 X11.89864 Y4.00643
G01 X11.66735 Y3.92017
G01 X11.42615 Y3.86772
G01 X11.17997 Y3.85009
G01 X10.93377 Y3.86759
G01 X10.69257 Y3.92007
G01 X10.46125 Y4.00630
G01 X10.24464 Y4.12459
G01 X10.04701 Y4.27254
G01 X9.87248 Y4.44707
G01 X9.72453 Y4.64468
G01 X9.60639 Y4.86139
G01 X9.52001 Y5.09263
G01 X9.46750 Y5.33383
G01 X9.44990 Y5.58003
G01 X9.46750 Y5.82624
G01 X9.51998 Y6.06744
G01 X9.60627 Y6.29870
G01 X9.72458 Y6.51536
G01 X9.87248 Y6.71298
G01 X10.04701 Y6.88750
G01 X10.25788 Y7.04866
G01 X10.30471 Y7.10205
G01 X10.32768 Y7.15080
G01 X10.34736 Y7.21783
G01 X10.35445 Y7.26713
G01 X10.35422 Y8.43886
G01 X10.38594 Y8.59839
G01 X10.44820 Y8.74866
G01 X10.53855 Y8.88391
G01 X11.10690 Y9.45188
G01 X11.15485 Y9.51518
G01 X11.16768 Y9.54696
G01 X11.18736 Y9.61399
G01 X11.19445 Y9.66329
G01 X11.19445 Y10.22874
G01 X11.20695 Y10.38505
G01 X11.19818 Y10.43204
G01 X11.16270 Y10.52879
G01 X11.14370 Y10.55612
G01 X11.11990 Y10.57939
G01 X11.06550 Y10.62323
G01 X11.04500 Y10.63745
G01 X10.99895 Y10.65846
G01 X10.86354 Y10.74855
G01 X8.60505 Y13.00750
G01 X8.60129 Y13.00593
G01 X8.60505 Y13.00750
G01 X8.60408 Y13.16737
G01 X8.56207 Y13.36950
G01 X8.55077 Y13.40430
G01 X8.47426 Y13.57618
G01 X8.45598 Y13.60786
G01 X8.33385 Y13.77430
G01 X8.16680 Y13.92470
G01 X7.98854 Y14.02874
G01 X7.95511 Y14.04362
G01 X7.75847 Y14.10651
G01 X7.55328 Y14.12904
G01 X6.83495 Y14.13001
G01 X6.62959 Y14.10935
G01 X6.56380 Y14.09203
G01 X6.53665 Y14.09470
G01 X6.34351 Y14.14728
G01 X6.15870 Y14.22381
G01 X5.98552 Y14.32378
G01 X5.82687 Y14.44555
G01 X5.68550 Y14.58695
G01 X5.56373 Y14.74562
G01 X5.46373 Y14.91880
G01 X5.38722 Y15.10356
G01 X5.33541 Y15.29675
G01 X5.30935 Y15.49505
G01 X5.30935 Y15.69500
G01 X5.33541 Y15.89330
G01 X5.38722 Y16.08649
G01 X5.46373 Y16.27125
G01 X5.56373 Y16.44443
G01 X5.68557 Y16.60303
G01 X5.74867 Y16.66752
G01 X5.78814 Y16.72708
G01 X5.81097 Y16.78044
G01 X5.82042 Y16.87892
G01 X5.81966 Y16.91217
G01 X5.81257 Y16.94466
G01 X5.79949 Y16.97524
G01 X5.75397 Y17.05555
G01 X5.63995 Y17.17836
G01 X5.59995 Y17.20988
G01 X5.57694 Y17.22096
G01 X5.51194 Y17.24658
G01 X5.47998 Y17.25581
G01 X5.44684 Y17.25878
G01 X5.41369 Y17.25545
G01 X5.32113 Y17.23526
G01 X5.17978 Y17.16345
G01 X5.01727 Y17.11694
G01 X4.92225 Y17.10849
G01 X4.27171 Y17.10849
G01 X4.17661 Y17.11651
G01 X4.01407 Y17.16322
G01 X3.86520 Y17.24097
G01 X3.73506 Y17.34712
G01 X3.62893 Y17.47727
G01 X3.55116 Y17.62611
G01 X3.50470 Y17.78867
G01 X3.49642 Y17.88377
G01 X3.49642 Y18.38430
G01 X3.50470 Y18.47937
G01 X3.55116 Y18.64193
G01 X3.62893 Y18.79080
G01 X3.73506 Y18.92095
G01 X3.86520 Y19.02707
G01 X4.01407 Y19.10482
G01 X4.17661 Y19.15159
G01 X4.27171 Y19.15956
G01 X4.92223 Y19.15956
G01 X5.05989 Y19.14846
G01 X5.12540 Y19.15219
G01 X5.15093 Y19.15880
G01 X5.23721 Y19.20142
G01 X5.26510 Y19.21948
G01 X5.28908 Y19.24249
G01 X5.30828 Y19.26962
G01 X5.35672 Y19.36055
G01 X5.36447 Y19.39296
G01 X5.36591 Y19.42624
G01 X5.35931 Y19.52077
G01 X5.32101 Y19.63490
G01 X5.30937 Y19.73987
G01 X5.30937 Y21.61018
G01 X5.32095 Y21.71518
G01 X5.36754 Y21.84828
G01 X5.44260 Y21.96771
G01 X5.54229 Y22.06740
G01 X5.66172 Y22.14246
G01 X5.79474 Y22.18925
G01 X5.89982 Y22.20055
G01 X6.07914 Y22.20154
G01 X6.17701 Y22.22427
G01 X6.22659 Y22.25450
G01 X6.27940 Y22.30027
G01 X6.30233 Y22.32432
G01 X6.32032 Y22.35232
G01 X6.33266 Y22.38318
G01 X6.35235 Y22.45021
G01 X6.35943 Y22.49951
G01 X6.35915 Y24.71337
G01 X6.39096 Y24.87288
G01 X6.45319 Y25.02318
G01 X6.54356 Y25.15841
G01 X6.73388 Y25.34842
G01 X6.76296 Y25.38289
G01 X6.78679 Y25.42196
G01 X6.81963 Y25.53491
G01 X6.82141 Y25.61929
G01 X6.82959 Y25.71436
G01 X6.87617 Y25.87692
G01 X6.95390 Y26.02579
G01 X7.06007 Y26.15597
G01 X7.19019 Y26.26209
G01 X7.33906 Y26.33984
G01 X7.50152 Y26.38655
G01 X7.59669 Y26.39455
G01 X8.09725 Y26.39455
G01 X8.19303 Y26.38604
G01 X8.33167 Y26.34934
G01 X8.37967 Y26.34956
G01 X8.44886 Y26.35950
G01 X8.48120 Y26.36734
G01 X8.51147 Y26.38119
G01 X8.53860 Y26.40049
G01 X8.61434 Y26.47032
G01 X8.63233 Y26.49831
G01 X8.64467 Y26.52917
G01 X8.66967 Y26.62061
G01 X8.67127 Y26.72536
G01 X8.70296 Y26.88489
G01 X8.76519 Y27.03516
G01 X8.85557 Y27.17042
G01 X9.65958 Y27.97407
G01 X9.68305 Y28.00321
G01 X9.72519 Y28.07328
G01 X9.73888 Y28.12970
G01 X9.74386 Y28.22434
G01 X9.72166 Y28.33483
G01 X9.70385 Y28.58100
G01 X9.72153 Y28.82723
G01 X9.77401 Y29.06843
G01 X9.86027 Y29.29972
G01 X9.97855 Y29.51636
G01 X10.12648 Y29.71397
G01 X10.30101 Y29.88852
G01 X10.49864 Y30.03642
G01 X10.71528 Y30.15474
G01 X10.94657 Y30.24102
G01 X11.18777 Y30.29347
G01 X11.43397 Y30.31095
G01 X11.68018 Y30.29335
G01 X11.92135 Y30.24089
G01 X12.15262 Y30.15461
G01 X12.36923 Y30.03632
G01 X12.56684 Y29.88842
G01 X12.74136 Y29.71390
G01 X12.88929 Y29.51628
G01 X13.00758 Y29.29967
G01 X13.09384 Y29.06841
G01 X13.14629 Y28.82721
G01 X13.16392 Y28.58103
G01 X13.14629 Y28.33485
G01 X13.09384 Y28.09363
G01 X13.00758 Y27.86239
G01 X12.88929 Y27.64578
G01 X12.74136 Y27.44816
G01 X12.56684 Y27.27364
G01 X12.36923 Y27.12571
G01 X12.15272 Y27.00747
G01 X11.82645 Y26.88365
G01 X11.78111 Y26.84591
G01 X11.73572 Y26.79279
G01 X11.71662 Y26.76554
G01 X11.70301 Y26.73519
G01 X11.68594 Y26.63354
G01 X11.68459 Y26.60031
G01 X11.68955 Y26.56742
G01 X11.73011 Y26.47273
G01 X11.74695 Y26.44405
G01 X11.76890 Y26.41906
G01 X11.79519 Y26.39869
G01 X11.85422 Y26.36132
G01 X11.87621 Y26.34951
G01 X11.92178 Y26.33460
G01 X12.07253 Y26.25586
G01 X12.11294 Y26.22841
G01 X12.21032 Y26.19663
G01 X12.25963 Y26.18957
G01 X14.76691 Y26.18957
G01 X14.82096 Y26.19813
G01 X14.91921 Y26.23229
G01 X15.00097 Y26.28906
G01 X15.16221 Y26.37151
G01 X15.33452 Y26.42736
G01 X15.51342 Y26.45571
G01 X16.14450 Y26.45556
G01 X16.32340 Y26.42721
G01 X16.49563 Y26.37126
G01 X16.65697 Y26.28906
G01 X16.80351 Y26.18258
G01 X16.93155 Y26.05454
G01 X17.03797 Y25.90804
G01 X17.12019 Y25.74667
G01 X17.17615 Y25.57443
G01 X17.20450 Y25.39557
G01 X17.20450 Y25.21441
G01 X17.20079 Y25.17832
G01 X17.21252 Y25.08309
G01 X17.22037 Y25.05079
G01 X17.23416 Y25.02053
G01 X17.25347 Y24.99346
G01 X17.29921 Y24.94065
G01 X17.32327 Y24.91769
G01 X17.35126 Y24.89971
G01 X17.38214 Y24.88734
G01 X17.44918 Y24.86765
G01 X17.49850 Y24.86057
G01 X17.78710 Y24.86057
G01 X17.87534 Y24.87387
G01 X17.91811 Y24.89326
G01 X17.96891 Y24.92508
G01 X18.13426 Y25.05993
G01 X18.28181 Y25.13882
G01 X18.44219 Y25.18749
G01 X18.56718 Y25.19960
G01 X19.35075 Y25.19955
G01 X19.47571 Y25.18723
G01 X19.63601 Y25.13859
G01 X19.78379 Y25.05962
G01 X19.91331 Y24.95335
G01 X20.01958 Y24.82384
G01 X20.09840 Y24.67636
G01 X20.16085 Y24.47187
G01 X20.20500 Y24.39315
G01 X20.23581 Y24.35404
G01 X22.42090 Y22.27299
G01 X22.42366 Y22.27439
G01 X22.42090 Y22.27299
G01 X22.42204 Y22.24586
G01 X22.43263 Y22.17833
G01 X22.45468 Y22.13024
G01 X22.49306 Y22.07187
G01 X22.51388 Y22.04597
G01 X22.53921 Y22.02445
G01 X22.63197 Y21.97972
G01 X22.66357 Y21.96916
G01 X22.69656 Y21.96474
G01 X22.72981 Y21.96667
G01 X22.79887 Y21.97734
G01 X22.83111 Y21.98551
G01 X22.86120 Y21.99964
G01 X22.88810 Y22.01919
G01 X22.95790 Y22.08333
G01 X23.04660 Y22.22168
G01 X23.14629 Y22.32140
G01 X23.26572 Y22.39646
G01 X23.39882 Y22.44304
G01 X23.50382 Y22.45463
G01 X26.07410 Y22.45455
G01 X26.17913 Y22.44304
G01 X26.31223 Y22.39646
G01 X26.43166 Y22.32140
G01 X26.53135 Y22.22171
G01 X26.60641 Y22.10228
G01 X26.65299 Y21.96918
G01 X26.66450 Y21.86415
G01 X26.66450 Y19.99390
G01 X26.65299 Y19.88887
G01 X26.60641 Y19.75577
G01 X26.53046 Y19.63551
G01 X26.45589 Y19.55885
G01 X26.42604 Y19.51755
G01 X26.39310 Y19.42804
G01 X26.38525 Y19.39570
G01 X26.38365 Y19.36251
G01 X26.38838 Y19.32956
G01 X26.41245 Y19.23787
G01 X26.51012 Y19.06520
G01 X26.58662 Y18.88044
G01 X26.63839 Y18.68730
G01 X26.66450 Y18.48903
G01 X26.66450 Y18.28903
G01 X26.63839 Y18.09075
G01 X26.58662 Y17.89761
G01 X26.51012 Y17.71285
G01 X26.41012 Y17.53968
G01 X26.28838 Y17.38100
G01 X26.22526 Y17.31649
G01 X26.18581 Y17.25695
G01 X26.16298 Y17.20358
G01 X26.15350 Y17.10513
G01 X26.15429 Y17.07188
G01 X26.16138 Y17.03940
G01 X26.20793 Y16.94750
G01 X26.23778 Y16.90762
G01 X26.28838 Y16.85705
G01 X26.41012 Y16.69838
G01 X26.51012 Y16.52520
G01 X26.58662 Y16.34044
G01 X26.63839 Y16.14730
G01 X26.66450 Y15.94903
G01 X26.66450 Y15.74903
G01 X26.63839 Y15.55075
G01 X26.58662 Y15.35761
G01 X26.51012 Y15.17285
G01 X26.41012 Y14.99968
G01 X26.28838 Y14.84100
G01 X26.14700 Y14.69963
G01 X25.98833 Y14.57788
G01 X25.81515 Y14.47788
G01 X25.63039 Y14.40138
G01 X25.41017 Y14.34509
G01 X25.34441 Y14.36335
G01 X25.13900 Y14.38401
G01 X24.43898 Y14.38401
G01 X24.23357 Y14.36335
G01 X24.16786 Y14.34603
G01 X24.14065 Y14.34870
G01 X23.94751 Y14.40128
G01 X23.76275 Y14.47781
G01 X23.58957 Y14.57778
G01 X23.43090 Y14.69955
G01 X23.28950 Y14.84095
G01 X23.16773 Y14.99962
G01 X23.06776 Y15.17280
G01 X22.99123 Y15.35756
G01 X22.93944 Y15.55075
G01 X22.91335 Y15.74905
G01 X22.91333 Y15.94903
G01 X22.93956 Y16.14730
G01 X22.99123 Y16.34049
G01 X23.06776 Y16.52525
G01 X23.16771 Y16.69845
G01 X23.28958 Y16.85705
G01 X23.35264 Y16.92152
G01 X23.39209 Y16.98103
G01 X23.41497 Y17.03442
G01 X23.42445 Y17.13292
G01 X23.42366 Y17.16617
G01 X23.41658 Y17.19868
G01 X23.40347 Y17.22929
G01 X23.35648 Y17.31156
G01 X23.28958 Y17.38100
G01 X23.16773 Y17.53960
G01 X23.09313 Y17.66901
G01 X23.06827 Y17.70226
G01 X23.00504 Y17.76472
G01 X22.97898 Y17.78062
G01 X22.88356 Y17.81140
G01 X22.83425 Y17.81849
G01 X22.43913 Y17.81725
G01 X22.36103 Y17.79937
G01 X22.29417 Y17.77013
G01 X22.14147 Y17.72616
G01 X22.05234 Y17.71849
G01 X21.66398 Y17.71849
G01 X21.50017 Y17.69149
G01 X21.33616 Y17.69136
G01 X21.25664 Y17.70732
G01 X21.21000 Y17.71024
G01 X21.14449 Y17.70554
G01 X21.11267 Y17.70028
G01 X21.08237 Y17.68928
G01 X20.99794 Y17.63200
G01 X20.97292 Y17.61003
G01 X20.95250 Y17.58372
G01 X20.93746 Y17.55403
G01 X20.90449 Y17.46520
G01 X20.89758 Y17.40760
G01 X20.85422 Y17.25474
G01 X20.78107 Y17.11491
G01 X20.68117 Y16.99281
G01 X20.55910 Y16.89294
G01 X20.41922 Y16.81987
G01 X20.26649 Y16.77595
G01 X20.17734 Y16.76848
G01 X18.90759 Y16.76843
G01 X18.81849 Y16.77618
G01 X18.66573 Y16.81989
G01 X18.49743 Y16.90666
G01 X18.39924 Y16.93074
G01 X17.05842 Y16.93198
G01 X17.01275 Y16.92594
G01 X16.95024 Y16.90904
G01 X16.92022 Y16.89789
G01 X16.89274 Y16.88146
G01 X16.86868 Y16.86028
G01 X16.80490 Y16.79015
G01 X16.78253 Y16.75098
G01 X16.78458 Y16.74671
G01 X16.78253 Y16.75098
G01 X16.50300 Y16.75098
G01 X16.41319 Y16.73963
G01 X16.34397 Y16.71512
G01 X16.30940 Y16.69662
G01 X16.23785 Y16.64118
G01 X16.23185 Y16.63518
G01 X16.23241 Y16.62370
G01 X16.23185 Y16.63518
G01 X16.21143 Y16.65230
G01 X16.13762 Y16.69604
G01 X16.01669 Y16.69604
G01 X15.93803 Y16.72103
G01 X16.01674 Y16.74600
G01 X16.13765 Y16.74600
G01 X16.21143 Y16.78972
G01 X16.32017 Y16.88763
G01 X16.39622 Y16.99065
G01 X16.41451 Y17.02235
G01 X16.46571 Y17.13970
G01 X16.49614 Y17.28286
G01 X16.49708 Y17.41090
G01 X16.49327 Y17.44727
G01 X16.46571 Y17.57231
G01 X16.41451 Y17.68969
G01 X16.39622 Y17.72136
G01 X16.33170 Y17.81016
G01 X16.26053 Y17.87940
G01 X16.18728 Y17.90544
G01 X16.10394 Y17.92776
G01 X16.05215 Y17.95451
G01 X15.98586 Y17.97605
G01 X15.94580 Y17.98240
G01 X15.79998 Y17.99103
G01 X15.34999 Y17.99103
G01 X15.22871 Y17.98499
G01 X15.16414 Y17.97605
G01 X15.08560 Y17.94981
G01 X15.04603 Y17.92774
G01 X14.96267 Y17.90544
G01 X14.88947 Y17.87940
G01 X14.82980 Y17.82438
G01 X14.74496 Y17.70622
G01 X14.68136 Y17.67663
G01 X14.60981 Y17.62118
G01 X13.44382 Y16.45520
G01 X13.38838 Y16.38365
G01 X13.36988 Y16.34905
G01 X13.34537 Y16.27984
G01 X13.33402 Y16.19002
G01 X13.33402 Y15.36000
G01 X13.34121 Y15.28685
G01 X13.36988 Y15.20100
G01 X13.40743 Y15.13790
G01 X13.44382 Y15.09485
G01 X15.03381 Y13.50486
G01 X15.10537 Y13.44941
G01 X15.17163 Y13.41781
G01 X15.22581 Y13.40224
G01 X15.29899 Y13.39506
G01 X15.43229 Y13.39506
G01 X15.43485 Y13.39993
G01 X15.43229 Y13.39506
G01 X15.45962 Y13.34962
G01 X15.49912 Y13.30430
G01 X15.52632 Y13.27982
G01 X15.57549 Y13.24527
G01 X15.63000 Y13.21995
G01 X15.70569 Y13.19996
G01 X15.74174 Y13.19612
G01 X16.31265 Y13.19503
G01 X16.40216 Y13.20697
G01 X16.44595 Y13.21995
G01 X16.50049 Y13.24527
G01 X16.54966 Y13.27982
G01 X16.60483 Y13.33537
G01 X16.62632 Y13.36496
G01 X16.65555 Y13.41748
G01 X16.67978 Y13.49206
G01 X16.68796 Y13.57001
G01 X16.68796 Y13.97001
G01 X16.68263 Y14.02988
G01 X16.67503 Y14.06567
G01 X16.65555 Y14.12254
G01 X16.62632 Y14.17506
G01 X16.60483 Y14.20466
G01 X16.56391 Y14.24867
G01 X16.50049 Y14.29475
G01 X16.42886 Y14.32665
G01 X16.35217 Y14.34293
G01 X15.72378 Y14.34293
G01 X15.66480 Y14.33138
G01 X15.63000 Y14.32007
G01 X15.57549 Y14.29475
G01 X15.52632 Y14.26021
G01 X15.49912 Y14.23572
G01 X15.45962 Y14.19043
G01 X15.44034 Y14.15896
G01 X15.44204 Y14.13313
G01 X15.44034 Y14.15896
G01 X14.08395 Y15.51535
G01 X14.08017 Y15.51375
G01 X14.08395 Y15.51535
G01 X14.08395 Y16.03470
G01 X14.08017 Y16.03630
G01 X14.08395 Y16.03470
G01 X14.88548 Y16.83622
G01 X14.88418 Y16.85162
G01 X14.88548 Y16.83622
G01 X14.92431 Y16.80125
G01 X15.01232 Y16.74600
G01 X15.13325 Y16.74600
G01 X15.21179 Y16.72103
G01 X15.93803 Y16.72103
G01 X16.07603 Y16.76815
G01 X16.18205 Y16.83015
G01 X16.27379 Y16.91184
G01 X16.36289 Y17.03102
G01 X16.41816 Y17.15515
G01 X16.44643 Y17.28806
G01 X16.44438 Y17.43688
G01 X16.41816 Y17.55687
G01 X16.35578 Y17.69197
G01 X16.27379 Y17.80020
G01 X16.18205 Y17.88186
G01 X16.10394 Y17.92776
G01 X18.67998 Y17.54402
G01 X18.67998 Y17.84402
G01 X18.68600 Y17.90119
G01 X18.69908 Y17.94366
G01 X18.73251 Y18.00566
G01 X18.77097 Y18.04839
G01 X18.81750 Y18.08217
G01 X18.88265 Y18.10894
G01 X18.93922 Y18.11819
G01 X20.14955 Y18.11747
G01 X20.21183 Y18.10653
G01 X20.27846 Y18.07503
G01 X20.31399 Y18.04839
G01 X20.34424 Y18.01582
G01 X20.38122 Y17.95585
G01 X20.39898 Y17.90119
G01 X20.40500 Y17.84402
G01 X20.40500 Y17.54402
G01 X20.39898 Y17.48684
G01 X20.38122 Y17.43216
G01 X20.35247 Y17.38237
G01 X20.31399 Y17.33965
G01 X20.25582 Y17.29993
G01 X20.21496 Y17.28248
G01 X20.14574 Y17.26983
G01 X18.95507 Y17.26901
G01 X18.88908 Y17.27790
G01 X18.85778 Y17.28715
G01 X18.81750 Y17.30584
G01 X18.77097 Y17.33965
G01 X18.73251 Y17.38237
G01 X18.70376 Y17.43216
G01 X18.68600 Y17.48684
G01 X18.67998 Y17.54402
G01 X18.63000 Y17.54402
G01 X18.63000 Y17.84402
G01 X18.63711 Y17.91158
G01 X18.65154 Y17.95911
G01 X18.68209 Y18.01966
G01 X18.72459 Y18.07257
G01 X18.77714 Y18.11547
G01 X18.83746 Y18.14653
G01 X18.87226 Y18.15784
G01 X18.93919 Y18.16817
G01 X20.15735 Y18.16683
G01 X20.20370 Y18.15949
G01 X20.24752 Y18.14653
G01 X20.29248 Y18.12545
G01 X20.34744 Y18.08552
G01 X20.39291 Y18.03503
G01 X20.41856 Y17.99251
G01 X20.43345 Y17.95911
G01 X20.44787 Y17.91158
G01 X20.45496 Y17.84402
G01 X20.45496 Y17.54402
G01 X20.44787 Y17.47646
G01 X20.42687 Y17.41184
G01 X20.39291 Y17.35299
G01 X20.36040 Y17.31544
G01 X20.33322 Y17.29098
G01 X20.27617 Y17.25426
G01 X20.23040 Y17.23493
G01 X20.18204 Y17.22367
G01 X20.14579 Y17.21986
G01 X18.95512 Y17.21903
G01 X18.88125 Y17.22853
G01 X18.83746 Y17.24151
G01 X18.77714 Y17.27254
G01 X18.73754 Y17.30252
G01 X18.69207 Y17.35299
G01 X18.66642 Y17.39551
G01 X18.65154 Y17.42893
G01 X18.63711 Y17.47646
G01 X18.63000 Y17.54402
G04 P0 ( dwell for no time -- G64 should not smooth over this point )
G00 Z2.00000 ( retract )

G00 X15.28703 Y23.41500 ( rapid move to begin. )
G01 F10.00000
( Mill infeed pass 1/1 )
G01 Z-0.10000
G04 P0 ( dwell for no time -- G64 should not smooth over this point )
G01 F20.00000
G01 X15.28703 Y23.41500
G01 X15.20186 Y23.43789
G01 X15.12553 Y23.46499
G01 X15.04486 Y23.46163
G01 X15.01202 Y23.45168
G01 X14.98177 Y23.43550
G01 X14.95525 Y23.41373
G01 X14.93351 Y23.38724
G01 X14.91733 Y23.35699
G01 X14.90737 Y23.32414
G01 X14.90402 Y23.29001
G01 X14.90402 Y22.37035
G01 X14.90780 Y22.36877
G01 X14.90402 Y22.37035
G01 X11.04365 Y18.50998
G01 X11.04523 Y18.50620
G01 X11.04365 Y18.50998
G01 X8.53931 Y18.50998
G01 X8.53413 Y18.50201
G01 X8.53931 Y18.50998
G01 X8.46596 Y18.67249
G01 X8.33385 Y18.85430
G01 X8.16680 Y19.00470
G01 X7.97223 Y19.11707
G01 X7.75847 Y19.18651
G01 X7.55328 Y19.20904
G01 X6.81668 Y19.20904
G01 X6.61148 Y19.18651
G01 X6.41483 Y19.12362
G01 X6.38143 Y19.10874
G01 X6.20310 Y19.00470
G01 X6.04907 Y18.86726
G01 X6.02459 Y18.84008
G01 X5.90401 Y18.67249
G01 X5.83017 Y18.50899
G01 X5.83533 Y18.50101
G01 X5.83017 Y18.50899
G01 X5.20269 Y18.50899
G01 X5.19997 Y18.50363
G01 X5.20269 Y18.50899
G01 X5.16383 Y18.56865
G01 X5.12286 Y18.61267
G01 X5.07483 Y18.64879
G01 X5.04313 Y18.66708
G01 X4.98349 Y18.69200
G01 X4.89931 Y18.70683
G01 X4.32200 Y18.70899
G01 X4.21049 Y18.69200
G01 X4.15083 Y18.66708
G01 X4.11913 Y18.64879
G01 X4.07107 Y18.61267
G01 X4.01862 Y18.55443
G01 X3.97943 Y18.48654
G01 X3.95520 Y18.41199
G01 X3.94702 Y18.33401
G01 X3.94702 Y17.93401
G01 X3.99698 Y17.93401
G01 X3.94702 Y17.93401
G01 X3.95520 Y17.85606
G01 X3.97943 Y17.78148
G01 X4.00864 Y17.72896
G01 X4.03015 Y17.69937
G01 X4.07107 Y17.65535
G01 X4.11913 Y17.61925
G01 X4.15083 Y17.60097
G01 X4.20612 Y17.57739
G01 X4.26470 Y17.56396
G01 X4.30074 Y17.56012
G01 X4.87165 Y17.55903
G01 X4.98349 Y17.57602
G01 X5.05949 Y17.60927
G01 X5.12286 Y17.65535
G01 X5.17536 Y17.71361
G01 X5.20269 Y17.75906
G01 X5.20041 Y17.76388
G01 X5.20269 Y17.75906
G01 X5.83106 Y17.75906
G01 X5.83622 Y17.76703
G01 X5.83106 Y17.75906
G01 X5.90401 Y17.59751
G01 X6.02459 Y17.42995
G01 X6.04907 Y17.40277
G01 X6.20310 Y17.26533
G01 X6.38143 Y17.16129
G01 X6.41483 Y17.14641
G01 X6.61148 Y17.08352
G01 X6.83495 Y17.06002
G01 X7.55328 Y17.06099
G01 X7.75847 Y17.08352
G01 X7.97223 Y17.15296
G01 X8.16680 Y17.26533
G01 X8.33385 Y17.41570
G01 X8.46596 Y17.59751
G01 X8.53936 Y17.76005
G01 X8.53413 Y17.76802
G01 X8.53936 Y17.76005
G01 X9.88500 Y17.76005
G01 X9.89964 Y17.77468
G01 X9.88500 Y17.76005
G01 X9.88500 Y15.23252
G01 X9.89219 Y15.15937
G01 X9.90776 Y15.10519
G01 X9.93936 Y15.03892
G01 X9.99481 Y14.96737
G01 X11.68109 Y13.28111
G01 X11.68767 Y13.28307
G01 X11.68109 Y13.28111
G01 X11.65904 Y13.21606
G01 X11.64596 Y13.12831
G01 X11.64500 Y12.48502
G01 X11.65142 Y12.41474
G01 X11.65904 Y12.37895
G01 X11.68175 Y12.31215
G01 X11.71619 Y12.25058
G01 X11.73771 Y12.22099
G01 X11.78561 Y12.16920
G01 X11.85749 Y12.11698
G01 X11.93867 Y12.08083
G01 X12.03471 Y12.06163
G01 X13.32914 Y12.06026
G01 X13.38251 Y12.06521
G01 X13.43361 Y12.07608
G01 X13.51616 Y12.10865
G01 X13.54784 Y12.12694
G01 X13.60435 Y12.16920
G01 X13.66381 Y12.23522
G01 X13.70824 Y12.31215
G01 X13.73095 Y12.37895
G01 X13.73854 Y12.41474
G01 X13.74497 Y12.48502
G01 X13.74400 Y13.12831
G01 X13.73567 Y13.19836
G01 X13.71479 Y13.26577
G01 X13.69991 Y13.29920
G01 X13.65228 Y13.37405
G01 X13.60435 Y13.42584
G01 X13.53247 Y13.47806
G01 X13.45132 Y13.51418
G01 X13.36453 Y13.53265
G01 X12.48792 Y13.53488
G01 X12.48635 Y13.53110
G01 X12.48792 Y13.53488
G01 X10.63494 Y15.38786
G01 X10.63116 Y15.38626
G01 X10.63494 Y15.38786
G01 X10.63494 Y17.76005
G01 X10.62039 Y17.77455
G01 X10.63494 Y17.76005
G01 X11.19900 Y17.76005
G01 X11.31487 Y17.77838
G01 X11.41937 Y17.83162
G01 X15.65924 Y22.06504
G01 X15.65766 Y22.06883
G01 X15.65924 Y22.06504
G01 X16.57900 Y22.06504
G01 X16.61313 Y22.06839
G01 X16.64595 Y22.07835
G01 X16.67620 Y22.09453
G01 X16.70272 Y22.11627
G01 X16.72449 Y22.14279
G01 X16.74064 Y22.17304
G01 X16.75060 Y22.20588
G01 X16.75398 Y22.24002
G01 X16.75398 Y23.29001
G01 X16.75060 Y23.32414
G01 X16.74064 Y23.35699
G01 X16.72449 Y23.38724
G01 X16.70272 Y23.41373
G01 X16.67620 Y23.43550
G01 X16.64595 Y23.45168
G01 X16.61313 Y23.46163
G01 X16.53241 Y23.46499
G01 X16.45609 Y23.43789
G01 X16.37084 Y23.41500
G01 X16.23988 Y23.41500
G01 X16.60338 Y23.41261
G01 X16.64844 Y23.39394
G01 X16.68293 Y23.35945
G01 X16.69447 Y23.33786
G01 X16.70399 Y23.29001
G01 X16.70399 Y22.24002
G01 X16.69447 Y22.19217
G01 X16.66736 Y22.15163
G01 X16.62683 Y22.12453
G01 X16.57900 Y22.11500
G01 X15.63856 Y22.11500
G01 X11.39001 Y17.87206
G01 X11.29940 Y17.82591
G01 X11.19900 Y17.81001
G01 X10.58498 Y17.81001
G01 X10.58498 Y15.36714
G01 X12.46719 Y13.48495
G01 X13.35927 Y13.48294
G01 X13.43587 Y13.46666
G01 X13.50748 Y13.43478
G01 X13.57090 Y13.38868
G01 X13.61515 Y13.34060
G01 X13.65663 Y13.27420
G01 X13.66727 Y13.25033
G01 X13.68680 Y13.18797
G01 X13.69429 Y13.12307
G01 X13.69498 Y12.48502
G01 X13.68883 Y12.41998
G01 X13.66257 Y12.33250
G01 X13.61515 Y12.25442
G01 X13.57090 Y12.20634
G01 X13.51845 Y12.16737
G01 X13.44809 Y12.13306
G01 X13.37212 Y12.11411
G01 X13.32000 Y12.11002
G01 X12.06344 Y12.11017
G01 X12.01787 Y12.11411
G01 X11.94190 Y12.13306
G01 X11.88249 Y12.16026
G01 X11.81906 Y12.20634
G01 X11.76661 Y12.26460
G01 X11.72742 Y12.33250
G01 X11.70319 Y12.40705
G01 X11.69567 Y12.47194
G01 X11.69567 Y13.12307
G01 X11.70657 Y13.20062
G01 X11.72742 Y13.26254
G01 X11.74263 Y13.29026
G01 X10.03017 Y15.00272
G01 X9.98975 Y15.05197
G01 X9.96496 Y15.09706
G01 X9.94419 Y15.15723
G01 X9.93497 Y15.23252
G01 X9.93497 Y17.81001
G01 X8.50665 Y17.81001
G01 X8.42268 Y17.62251
G01 X8.29672 Y17.44915
G01 X8.13743 Y17.30577
G01 X7.95189 Y17.19863
G01 X7.74810 Y17.13241
G01 X7.54800 Y17.11070
G01 X6.82189 Y17.11070
G01 X6.62187 Y17.13241
G01 X6.43030 Y17.19393
G01 X6.23246 Y17.30577
G01 X6.06502 Y17.45931
G01 X5.94727 Y17.62251
G01 X5.86368 Y17.80902
G01 X5.17165 Y17.80902
G01 X5.12670 Y17.73282
G01 X5.08946 Y17.69248
G01 X5.04547 Y17.65969
G01 X4.96929 Y17.62395
G01 X4.89154 Y17.61054
G01 X4.30084 Y17.61011
G01 X4.22157 Y17.62492
G01 X4.17115 Y17.64661
G01 X4.10452 Y17.69248
G01 X4.05906 Y17.74298
G01 X4.02510 Y17.80183
G01 X4.00409 Y17.86645
G01 X3.99698 Y17.93401
G01 X3.99698 Y18.33401
G01 X4.00409 Y18.40157
G01 X4.02510 Y18.46619
G01 X4.05192 Y18.51407
G01 X4.09528 Y18.56629
G01 X4.11468 Y18.58377
G01 X4.15949 Y18.61547
G01 X4.22469 Y18.64407
G01 X4.32200 Y18.65900
G01 X4.87198 Y18.65900
G01 X4.96929 Y18.64407
G01 X5.03449 Y18.61547
G01 X5.08946 Y18.57554
G01 X5.13493 Y18.52504
G01 X5.17165 Y18.45903
G01 X5.86294 Y18.45903
G01 X5.94727 Y18.64752
G01 X6.06502 Y18.81069
G01 X6.23246 Y18.96426
G01 X6.43030 Y19.07610
G01 X6.62187 Y19.13762
G01 X6.83495 Y19.16002
G01 X7.54800 Y19.15933
G01 X7.74810 Y19.13762
G01 X7.95189 Y19.07140
G01 X8.13743 Y18.96426
G01 X8.29672 Y18.82088
G01 X8.42268 Y18.64752
G01 X8.50665 Y18.46002
G01 X11.06438 Y18.46002
G01 X14.95398 Y22.34965
G01 X14.95398 Y23.29001
G01 X14.96351 Y23.33786
G01 X14.99061 Y23.37840
G01 X15.00953 Y23.39394
G01 X15.05459 Y23.41261
G01 X15.41799 Y23.41503
G01 X15.33960 Y23.44121
G01 X15.29995 Y23.46331
G01 X15.21669 Y23.48561
G01 X15.14341 Y23.51167
G01 X15.08380 Y23.56664
G01 X15.01474 Y23.66006
G01 X15.01680 Y23.66456
G01 X15.01474 Y23.66006
G01 X13.26831 Y23.66006
G01 X13.26674 Y23.66382
G01 X13.26831 Y23.66006
G01 X13.05713 Y23.44886
G01 X13.01408 Y23.41246
G01 X12.95099 Y23.37492
G01 X12.86514 Y23.34624
G01 X12.79198 Y23.33905
G01 X11.94469 Y23.33905
G01 X11.94197 Y23.34441
G01 X11.94469 Y23.33905
G01 X11.91736 Y23.29361
G01 X11.87784 Y23.24830
G01 X11.85066 Y23.22381
G01 X11.80149 Y23.18927
G01 X11.74695 Y23.16395
G01 X11.67129 Y23.14396
G01 X11.63522 Y23.14012
G01 X11.06433 Y23.13903
G01 X10.97482 Y23.15097
G01 X10.93100 Y23.16395
G01 X10.86113 Y23.19925
G01 X10.81307 Y23.23535
G01 X10.76062 Y23.29361
G01 X10.72143 Y23.36148
G01 X10.70194 Y23.41835
G01 X10.69432 Y23.45414
G01 X10.68902 Y23.51401
G01 X10.68902 Y23.91401
G01 X10.69719 Y23.99199
G01 X10.71487 Y24.04944
G01 X10.72973 Y24.08284
G01 X10.76062 Y24.13443
G01 X10.81307 Y24.19267
G01 X10.87649 Y24.23875
G01 X10.95249 Y24.27200
G01 X11.06400 Y24.28899
G01 X11.64136 Y24.28683
G01 X11.72549 Y24.27200
G01 X11.78515 Y24.24708
G01 X11.81683 Y24.22879
G01 X11.86491 Y24.19267
G01 X11.90583 Y24.14865
G01 X11.94469 Y24.08899
G01 X11.94197 Y24.08363
G01 X11.94469 Y24.08899
G01 X12.63664 Y24.08899
G01 X12.63814 Y24.08533
G01 X12.63664 Y24.08899
G01 X12.84781 Y24.30019
G01 X12.89087 Y24.33659
G01 X12.95396 Y24.37413
G01 X13.03981 Y24.40281
G01 X13.11299 Y24.40999
G01 X15.01476 Y24.40999
G01 X15.01728 Y24.40494
G01 X15.01476 Y24.40999
G01 X15.08380 Y24.50339
G01 X15.17831 Y24.58978
G01 X15.20790 Y24.61129
G01 X15.26635 Y24.64502
G01 X15.38723 Y24.64502
G01 X15.46582 Y24.67004
G01 X15.33960 Y24.62882
G01 X15.22193 Y24.56087
G01 X15.12094 Y24.46994
G01 X15.04108 Y24.36003
G01 X13.11299 Y24.36003
G01 X13.04957 Y24.35378
G01 X12.97751 Y24.33004
G01 X12.92257 Y24.29796
G01 X12.88317 Y24.26483
G01 X12.65736 Y24.03903
G01 X11.91365 Y24.03903
G01 X11.86869 Y24.11520
G01 X11.83146 Y24.15554
G01 X11.78746 Y24.18835
G01 X11.71129 Y24.22407
G01 X11.63354 Y24.23748
G01 X11.06400 Y24.23900
G01 X10.96669 Y24.22407
G01 X10.90149 Y24.19547
G01 X10.84652 Y24.15554
G01 X10.80106 Y24.10504
G01 X10.76710 Y24.04619
G01 X10.74609 Y23.98157
G01 X10.73966 Y23.92709
G01 X10.73898 Y23.51401
G01 X10.68902 Y23.51401
G01 X10.73898 Y23.51401
G01 X10.74609 Y23.44645
G01 X10.76710 Y23.38183
G01 X10.80106 Y23.32298
G01 X10.84652 Y23.27248
G01 X10.90149 Y23.23255
G01 X10.95135 Y23.20962
G01 X10.98264 Y23.20034
G01 X11.06422 Y23.18902
G01 X11.63514 Y23.19011
G01 X11.70179 Y23.20154
G01 X11.77649 Y23.23255
G01 X11.83146 Y23.27248
G01 X11.87692 Y23.32298
G01 X11.91365 Y23.38902
G01 X12.79198 Y23.38902
G01 X12.85538 Y23.39526
G01 X12.92744 Y23.41901
G01 X12.98238 Y23.45109
G01 X13.02178 Y23.48422
G01 X13.24758 Y23.71002
G01 X15.04105 Y23.71002
G01 X15.13021 Y23.59082
G01 X15.22193 Y23.50916
G01 X15.32795 Y23.44716
G01 X15.41799 Y23.41503
G01 X15.48271 Y23.40606
G01 X15.60399 Y23.40001
G01 X16.05398 Y23.40001
G01 X16.17524 Y23.40606
G01 X16.23988 Y23.41500
G01 X16.31837 Y23.44121
G01 X16.35804 Y23.46334
G01 X16.44125 Y23.48561
G01 X16.51456 Y23.51167
G01 X16.57417 Y23.56664
G01 X16.64323 Y23.66006
G01 X16.64118 Y23.66456
G01 X16.64323 Y23.66006
G01 X18.28852 Y23.66006
G01 X18.28976 Y23.66334
G01 X18.28852 Y23.66006
G01 X18.29693 Y23.64967
G01 X18.34135 Y23.60177
G01 X18.40899 Y23.55262
G01 X18.48539 Y23.51861
G01 X18.56718 Y23.50123
G01 X19.33251 Y23.50027
G01 X19.36888 Y23.50408
G01 X19.43259 Y23.51861
G01 X19.50899 Y23.55262
G01 X19.57663 Y23.60177
G01 X19.62105 Y23.64967
G01 X19.64254 Y23.67926
G01 X19.68095 Y23.75343
G01 X19.70023 Y23.81586
G01 X19.70800 Y23.88073
G01 X19.70896 Y24.34901
G01 X19.70023 Y24.43217
G01 X19.68095 Y24.49460
G01 X19.66606 Y24.52803
G01 X19.63258 Y24.58411
G01 X19.58958 Y24.63331
G01 X19.56240 Y24.65777
G01 X19.50899 Y24.69541
G01 X19.42822 Y24.73077
G01 X19.30899 Y24.74898
G01 X18.60899 Y24.74898
G01 X18.48976 Y24.73077
G01 X18.42532 Y24.70372
G01 X18.39365 Y24.68543
G01 X18.34135 Y24.64627
G01 X18.28539 Y24.58411
G01 X18.25189 Y24.52803
G01 X18.23703 Y24.49460
G01 X18.21488 Y24.41408
G01 X18.22205 Y24.39994
G01 X18.21445 Y24.40999
G01 X16.64321 Y24.40999
G01 X16.64069 Y24.40489
G01 X16.64321 Y24.40999
G01 X16.57417 Y24.50339
G01 X16.47966 Y24.58978
G01 X16.45007 Y24.61129
G01 X16.39162 Y24.64502
G01 X16.27069 Y24.64502
G01 X16.19205 Y24.67001
G01 X16.27072 Y24.69501
G01 X16.39162 Y24.69501
G01 X16.46543 Y24.73872
G01 X16.57417 Y24.83664
G01 X16.66018 Y24.95503
G01 X16.71313 Y25.07161
G01 X16.72444 Y25.10639
G01 X16.74727 Y25.21375
G01 X16.75108 Y25.25013
G01 X16.75014 Y25.37819
G01 X16.71971 Y25.52132
G01 X16.66018 Y25.65500
G01 X16.58570 Y25.75917
G01 X16.56122 Y25.78634
G01 X16.47966 Y25.85978
G01 X16.45007 Y25.88129
G01 X16.33869 Y25.94448
G01 X16.19952 Y25.98970
G01 X16.05398 Y26.00499
G01 X15.60399 Y26.00499
G01 X15.45845 Y25.98970
G01 X15.31928 Y25.94448
G01 X15.20790 Y25.88129
G01 X15.17831 Y25.85978
G01 X15.09675 Y25.78634
G01 X15.07156 Y25.75818
G01 X15.05784 Y25.73900
G01 X15.05926 Y25.73547
G01 X15.05784 Y25.73900
G01 X11.94467 Y25.73900
G01 X11.94215 Y25.73387
G01 X11.94467 Y25.73900
G01 X11.91736 Y25.78441
G01 X11.86491 Y25.84268
G01 X11.80149 Y25.88876
G01 X11.72549 Y25.92201
G01 X11.61398 Y25.93900
G01 X11.06400 Y25.93900
G01 X10.95249 Y25.92201
G01 X10.87649 Y25.88876
G01 X10.82732 Y25.85421
G01 X10.80012 Y25.82973
G01 X10.75064 Y25.76907
G01 X10.71487 Y25.69943
G01 X10.70497 Y25.66900
G01 X10.70979 Y25.66135
G01 X10.70497 Y25.66900
G01 X10.05762 Y25.66900
G01 X10.05275 Y25.66127
G01 X10.05762 Y25.66900
G01 X10.03954 Y25.72152
G01 X10.00035 Y25.78942
G01 X9.94790 Y25.84769
G01 X9.88447 Y25.89376
G01 X9.87197 Y25.90014
G01 X9.86743 Y25.89805
G01 X9.87197 Y25.90014
G01 X9.87197 Y26.48868
G01 X9.86816 Y26.49028
G01 X9.87197 Y26.48868
G01 X10.83979 Y27.45652
G01 X10.83783 Y27.46691
G01 X10.83979 Y27.45652
G01 X11.02290 Y27.37499
G01 X11.05770 Y27.36368
G01 X11.30072 Y27.31301
G01 X11.54896 Y27.31205
G01 X11.58536 Y27.31588
G01 X11.82798 Y27.36843
G01 X12.07149 Y27.47684
G01 X12.28711 Y27.63351
G01 X12.46547 Y27.83160
G01 X12.59874 Y28.06244
G01 X12.68111 Y28.31593
G01 X12.70801 Y28.56272
G01 X12.70801 Y28.59929
G01 X12.68111 Y28.84610
G01 X12.60529 Y29.08250
G01 X12.59043 Y29.11590
G01 X12.46547 Y29.33043
G01 X12.28711 Y29.52850
G01 X12.08683 Y29.67521
G01 X12.05516 Y29.69350
G01 X11.82798 Y29.79360
G01 X11.58536 Y29.84615
G01 X11.54896 Y29.84996
G01 X11.30072 Y29.84900
G01 X11.05770 Y29.79833
G01 X11.02290 Y29.78702
G01 X10.79651 Y29.68517
G01 X10.58086 Y29.52850
G01 X10.40250 Y29.33043
G01 X10.26923 Y29.09960
G01 X10.18686 Y28.84610
G01 X10.15902 Y28.58100
G01 X10.18401 Y28.33402
G01 X10.19161 Y28.29823
G01 X10.26923 Y28.06244
G01 X10.31094 Y27.98827
G01 X10.32295 Y27.98647
G01 X10.31094 Y27.98827
G01 X9.23182 Y26.90918
G01 X9.17634 Y26.83763
G01 X9.14477 Y26.77136
G01 X9.12920 Y26.71718
G01 X9.12201 Y26.64400
G01 X9.12201 Y25.90014
G01 X9.12753 Y25.89719
G01 X9.12201 Y25.90014
G01 X9.10949 Y25.89376
G01 X9.06029 Y25.85919
G01 X9.03311 Y25.83473
G01 X8.99362 Y25.78942
G01 X8.96273 Y25.73786
G01 X8.94787 Y25.70443
G01 X8.93019 Y25.64697
G01 X8.92295 Y25.58731
G01 X8.92295 Y25.00072
G01 X8.93019 Y24.94106
G01 X8.94787 Y24.88360
G01 X8.98363 Y24.81396
G01 X9.00515 Y24.78437
G01 X9.04607 Y24.74035
G01 X9.10949 Y24.69427
G01 X9.16403 Y24.66895
G01 X9.20782 Y24.65597
G01 X9.29745 Y24.64403
G01 X9.71836 Y24.64512
G01 X9.79516 Y24.65764
G01 X9.82996 Y24.66895
G01 X9.88447 Y24.69427
G01 X9.94790 Y24.74035
G01 X10.00035 Y24.79861
G01 X10.03123 Y24.85018
G01 X10.05762 Y24.91906
G01 X10.05247 Y24.92706
G01 X10.05762 Y24.91906
G01 X10.78145 Y24.91906
G01 X10.78254 Y24.92206
G01 X10.78145 Y24.91906
G01 X10.81307 Y24.88536
G01 X10.87649 Y24.83928
G01 X10.94812 Y24.80738
G01 X11.00669 Y24.79394
G01 X11.04274 Y24.79013
G01 X11.61365 Y24.78904
G01 X11.72549 Y24.80603
G01 X11.80149 Y24.83928
G01 X11.85066 Y24.87382
G01 X11.87784 Y24.89831
G01 X11.91736 Y24.94360
G01 X11.94469 Y24.98906
G01 X11.94197 Y24.99442
G01 X11.94469 Y24.98906
G01 X14.98159 Y24.98906
G01 X14.98471 Y24.99493
G01 X14.98159 Y24.98906
G01 X14.99780 Y24.95503
G01 X15.08380 Y24.83664
G01 X15.19254 Y24.73872
G01 X15.26635 Y24.69501
G01 X15.38725 Y24.69501
G01 X15.46582 Y24.67004
G01 X16.19205 Y24.67001
G01 X16.31837 Y24.71121
G01 X16.43605 Y24.77916
G01 X16.53704 Y24.87009
G01 X16.61689 Y24.98002
G01 X16.67216 Y25.10415
G01 X16.70112 Y25.25013
G01 X16.70043 Y25.37296
G01 X16.67557 Y25.49323
G01 X16.61689 Y25.63001
G01 X16.53704 Y25.73994
G01 X16.42507 Y25.83801
G01 X16.30615 Y25.90351
G01 X16.18913 Y25.94080
G01 X16.06706 Y25.95434
G01 X15.60399 Y25.95500
G01 X15.45622 Y25.93742
G01 X15.33960 Y25.89882
G01 X15.22193 Y25.83087
G01 X15.12066 Y25.73963
G01 X15.08352 Y25.68904
G01 X11.91365 Y25.68904
G01 X11.87692 Y25.75505
G01 X11.83146 Y25.80555
G01 X11.77649 Y25.84548
G01 X11.71129 Y25.87408
G01 X11.61398 Y25.88901
G01 X11.06400 Y25.88901
G01 X10.98264 Y25.87768
G01 X10.95135 Y25.86841
G01 X10.90149 Y25.84548
G01 X10.84652 Y25.80555
G01 X10.80106 Y25.75505
G01 X10.77301 Y25.70786
G01 X10.76240 Y25.68398
G01 X10.74411 Y25.61903
G01 X10.01741 Y25.61903
G01 X10.01150 Y25.64921
G01 X9.99389 Y25.70120
G01 X9.95991 Y25.76006
G01 X9.90428 Y25.81878
G01 X9.85948 Y25.85048
G01 X9.82199 Y25.86793
G01 X9.82199 Y26.50941
G01 X10.82892 Y27.51634
G01 X11.05544 Y27.41596
G01 X11.30593 Y27.36272
G01 X11.56204 Y27.36272
G01 X11.81253 Y27.41596
G01 X12.04649 Y27.52012
G01 X12.25368 Y27.67067
G01 X12.42503 Y27.86097
G01 X12.55777 Y28.09498
G01 X12.63428 Y28.33925
G01 X12.65899 Y28.58100
G01 X12.63428 Y28.82279
G01 X12.55307 Y29.07928
G01 X12.43217 Y29.29007
G01 X12.25368 Y29.49137
G01 X12.04649 Y29.64189
G01 X11.81253 Y29.74605
G01 X11.57497 Y29.79726
G01 X11.54896 Y29.79998
G01 X11.29303 Y29.79726
G01 X11.05544 Y29.74605
G01 X10.82148 Y29.64189
G01 X10.60504 Y29.48212
G01 X10.44294 Y29.30104
G01 X10.32084 Y29.09094
G01 X10.31020 Y29.06706
G01 X10.23575 Y28.83572
G01 X10.20898 Y28.58100
G01 X10.23913 Y28.31370
G01 X10.31490 Y28.08276
G01 X10.37340 Y27.98004
G01 X9.26718 Y26.87382
G01 X9.22039 Y26.81405
G01 X9.20197 Y26.77948
G01 X9.18117 Y26.71931
G01 X9.17198 Y26.64400
G01 X9.17198 Y25.86790
G01 X9.13449 Y25.85048
G01 X9.08968 Y25.81878
G01 X9.04228 Y25.77022
G01 X9.00009 Y25.70120
G01 X8.98247 Y25.64921
G01 X8.97198 Y25.56902
G01 X8.97198 Y25.01901
G01 X8.92199 Y25.01901
G01 X8.97198 Y25.01901
G01 X8.98247 Y24.93880
G01 X9.00009 Y24.88683
G01 X9.03405 Y24.82798
G01 X9.07949 Y24.77748
G01 X9.12351 Y24.74469
G01 X9.18435 Y24.71462
G01 X9.21564 Y24.70535
G01 X9.29732 Y24.69402
G01 X9.71823 Y24.69511
G01 X9.78478 Y24.70654
G01 X9.80964 Y24.71462
G01 X9.85948 Y24.73755
G01 X9.91444 Y24.77748
G01 X9.95991 Y24.82798
G01 X9.98795 Y24.87517
G01 X10.01150 Y24.93880
G01 X10.01741 Y24.96902
G01 X10.80438 Y24.96902
G01 X10.84652 Y24.92249
G01 X10.90149 Y24.88256
G01 X10.96356 Y24.85493
G01 X11.01708 Y24.84284
G01 X11.04284 Y24.84012
G01 X11.61375 Y24.83900
G01 X11.71129 Y24.85396
G01 X11.78746 Y24.88967
G01 X11.83146 Y24.92249
G01 X11.86869 Y24.96283
G01 X11.91365 Y25.03903
G01 X15.01405 Y25.03903
G01 X15.04108 Y24.98002
G01 X15.12094 Y24.87009
G01 X15.22193 Y24.77916
G01 X15.33960 Y24.71121
G01 X15.46582 Y24.67004
G01 X16.19205 Y24.67001
G01 X16.20176 Y24.66742
G01 X16.31837 Y24.62882
G01 X16.43605 Y24.56087
G01 X16.53704 Y24.46994
G01 X16.61689 Y24.36003
G01 X18.25956 Y24.36003
G01 X18.26662 Y24.42178
G01 X18.28926 Y24.49138
G01 X18.32583 Y24.55475
G01 X18.37480 Y24.60911
G01 X18.43398 Y24.65213
G01 X18.48862 Y24.67720
G01 X18.51991 Y24.68647
G01 X18.60899 Y24.69902
G01 X19.30899 Y24.69902
G01 X19.41402 Y24.68284
G01 X19.48399 Y24.65213
G01 X19.55242 Y24.59986
G01 X19.59926 Y24.54378
G01 X19.62872 Y24.49138
G01 X19.64795 Y24.43443
G01 X19.65898 Y24.34901
G01 X19.65898 Y23.89902
G01 X19.65133 Y23.82625
G01 X19.62872 Y23.75666
G01 X19.58392 Y23.68312
G01 X19.54318 Y23.63890
G01 X19.49497 Y23.60304
G01 X19.41714 Y23.56613
G01 X19.33251 Y23.55026
G01 X18.57241 Y23.55094
G01 X18.50084 Y23.56613
G01 X18.43398 Y23.59590
G01 X18.37480 Y23.63890
G01 X18.33406 Y23.68312
G01 X18.31537 Y23.71002
G01 X16.61689 Y23.71002
G01 X16.52779 Y23.59082
G01 X16.43605 Y23.50916
G01 X16.35804 Y23.46334
G04 P0 ( dwell for no time -- G64 should not smooth over this point )
G00 Z2.00000 ( retract )

G00 X18.20902 Y22.24901 ( rapid move to begin. )
G01 F10.00000
( Mill infeed pass 1/1 )
G01 Z-0.10000
G04 P0 ( dwell for no time -- G64 should not smooth over this point )
G01 F20.00000
G01 X18.20902 Y22.24901
G01 X18.21775 Y22.16585
G01 X18.24359 Y22.08633
G01 X18.28539 Y22.01391
G01 X18.32840 Y21.96471
G01 X18.35557 Y21.94025
G01 X18.40899 Y21.90261
G01 X18.46830 Y21.87518
G01 X18.50307 Y21.86387
G01 X18.56657 Y21.85130
G01 X18.58400 Y21.85028
G01 X18.59418 Y21.85803
G01 X18.58400 Y21.85028
G01 X18.58400 Y20.05052
G01 X18.59118 Y19.97736
G01 X18.60676 Y19.92319
G01 X18.63835 Y19.85692
G01 X18.64935 Y19.84475
G01 X18.63711 Y19.81158
G01 X18.63000 Y19.74401
G01 X18.63000 Y19.44402
G01 X18.63424 Y19.39454
G01 X18.64186 Y19.35875
G01 X18.65811 Y19.31183
G01 X18.69207 Y19.25298
G01 X18.73754 Y19.20251
G01 X18.77714 Y19.17254
G01 X18.80881 Y19.15425
G01 X18.85893 Y19.13358
G01 X18.95499 Y19.11902
G01 X20.12999 Y19.11902
G01 X20.22603 Y19.13358
G01 X20.27617 Y19.15425
G01 X20.30784 Y19.17254
G01 X20.34744 Y19.20251
G01 X20.38138 Y19.23876
G01 X20.41856 Y19.29550
G01 X20.44312 Y19.35875
G01 X20.45402 Y19.42573
G01 X20.45496 Y19.74401
G01 X20.45072 Y19.79349
G01 X20.44312 Y19.82928
G01 X20.42687 Y19.87620
G01 X20.40287 Y19.91968
G01 X20.38138 Y19.94927
G01 X20.34744 Y19.98552
G01 X20.29248 Y20.02545
G01 X20.23040 Y20.05308
G01 X20.16408 Y20.06720
G01 X19.59789 Y20.06891
G01 X19.59636 Y20.06522
G01 X19.59789 Y20.06891
G01 X19.35113 Y20.31569
G01 X19.33393 Y20.33086
G01 X19.33010 Y20.32926
G01 X19.33393 Y20.33086
G01 X19.33393 Y21.85100
G01 X19.32276 Y21.86009
G01 X19.33393 Y21.85100
G01 X19.42822 Y21.86725
G01 X19.50899 Y21.90261
G01 X19.56240 Y21.94025
G01 X19.58958 Y21.96471
G01 X19.64254 Y22.02928
G01 X19.67439 Y22.08633
G01 X19.69548 Y22.14815
G01 X19.70310 Y22.18394
G01 X19.70896 Y22.24901
G01 X19.70800 Y22.71731
G01 X19.70023 Y22.78218
G01 X19.68095 Y22.84459
G01 X19.66606 Y22.87802
G01 X19.63258 Y22.93413
G01 X19.57663 Y22.99626
G01 X19.50899 Y23.04540
G01 X19.43259 Y23.07942
G01 X19.35095 Y23.09679
G01 X18.60930 Y23.09900
G01 X18.48976 Y23.08079
G01 X18.42532 Y23.05371
G01 X18.39365 Y23.03542
G01 X18.34135 Y22.99626
G01 X18.28539 Y22.93413
G01 X18.24359 Y22.86169
G01 X18.22248 Y22.79986
G01 X18.21488 Y22.76407
G01 X18.20902 Y22.69903
G01 X18.20902 Y22.24901
G01 X18.25898 Y22.24901
G01 X18.25898 Y22.69903
G01 X18.27003 Y22.78442
G01 X18.28926 Y22.84137
G01 X18.32583 Y22.90474
G01 X18.37480 Y22.95912
G01 X18.44564 Y23.00807
G01 X18.50396 Y23.03286
G01 X18.60919 Y23.04901
G01 X19.34567 Y23.04708
G01 X19.41714 Y23.03189
G01 X19.48399 Y23.00212
G01 X19.54318 Y22.95912
G01 X19.59215 Y22.90474
G01 X19.63342 Y22.82915
G01 X19.65133 Y22.77177
G01 X19.65831 Y22.71208
G01 X19.65898 Y22.24901
G01 X19.64795 Y22.16359
G01 X19.62872 Y22.10665
G01 X19.59215 Y22.04330
G01 X19.54318 Y21.98892
G01 X19.49497 Y21.95303
G01 X19.41402 Y21.91518
G01 X19.32855 Y21.90055
G01 X19.28397 Y21.89900
G01 X19.28397 Y20.30723
G01 X19.31577 Y20.28034
G01 X19.57716 Y20.01894
G01 X20.15882 Y20.01750
G01 X20.21496 Y20.00556
G01 X20.26748 Y19.98216
G01 X20.31399 Y19.94838
G01 X20.34424 Y19.91582
G01 X20.38122 Y19.85588
G01 X20.40104 Y19.78826
G01 X20.40500 Y19.74401
G01 X20.40500 Y19.44402
G01 X20.40104 Y19.39977
G01 X20.38122 Y19.33215
G01 X20.35247 Y19.28237
G01 X20.31399 Y19.23965
G01 X20.25582 Y19.19992
G01 X20.21183 Y19.18151
G01 X20.12999 Y19.16901
G01 X18.95499 Y19.16901
G01 X18.87312 Y19.18151
G01 X18.82916 Y19.19992
G01 X18.77097 Y19.23965
G01 X18.73251 Y19.28237
G01 X18.69908 Y19.34437
G01 X18.68600 Y19.38684
G01 X18.68067 Y19.43093
G01 X18.67998 Y19.74401
G01 X18.68600 Y19.80119
G01 X18.70241 Y19.85235
G01 X18.68242 Y19.88049
G01 X18.65458 Y19.93772
G01 X18.64021 Y19.98712
G01 X18.63396 Y20.05052
G01 X18.63396 Y21.89989
G01 X18.57196 Y21.90098
G01 X18.50084 Y21.91615
G01 X18.43398 Y21.94592
G01 X18.37480 Y21.98892
G01 X18.32583 Y22.04330
G01 X18.28926 Y22.10665
G01 X18.26662 Y22.17624
G01 X18.25898 Y22.24901
G04 P0 ( dwell for no time -- G64 should not smooth over this point )
G00 Z2.00000 ( retract )

G00 X23.36400 Y20.02900 ( rapid move to begin. )
G01 F10.00000
( Mill infeed pass 1/1 )
G01 Z-0.10000
G04 P0 ( dwell for no time -- G64 should not smooth over this point )
G01 F20.00000
G01 X23.36400 Y20.02900
G01 X23.36738 Y19.99487
G01 X23.37733 Y19.96205
G01 X23.39349 Y19.93180
G01 X23.41525 Y19.90528
G01 X23.44177 Y19.88351
G01 X23.47202 Y19.86736
G01 X23.50484 Y19.85740
G01 X23.53898 Y19.85402
G01 X26.03900 Y19.85402
G01 X26.07314 Y19.85740
G01 X26.10595 Y19.86736
G01 X26.13620 Y19.88351
G01 X26.16272 Y19.90528
G01 X26.18449 Y19.93180
G01 X26.20064 Y19.96205
G01 X26.21060 Y19.99487
G01 X26.21398 Y20.02900
G01 X26.21398 Y21.82902
G01 X26.21060 Y21.86316
G01 X26.20064 Y21.89598
G01 X26.18449 Y21.92623
G01 X26.16272 Y21.95275
G01 X26.13620 Y21.97452
G01 X26.10595 Y21.99067
G01 X26.07314 Y22.00063
G01 X26.03900 Y22.00401
G01 X23.53898 Y22.00401
G01 X23.50484 Y22.00063
G01 X23.47202 Y21.99067
G01 X23.44177 Y21.97452
G01 X23.41525 Y21.95275
G01 X23.39349 Y21.92623
G01 X23.37733 Y21.89598
G01 X23.36738 Y21.86316
G01 X23.36400 Y21.82902
G01 X23.36400 Y20.02900
G01 X23.41398 Y20.02900
G01 X23.41398 Y21.82902
G01 X23.41640 Y21.85341
G01 X23.43504 Y21.89847
G01 X23.46953 Y21.93294
G01 X23.49115 Y21.94449
G01 X23.53898 Y21.95402
G01 X26.03900 Y21.95402
G01 X26.08683 Y21.94449
G01 X26.10844 Y21.93294
G01 X26.14291 Y21.89847
G01 X26.15447 Y21.87685
G01 X26.16399 Y21.82902
G01 X26.16399 Y20.02900
G01 X26.15447 Y19.98117
G01 X26.14291 Y19.95956
G01 X26.10844 Y19.92509
G01 X26.08683 Y19.91353
G01 X26.03900 Y19.90401
G01 X23.53898 Y19.90401
G01 X23.49115 Y19.91353
G01 X23.45061 Y19.94064
G01 X23.42351 Y19.98117
G01 X23.41398 Y20.02900
G04 P0 ( dwell for no time -- G64 should not smooth over this point )
G00 Z2.00000 ( retract )

G00 X25.53958 Y8.92946 ( rapid move to begin. )
G01 F10.00000
( Mill infeed pass 1/1 )
G01 Z-0.10000
G04 P0 ( dwell for no time -- G64 should not smooth over this point )
G01 F20.00000
G01 X25.53958 Y8.92946
G01 X25.55335 Y8.88567
G01 X25.54954 Y8.84223
G01 X25.51121 Y8.76164
G01 X25.49475 Y8.74068
G01 X25.46054 Y8.70873
G01 X25.41622 Y8.68478
G01 X25.44334 Y8.69834
G01 X25.42165 Y8.68478
G01 X25.35599 Y8.66128
G01 X25.18604 Y8.66128
G01 X25.12038 Y8.68478
G01 X25.11759 Y8.68887
G01 X25.12582 Y8.68478
G01 X25.08149 Y8.70873
G01 X25.06620 Y8.72176
G01 X25.03080 Y8.76169
G01 X25.00194 Y8.81846
G01 X24.98602 Y8.85336
G01 X24.98594 Y8.89423
G01 X25.03288 Y8.99047
G01 X25.06935 Y9.02908
G01 X25.09612 Y9.04825
G01 X25.06935 Y9.02908
G01 X25.08863 Y9.04457
G01 X25.17885 Y9.08765
G01 X25.20527 Y9.08818
G01 X25.16183 Y9.07952
G01 X25.20085 Y9.08800
G01 X25.33674 Y9.08744
G01 X25.36067 Y9.08577
G01 X25.39257 Y9.07520
G01 X25.36067 Y9.08577
G01 X25.33674 Y9.08744
G01 X25.36915 Y9.08617
G01 X25.44334 Y9.04980
G01 X25.47431 Y9.02765
G01 X25.44334 Y9.04980
G01 X25.45249 Y9.04523
G01 X25.49463 Y9.00718
G01 X25.51710 Y8.97444
G01 X25.55673 Y8.88950
G01 X25.55602 Y8.85336
G01 X25.51380 Y8.76486
G01 X25.47911 Y8.71620
G01 X25.47055 Y8.69443
G01 X25.46509 Y8.65978
G01 X25.47057 Y8.62506
G01 X25.47913 Y8.60330
G01 X25.51451 Y8.55377
G01 X25.54355 Y8.49565
G01 X25.55432 Y8.45783
G01 X25.54355 Y8.49565
G01 X25.55432 Y8.47287
G01 X25.55432 Y8.27525
G01 X25.54469 Y8.25529
G01 X25.55432 Y8.29021
G01 X25.54469 Y8.25529
G01 X25.51030 Y8.18780
G01 X25.46249 Y8.13873
G01 X25.46470 Y8.14081
G01 X25.36915 Y8.09052
G01 X25.35198 Y8.09032
G01 X25.38769 Y8.09959
G01 X25.36067 Y8.09093
G01 X25.33674 Y8.08925
G01 X25.18348 Y8.08844
G01 X25.16196 Y8.09715
G01 X25.20174 Y8.08864
G01 X25.17123 Y8.09334
G01 X25.14969 Y8.10218
G01 X25.09612 Y8.12844
G01 X25.06633 Y8.15057
G01 X25.09877 Y8.12707
G01 X25.08861 Y8.13215
G01 X25.03288 Y8.18625
G01 X25.03082 Y8.19016
G01 X25.04766 Y8.16977
G01 X25.03082 Y8.19016
G01 X24.98594 Y8.28249
G01 X24.98558 Y8.30490
G01 X24.99333 Y8.26728
G01 X24.98548 Y8.30832
G01 X24.98749 Y8.47218
G01 X24.99841 Y8.49550
G01 X24.98729 Y8.45496
G01 X24.99841 Y8.49550
G01 X25.02754 Y8.55377
G01 X25.06293 Y8.60332
G01 X25.07149 Y8.62509
G01 X25.07695 Y8.65978
G01 X25.07149 Y8.69441
G01 X25.06293 Y8.71617
G01 X25.02826 Y8.76486
G01 X24.99249 Y8.84226
G01 X24.98868 Y8.88564
G01 X24.99750 Y8.91795
G01 X24.98868 Y8.88564
G01 X24.99249 Y8.84226
G01 X25.02826 Y8.76486
G01 X25.06293 Y8.71617
G01 X25.07583 Y8.67144
G01 X25.07149 Y8.62509
G01 X25.06293 Y8.60332
G01 X25.02384 Y8.54637
G01 X25.04728 Y8.57889
G01 X25.08149 Y8.61084
G01 X25.12582 Y8.63479
G01 X25.09869 Y8.62123
G01 X25.12038 Y8.63479
G01 X25.16724 Y8.65387
G01 X25.20529 Y8.65978
G01 X25.33676 Y8.65978
G01 X25.37479 Y8.65387
G01 X25.42165 Y8.63479
G01 X25.44334 Y8.62123
G01 X25.41622 Y8.63479
G01 X25.46054 Y8.61084
G01 X25.49475 Y8.57889
G01 X25.51820 Y8.54637
G04 P0 ( dwell for no time -- G64 should not smooth over this point )
G00 Z2.00000 ( retract )

G00 X26.53232 Y7.14470 ( rapid move to begin. )
G01 F10.00000
( Mill infeed pass 1/1 )
G01 Z-0.10000
G04 P0 ( dwell for no time -- G64 should not smooth over this point )
G01 F20.00000
G01 X26.53232 Y7.14470
G01 X26.55871 Y7.14368
G01 X26.58190 Y7.13251
G01 X26.56336 Y7.13975
G01 X26.53232 Y7.14470
G04 P0 ( dwell for no time -- G64 should not smooth over this point )
G00 Z2.00000 ( retract )

G00 X26.38807 Y7.13213 ( rapid move to begin. )
G01 F10.00000
( Mill infeed pass 1/1 )
G01 Z-0.10000
G04 P0 ( dwell for no time -- G64 should not smooth over this point )
G01 F20.00000
G01 X26.38807 Y7.13213
G01 X26.41118 Y7.14297
G01 X26.42221 Y7.14313
G01 X26.38807 Y7.13213
G04 P0 ( dwell for no time -- G64 should not smooth over this point )
G00 Z2.00000 ( retract )

G00 X26.30072 Y7.06139 ( rapid move to begin. )
G01 F10.00000
( Mill infeed pass 1/1 )
G01 Z-0.10000
G04 P0 ( dwell for no time -- G64 should not smooth over this point )
G01 F20.00000
G01 X26.30072 Y7.06139
G01 X26.31616 Y7.09215
G01 X26.35480 Y7.11541
G01 X26.32340 Y7.09266
G01 X26.30072 Y7.06139
G04 P0 ( dwell for no time -- G64 should not smooth over this point )
G00 Z2.00000 ( retract )

G00 X26.61591 Y6.78204 ( rapid move to begin. )
G01 F10.00000
( Mill infeed pass 1/1 )
G01 Z-0.10000
G04 P0 ( dwell for no time -- G64 should not smooth over this point )
G01 F20.00000
G01 X26.61591 Y6.78204
G01 X26.64718 Y6.75933
G01 X26.66536 Y6.73551
G01 X26.64667 Y6.76657
G01 X26.61591 Y6.78204
G04 P0 ( dwell for no time -- G64 should not smooth over this point )
G00 Z2.00000 ( retract )

G00 X26.68578 Y6.59492 ( rapid move to begin. )
G01 F10.00000
( Mill infeed pass 1/1 )
G01 Z-0.10000
G04 P0 ( dwell for no time -- G64 should not smooth over this point )
G01 F20.00000
G01 X26.68578 Y6.59492
G01 X26.69622 Y6.63347
G01 X26.69622 Y6.65666
G01 X26.69043 Y6.68331
G01 X26.69889 Y6.66566
G01 X26.69958 Y6.62959
G01 X26.69726 Y6.61686
G01 X26.68578 Y6.59492
G04 P0 ( dwell for no time -- G64 should not smooth over this point )
G00 Z2.00000 ( retract )

G00 X26.62343 Y6.51267 ( rapid move to begin. )
G01 F10.00000
( Mill infeed pass 1/1 )
G01 Z-0.10000
G04 P0 ( dwell for no time -- G64 should not smooth over this point )
G01 F20.00000
G01 X26.62343 Y6.51267
G01 X26.64715 Y6.53076
G01 X26.66054 Y6.54666
G01 X26.65094 Y6.52829
G01 X26.62343 Y6.51267
G04 P0 ( dwell for no time -- G64 should not smooth over this point )
G00 Z2.00000 ( retract )

G00 X26.52724 Y6.47841 ( rapid move to begin. )
G01 F10.00000
( Mill infeed pass 1/1 )
G01 Z-0.10000
G04 P0 ( dwell for no time -- G64 should not smooth over this point )
G01 F20.00000
G01 X26.52724 Y6.47841
G01 X26.55348 Y6.47909
G01 X26.56361 Y6.48394
G01 X26.52724 Y6.47841
G01 X26.37463 Y6.47841
G01 X26.34100 Y6.49103
G01 X26.35965 Y6.48374
G01 X26.39579 Y6.47841
G04 P0 ( dwell for no time -- G64 should not smooth over this point )
G00 Z2.00000 ( retract )

G00 X26.52739 Y6.81173 ( rapid move to begin. )
G01 F10.00000
( Mill infeed pass 1/1 )
G01 Z-0.10000
G04 P0 ( dwell for no time -- G64 should not smooth over this point )
G01 F20.00000
G01 X26.52739 Y6.81173
G01 X26.55442 Y6.81138
G01 X26.58256 Y6.79878
G01 X26.54649 Y6.81026
G01 X26.52739 Y6.81173
G04 P0 ( dwell for no time -- G64 should not smooth over this point )
G00 Z2.00000 ( retract )

G00 X26.38807 Y6.82469 ( rapid move to begin. )
G01 F10.00000
( Mill infeed pass 1/1 )
G01 Z-0.10000
G04 P0 ( dwell for no time -- G64 should not smooth over this point )
G01 F20.00000
G01 X26.38807 Y6.82469
G01 X26.41619 Y6.81211
G01 X26.44321 Y6.81176
G01 X26.42411 Y6.81323
G01 X26.38807 Y6.82469
G04 P0 ( dwell for no time -- G64 should not smooth over this point )
G00 Z2.00000 ( retract )

G00 X26.30529 Y6.88791 ( rapid move to begin. )
G01 F10.00000
( Mill infeed pass 1/1 )
G01 Z-0.10000
G04 P0 ( dwell for no time -- G64 should not smooth over this point )
G01 F20.00000
G01 X26.30529 Y6.88791
G01 X26.31662 Y6.86428
G01 X26.35480 Y6.84140
G01 X26.32338 Y6.86418
G01 X26.30529 Y6.88791
G04 P0 ( dwell for no time -- G64 should not smooth over this point )
G00 Z2.00000 ( retract )

G00 X26.27131 Y6.96088 ( rapid move to begin. )
G01 F10.00000
( Mill infeed pass 1/1 )
G01 Z-0.10000
G04 P0 ( dwell for no time -- G64 should not smooth over this point )
G01 F20.00000
G01 X26.27131 Y6.96088
G01 X26.27273 Y7.00376
G01 X26.28683 Y7.03368
G01 X26.27441 Y6.99001
G01 X26.27441 Y6.96687
G01 X26.28027 Y6.94000
G01 X26.27131 Y6.96088
G04 P0 ( dwell for no time -- G64 should not smooth over this point )
G00 Z2.00000 ( retract )

G00 X25.76534 Y6.47841 ( rapid move to begin. )
G01 F10.00000
( Mill infeed pass 1/1 )
G01 Z-0.10000
G04 P0 ( dwell for no time -- G64 should not smooth over this point )
G01 F20.00000
G01 X25.76534 Y6.47841
G01 X25.79170 Y6.47912
G01 X25.80143 Y6.48374
G01 X25.76534 Y6.47841
G01 X25.61274 Y6.47841
G01 X25.58060 Y6.49052
G01 X25.61462 Y6.47991
G01 X25.63387 Y6.47841
G04 P0 ( dwell for no time -- G64 should not smooth over this point )
G00 Z2.00000 ( retract )

G00 X25.51185 Y6.52629 ( rapid move to begin. )
G01 F10.00000
( Mill infeed pass 1/1 )
G01 Z-0.10000
G04 P0 ( dwell for no time -- G64 should not smooth over this point )
G01 F20.00000
G01 X25.51185 Y6.52629
G01 X25.51909 Y6.52189
G01 X25.51185 Y6.52629
G04 P0 ( dwell for no time -- G64 should not smooth over this point )
G00 Z2.00000 ( retract )

G00 X25.46384 Y6.57340 ( rapid move to begin. )
G01 F10.00000
( Mill infeed pass 1/1 )
G01 Z-0.10000
G04 P0 ( dwell for no time -- G64 should not smooth over this point )
G01 F20.00000
G01 X25.46384 Y6.57340
G01 X25.46569 Y6.57122
G01 X25.46384 Y6.57340
G04 P0 ( dwell for no time -- G64 should not smooth over this point )
G00 Z2.00000 ( retract )

G00 X25.41629 Y6.66530 ( rapid move to begin. )
G01 F10.00000
( Mill infeed pass 1/1 )
G01 Z-0.10000
G04 P0 ( dwell for no time -- G64 should not smooth over this point )
G01 F20.00000
G01 X25.41629 Y6.66530
G01 X25.42485 Y6.64798
G01 X25.41629 Y6.67528
G01 X25.41629 Y6.66530
G04 P0 ( dwell for no time -- G64 should not smooth over this point )
G00 Z2.00000 ( retract )

G00 X25.76945 Y7.14478 ( rapid move to begin. )
G01 F10.00000
( Mill infeed pass 1/1 )
G01 Z-0.10000
G04 P0 ( dwell for no time -- G64 should not smooth over this point )
G01 F20.00000
G01 X25.76945 Y7.14478
G01 X25.79252 Y7.14470
G01 X25.81967 Y7.13266
G01 X25.80146 Y7.13975
G01 X25.76945 Y7.14478
G04 P0 ( dwell for no time -- G64 should not smooth over this point )
G00 Z2.00000 ( retract )

G00 X25.58347 Y7.13413 ( rapid move to begin. )
G01 F10.00000
( Mill infeed pass 1/1 )
G01 Z-0.10000
G04 P0 ( dwell for no time -- G64 should not smooth over this point )
G01 F20.00000
G01 X25.58347 Y7.13413
G01 X25.60146 Y7.14290
G01 X25.61225 Y7.14302
G01 X25.58347 Y7.13413
G04 P0 ( dwell for no time -- G64 should not smooth over this point )
G00 Z2.00000 ( retract )

G00 X25.50679 Y7.09334 ( rapid move to begin. )
G01 F10.00000
( Mill infeed pass 1/1 )
G01 Z-0.10000
G04 P0 ( dwell for no time -- G64 should not smooth over this point )
G01 F20.00000
G01 X25.50679 Y7.09334
G01 X25.50880 Y7.09504
G01 X25.50679 Y7.09334
G04 P0 ( dwell for no time -- G64 should not smooth over this point )
G00 Z2.00000 ( retract )

G00 X25.45736 Y7.03987 ( rapid move to begin. )
G01 F10.00000
( Mill infeed pass 1/1 )
G01 Z-0.10000
G04 P0 ( dwell for no time -- G64 should not smooth over this point )
G01 F20.00000
G01 X25.45736 Y7.03987
G01 X25.46176 Y7.04711
G01 X25.45736 Y7.03987
G04 P0 ( dwell for no time -- G64 should not smooth over this point )
G00 Z2.00000 ( retract )

G00 X25.41629 Y6.94818 ( rapid move to begin. )
G01 F10.00000
( Mill infeed pass 1/1 )
G01 Z-0.10000
G04 P0 ( dwell for no time -- G64 should not smooth over this point )
G01 F20.00000
G01 X25.41629 Y6.94818
G01 X25.42605 Y6.97843
G01 X25.41629 Y6.95816
G01 X25.41629 Y6.94818
G04 P0 ( dwell for no time -- G64 should not smooth over this point )
G00 Z2.00000 ( retract )

G00 X24.94052 Y7.43022 ( rapid move to begin. )
G01 F10.00000
( Mill infeed pass 1/1 )
G01 Z-0.10000
G04 P0 ( dwell for no time -- G64 should not smooth over this point )
G01 F20.00000
G01 X24.94052 Y7.43022
G01 X24.98530 Y7.47500
G01 X25.02953 Y7.43078
G01 X24.98485 Y7.38610
G01 X24.94052 Y7.43022
G04 P0 ( dwell for no time -- G64 should not smooth over this point )
G00 Z2.00000 ( retract )

G00 X24.49615 Y7.02806 ( rapid move to begin. )
G01 F10.00000
( Mill infeed pass 1/1 )
G01 Z-0.10000
G04 P0 ( dwell for no time -- G64 should not smooth over this point )
G01 F20.00000
G01 X24.49615 Y7.02806
G01 X24.50875 Y6.99989
G01 X24.50911 Y6.97343
G01 X24.50758 Y6.99233
G01 X24.49615 Y7.02806
G04 P0 ( dwell for no time -- G64 should not smooth over this point )
G00 Z2.00000 ( retract )

G00 X24.42534 Y7.11541 ( rapid move to begin. )
G01 F10.00000
( Mill infeed pass 1/1 )
G01 Z-0.10000
G04 P0 ( dwell for no time -- G64 should not smooth over this point )
G01 F20.00000
G01 X24.42534 Y7.11541
G01 X24.46397 Y7.09215
G01 X24.47944 Y7.06131
G01 X24.45671 Y7.09266
G01 X24.42534 Y7.11541
G04 P0 ( dwell for no time -- G64 should not smooth over this point )
G00 Z2.00000 ( retract )

G00 X24.35792 Y7.14313 ( rapid move to begin. )
G01 F10.00000
( Mill infeed pass 1/1 )
G01 Z-0.10000
G04 P0 ( dwell for no time -- G64 should not smooth over this point )
G01 F20.00000
