( pcb2gcode 2.5.0 )
( Software-independent Gcode )

G94 ( Millimeters per minute feed rate. )
G21 ( Units == Millimeters. )

G90 ( Absolute coordinates. )
G00 S15000 ( RPM spindle speed. )
G01 F25.00000 ( Feedrate. )


G00 Z25.00000 (Retract to tool change height)
T0
M5      (Spindle stop.)
G04 P1.00000 (Wait for spindle to stop)
(MSG, Change tool bit to mill diameter 0.25000mm)
M6      (Tool change.)
M0      (Temporary machine stop.)
M3 ( Spindle on clockwise. )
G04 P1.00000 (Wait for spindle to get up to speed)
G04 P0 ( dwell for no time -- G64 should not smooth over this point )
G00 Z2.00000 ( retract )

G00 X2.35050 Y2.64951 ( rapid move to begin. )
G01 F12.50000
( Mill infeed pass 1/1 )
G01 Z-0.10000
G04 P0 ( dwell for no time -- G64 should not smooth over this point )
G01 F25.00000
G01 X2.35050 Y2.64951
G01 X2.35449 Y2.61235
G01 X2.37422 Y2.53297
G01 X2.40445 Y2.48339
G01 X2.45022 Y2.43059
G01 X2.47428 Y2.40765
G01 X2.50227 Y2.38967
G01 X2.60016 Y2.35764
G01 X2.64948 Y2.35055
G01 X18.95390 Y2.35055
G01 X18.99901 Y2.35454
G01 X19.02613 Y2.36246
G01 X19.12118 Y2.40214
G01 X19.14765 Y2.42228
G01 X19.16985 Y2.44705
G01 X19.17930 Y2.46429
G01 X19.18036 Y2.46135
G01 X27.61652 Y2.46135
G01 X27.65063 Y2.46470
G01 X27.68347 Y2.47466
G01 X27.71372 Y2.49084
G01 X27.74024 Y2.51258
G01 X27.76198 Y2.53910
G01 X27.77816 Y2.56935
G01 X27.78812 Y2.60219
G01 X27.79147 Y2.63630
G01 X27.79147 Y6.69035
G01 X27.78812 Y6.72448
G01 X27.77816 Y6.75732
G01 X27.76198 Y6.78758
G01 X27.74024 Y6.81409
G01 X27.73209 Y6.81808
G01 X27.73445 Y31.24552
G01 X27.71926 Y31.33421
G01 X27.69769 Y31.38811
G01 X27.63473 Y31.46446
G01 X27.61067 Y31.48740
G01 X27.58268 Y31.50538
G01 X27.55182 Y31.51773
G01 X27.48479 Y31.53741
G01 X27.43549 Y31.54450
G01 X2.64948 Y31.54450
G01 X2.56079 Y31.52931
G01 X2.50689 Y31.50775
G01 X2.43054 Y31.44478
G01 X2.40760 Y31.42072
G01 X2.38962 Y31.39273
G01 X2.37727 Y31.36187
G01 X2.35759 Y31.29484
G01 X2.35050 Y31.24552
G01 X2.35050 Y2.64951
G01 X2.40046 Y2.64951
G01 X2.40046 Y31.24552
G01 X2.40554 Y31.28075
G01 X2.42523 Y31.34778
G01 X2.44689 Y31.38981
G01 X2.53290 Y31.46505
G01 X2.57140 Y31.48047
G01 X2.64948 Y31.49454
G01 X27.43549 Y31.49454
G01 X27.47069 Y31.48946
G01 X27.53773 Y31.46977
G01 X27.55977 Y31.46096
G01 X27.59696 Y31.43172
G01 X27.64273 Y31.37892
G01 X27.66432 Y31.34351
G01 X27.68162 Y31.27208
G01 X27.68449 Y31.24552
G01 X27.68449 Y6.79507
G01 X27.70488 Y6.77874
G01 X27.72043 Y6.75981
G01 X27.73198 Y6.73820
G01 X27.74151 Y6.69035
G01 X27.74151 Y2.63630
G01 X27.73198 Y2.58847
G01 X27.70488 Y2.54794
G01 X27.66434 Y2.52083
G01 X27.61652 Y2.51131
G01 X19.15512 Y2.51131
G01 X19.11376 Y2.45898
G01 X19.09484 Y2.44461
G01 X19.00830 Y2.40915
G01 X18.98892 Y2.40349
G01 X18.95390 Y2.40051
G01 X2.64948 Y2.40051
G01 X2.61425 Y2.40559
G01 X2.54722 Y2.42528
G01 X2.52518 Y2.43409
G01 X2.48799 Y2.46333
G01 X2.44222 Y2.51613
G01 X2.42063 Y2.55154
G01 X2.40333 Y2.62297
G01 X2.40046 Y2.64951
G04 P0 ( dwell for no time -- G64 should not smooth over this point )
G00 Z2.00000 ( retract )

G00 X9.90502 Y5.58001 ( rapid move to begin. )
G01 F12.50000
( Mill infeed pass 1/1 )
G01 Z-0.10000
G04 P0 ( dwell for no time -- G64 should not smooth over this point )
G01 F25.00000
G01 X9.90502 Y5.58001
G01 X9.93001 Y5.82700
G01 X9.93761 Y5.86279
G01 X10.01523 Y6.09860
G01 X10.14850 Y6.32944
G01 X10.31391 Y6.51455
G01 X10.34109 Y6.53904
G01 X10.54251 Y6.68417
G01 X10.70499 Y6.75758
G01 X10.71299 Y6.75242
G01 X10.70499 Y6.75758
G01 X10.70499 Y8.35752
G01 X10.71162 Y8.43322
G01 X10.71830 Y8.46685
G01 X10.73537 Y8.52313
G01 X10.77621 Y8.60670
G01 X10.83260 Y8.68066
G01 X11.58721 Y9.43649
G01 X11.59285 Y9.43461
G01 X11.58721 Y9.43649
G01 X11.57941 Y9.46354
G01 X11.57002 Y9.55308
G01 X11.57002 Y10.19196
G01 X11.57941 Y10.28147
G01 X11.60723 Y10.36707
G01 X11.65223 Y10.44502
G01 X11.71246 Y10.51190
G01 X11.76991 Y10.55483
G01 X11.80159 Y10.57312
G01 X11.88518 Y10.60616
G01 X11.93745 Y10.61726
G01 X12.00055 Y10.62249
G01 X13.38944 Y10.62249
G01 X13.45254 Y10.61726
G01 X13.53958 Y10.59486
G01 X13.60471 Y10.56481
G01 X13.66328 Y10.52343
G01 X13.69046 Y10.49895
G01 X13.74771 Y10.42966
G01 X13.78274 Y10.36707
G01 X13.79010 Y10.34751
G01 X13.78601 Y10.34083
G01 X13.79010 Y10.34751
G01 X13.97598 Y10.34751
G01 X14.05165 Y10.34088
G01 X14.14156 Y10.31713
G01 X14.22513 Y10.27629
G01 X14.25365 Y10.25722
G01 X14.31182 Y10.20837
G01 X15.59492 Y8.92532
G01 X15.59338 Y8.92156
G01 X15.59492 Y8.92532
G01 X15.62243 Y8.92648
G01 X16.09596 Y8.92527
G01 X16.13188 Y8.92143
G01 X16.19558 Y8.90693
G01 X16.27199 Y8.87292
G01 X16.33963 Y8.82377
G01 X16.39558 Y8.76161
G01 X16.43739 Y8.68920
G01 X16.46322 Y8.60967
G01 X16.47196 Y8.52651
G01 X16.47196 Y7.47650
G01 X16.46322 Y7.39334
G01 X16.44394 Y7.33093
G01 X16.42906 Y7.29751
G01 X16.39558 Y7.24140
G01 X16.33963 Y7.17927
G01 X16.27199 Y7.13012
G01 X16.21268 Y7.10266
G01 X16.17791 Y7.09136
G01 X16.09551 Y7.07777
G01 X15.58017 Y7.07874
G01 X15.51608 Y7.09136
G01 X15.48129 Y7.10266
G01 X15.42200 Y7.13012
G01 X15.36859 Y7.16774
G01 X15.34141 Y7.19222
G01 X15.29841 Y7.24140
G01 X15.25660 Y7.31384
G01 X15.23074 Y7.39334
G01 X15.22200 Y7.47650
G01 X15.22200 Y7.95478
G01 X15.22563 Y7.95631
G01 X15.22200 Y7.95478
G01 X13.78721 Y9.38955
G01 X13.78256 Y9.42239
G01 X13.78721 Y9.38955
G01 X13.77443 Y9.36164
G01 X13.73775 Y9.30002
G01 X13.69046 Y9.24607
G01 X13.66328 Y9.22158
G01 X13.60471 Y9.18021
G01 X13.53958 Y9.15016
G01 X13.50478 Y9.13885
G01 X13.41642 Y9.12394
G01 X12.61683 Y9.12265
G01 X12.61525 Y9.12643
G01 X12.61683 Y9.12265
G01 X11.65498 Y8.16080
G01 X11.65117 Y8.16238
G01 X11.65498 Y8.16080
G01 X11.65498 Y6.75758
G01 X11.64698 Y6.75242
G01 X11.65498 Y6.75758
G01 X11.81749 Y6.68417
G01 X12.03311 Y6.52751
G01 X12.21147 Y6.32944
G01 X12.34474 Y6.09860
G01 X12.42711 Y5.84508
G01 X12.45498 Y5.58001
G01 X12.42711 Y5.31494
G01 X12.34474 Y5.06144
G01 X12.21147 Y4.83061
G01 X12.03311 Y4.63251
G01 X11.81749 Y4.47585
G01 X11.59107 Y4.37399
G01 X11.55627 Y4.36269
G01 X11.33136 Y4.31489
G01 X11.29496 Y4.31105
G01 X11.04672 Y4.31202
G01 X10.80370 Y4.36269
G01 X10.76890 Y4.37399
G01 X10.54251 Y4.47585
G01 X10.34109 Y4.62098
G01 X10.31391 Y4.64547
G01 X10.14850 Y4.83061
G01 X10.01523 Y5.06144
G01 X9.93761 Y5.29723
G01 X9.93001 Y5.33302
G01 X9.90502 Y5.58001
G01 X9.95498 Y5.58001
G01 X9.98513 Y5.84734
G01 X10.06090 Y6.07826
G01 X10.18894 Y6.30005
G01 X10.35104 Y6.48113
G01 X10.37047 Y6.49860
G01 X10.56748 Y6.64089
G01 X10.75498 Y6.72512
G01 X10.75498 Y8.35752
G01 X10.76613 Y8.45234
G01 X10.79257 Y8.53126
G01 X10.82661 Y8.59364
G01 X10.87124 Y8.64896
G01 X11.64421 Y9.42280
G01 X11.62831 Y9.47396
G01 X11.61998 Y9.55308
G01 X11.61998 Y10.19196
G01 X11.62831 Y10.27108
G01 X11.65290 Y10.34675
G01 X11.69267 Y10.41564
G01 X11.74591 Y10.47477
G01 X11.82193 Y10.52747
G01 X11.89559 Y10.55727
G01 X11.94784 Y10.56839
G01 X12.00055 Y10.57251
G01 X13.38944 Y10.57251
G01 X13.44212 Y10.56839
G01 X13.50702 Y10.55389
G01 X13.57971 Y10.52153
G01 X13.65332 Y10.46552
G01 X13.70443 Y10.40466
G01 X13.73709 Y10.34675
G01 X13.75381 Y10.29753
G01 X13.97598 Y10.29753
G01 X14.04674 Y10.29115
G01 X14.14969 Y10.25993
G01 X14.22193 Y10.21858
G01 X14.27649 Y10.17304
G01 X15.57636 Y8.87320
G01 X15.62231 Y8.87652
G01 X16.10874 Y8.87457
G01 X16.18014 Y8.85938
G01 X16.25797 Y8.82250
G01 X16.30618 Y8.78661
G01 X16.34692 Y8.74241
G01 X16.38578 Y8.68054
G01 X16.41433 Y8.59928
G01 X16.42131 Y8.53957
G01 X16.42200 Y7.47650
G01 X16.41433 Y7.40375
G01 X16.39642 Y7.34638
G01 X16.35515 Y7.27079
G01 X16.29602 Y7.20817
G01 X16.24699 Y7.17340
G01 X16.19236 Y7.14833
G01 X16.10856 Y7.12842
G01 X15.58540 Y7.12842
G01 X15.50161 Y7.14833
G01 X15.44699 Y7.17340
G01 X15.39795 Y7.20817
G01 X15.34707 Y7.26063
G01 X15.33170 Y7.28176
G01 X15.30224 Y7.33416
G01 X15.27963 Y7.40375
G01 X15.27199 Y7.47650
G01 X15.27199 Y7.97548
G01 X13.79993 Y9.44752
G01 X13.75381 Y9.44752
G01 X13.73709 Y9.39829
G01 X13.70443 Y9.34035
G01 X13.64408 Y9.27025
G01 X13.57971 Y9.22349
G01 X13.49440 Y9.18775
G01 X13.41634 Y9.17391
G01 X12.59607 Y9.17259
G01 X11.60499 Y8.18150
G01 X11.60499 Y6.72512
G01 X11.79249 Y6.64089
G01 X11.98950 Y6.49860
G01 X12.16280 Y6.31021
G01 X12.17817 Y6.28908
G01 X12.29907 Y6.07826
G01 X12.37822 Y5.83470
G01 X12.40499 Y5.58001
G01 X12.37822 Y5.32532
G01 X12.29907 Y5.08176
G01 X12.17103 Y4.85997
G01 X11.98950 Y4.66142
G01 X11.79249 Y4.51913
G01 X11.55853 Y4.41496
G01 X11.29496 Y4.36104
G01 X11.05193 Y4.36172
G01 X10.80144 Y4.41496
G01 X10.56748 Y4.51913
G01 X10.37047 Y4.66142
G01 X10.18894 Y4.85997
G01 X10.06090 Y5.08176
G01 X9.98513 Y5.31267
G01 X9.95498 Y5.58001
G04 P0 ( dwell for no time -- G64 should not smooth over this point )
G00 Z2.00000 ( retract )

G00 X5.18435 Y10.41340 ( rapid move to begin. )
G01 F12.50000
( Mill infeed pass 1/1 )
G01 Z-0.10000
G04 P0 ( dwell for no time -- G64 should not smooth over this point )
G01 F25.00000
G01 X5.18435 Y10.41340
G01 X5.21087 Y10.21185
G01 X5.26350 Y10.01551
G01 X5.34122 Y9.82773
G01 X5.44290 Y9.65171
G01 X5.56665 Y9.49044
G01 X5.71034 Y9.34670
G01 X5.87158 Y9.22295
G01 X6.04765 Y9.12135
G01 X6.23546 Y9.04355
G01 X6.43177 Y8.99092
G01 X6.63335 Y8.96438
G01 X7.73660 Y8.96448
G01 X7.93809 Y8.99105
G01 X8.13446 Y9.04365
G01 X8.32222 Y9.12140
G01 X8.49824 Y9.22306
G01 X8.65951 Y9.34678
G01 X8.80319 Y9.49049
G01 X8.92694 Y9.65176
G01 X9.02859 Y9.82778
G01 X9.10637 Y10.01554
G01 X9.15892 Y10.21188
G01 X9.18551 Y10.41340
G01 X9.18551 Y10.61665
G01 X9.15892 Y10.81818
G01 X9.10637 Y11.01452
G01 X9.02859 Y11.20227
G01 X8.92694 Y11.37830
G01 X8.80319 Y11.53956
G01 X8.65951 Y11.68327
G01 X8.49824 Y11.80700
G01 X8.32222 Y11.90865
G01 X8.13446 Y11.98640
G01 X8.00007 Y12.02450
G01 X7.86370 Y11.97908
G01 X7.63500 Y11.95503
G01 X6.71666 Y11.95599
G01 X6.50630 Y11.97908
G01 X6.36987 Y12.02450
G01 X6.23546 Y11.98650
G01 X6.04765 Y11.90870
G01 X5.87158 Y11.80710
G01 X5.71034 Y11.68335
G01 X5.56665 Y11.53961
G01 X5.44290 Y11.37835
G01 X5.34122 Y11.20232
G01 X5.26350 Y11.01454
G01 X5.21087 Y10.81820
G01 X5.18435 Y10.61665
G01 X5.18435 Y10.41340
G01 X5.13447 Y10.41012
G01 X5.16187 Y10.20212
G01 X5.21615 Y9.99946
G01 X5.29644 Y9.80563
G01 X5.40135 Y9.62394
G01 X5.52906 Y9.45747
G01 X5.67742 Y9.30911
G01 X5.84381 Y9.18140
G01 X6.02555 Y9.07652
G01 X6.21938 Y8.99623
G01 X6.42207 Y8.94193
G01 X6.63007 Y8.91452
G01 X7.73987 Y8.91452
G01 X7.94787 Y8.94193
G01 X8.15049 Y8.99623
G01 X8.34434 Y9.07650
G01 X8.52605 Y9.18140
G01 X8.69253 Y9.30911
G01 X8.84089 Y9.45747
G01 X8.96860 Y9.62394
G01 X9.07350 Y9.80563
G01 X9.15374 Y9.99946
G01 X9.20807 Y10.20212
G01 X9.23548 Y10.41012
G01 X9.23548 Y10.61993
G01 X9.20807 Y10.82793
G01 X9.15374 Y11.03060
G01 X9.07350 Y11.22442
G01 X8.96860 Y11.40611
G01 X8.84089 Y11.57258
G01 X8.69253 Y11.72094
G01 X8.52605 Y11.84865
G01 X8.34434 Y11.95356
G01 X8.15049 Y12.03382
G01 X7.99875 Y12.07451
G01 X7.85328 Y12.02795
G01 X7.63500 Y12.00502
G01 X6.72192 Y12.00570
G01 X6.51669 Y12.02795
G01 X6.37119 Y12.07451
G01 X6.21938 Y12.03382
G01 X6.02555 Y11.95353
G01 X5.84381 Y11.84865
G01 X5.67742 Y11.72094
G01 X5.52906 Y11.57258
G01 X5.40135 Y11.40611
G01 X5.29644 Y11.22442
G01 X5.21615 Y11.03060
G01 X5.16187 Y10.82793
G01 X5.13447 Y10.61993
G01 X5.13447 Y10.41012
G01 X5.64008 Y10.41833
G01 X5.64384 Y10.38196
G01 X5.68410 Y10.19280
G01 X5.69540 Y10.15800
G01 X5.78232 Y9.96501
G01 X5.90602 Y9.79321
G01 X5.93048 Y9.76603
G01 X6.08844 Y9.62511
G01 X6.28758 Y9.51013
G01 X6.50630 Y9.43908
G01 X6.71666 Y9.41599
G01 X7.65323 Y9.41599
G01 X7.86370 Y9.43908
G01 X8.06527 Y9.50357
G01 X8.09870 Y9.51846
G01 X8.28153 Y9.62511
G01 X8.45242 Y9.77899
G01 X8.58757 Y9.96501
G01 X8.67457 Y10.15800
G01 X8.68585 Y10.19280
G01 X8.72895 Y10.40004
G01 X8.72895 Y10.62999
G01 X8.68112 Y10.85493
G01 X8.59590 Y11.04868
G01 X8.57762 Y11.08035
G01 X8.45242 Y11.25104
G01 X8.29575 Y11.39338
G01 X8.26619 Y11.41490
G01 X8.08239 Y11.51990
G01 X7.88138 Y11.58622
G01 X7.84559 Y11.59382
G01 X7.65323 Y11.61403
G01 X6.73500 Y11.61500
G01 X6.52438 Y11.59382
G01 X6.48859 Y11.58622
G01 X6.28758 Y11.51990
G01 X6.10381 Y11.41490
G01 X6.07419 Y11.39338
G01 X5.91755 Y11.25104
G01 X5.79233 Y11.08035
G01 X5.77407 Y11.04868
G01 X5.68885 Y10.85493
G01 X5.64384 Y10.64807
G01 X5.64008 Y10.61170
G01 X5.64008 Y10.41833
G01 X5.69002 Y10.41833
G01 X5.69073 Y10.62478
G01 X5.73299 Y10.82684
G01 X5.82565 Y11.04002
G01 X5.96391 Y11.22686
G01 X6.11780 Y11.36448
G01 X6.30792 Y11.47423
G01 X6.51669 Y11.54208
G01 X6.73500 Y11.56501
G01 X7.63500 Y11.56501
G01 X7.86593 Y11.53867
G01 X8.06205 Y11.47423
G01 X8.24119 Y11.37162
G01 X8.41528 Y11.21759
G01 X8.55026 Y11.02836
G01 X8.63357 Y10.83949
G01 X8.67713 Y10.63768
G01 X8.67988 Y10.61170
G01 X8.67713 Y10.39234
G01 X8.63357 Y10.19054
G01 X8.55026 Y10.00167
G01 X8.41528 Y9.81244
G01 X8.24119 Y9.65841
G01 X8.04985 Y9.55110
G01 X7.85328 Y9.48795
G01 X7.64805 Y9.46570
G01 X6.73500 Y9.46502
G01 X6.50404 Y9.49136
G01 X6.30792 Y9.55580
G01 X6.12878 Y9.65841
G01 X5.95468 Y9.81244
G01 X5.82565 Y9.99001
G01 X5.74107 Y10.17832
G01 X5.73299 Y10.20319
G01 X5.69002 Y10.41833
G01 X5.64011 Y10.41757
G04 P0 ( dwell for no time -- G64 should not smooth over this point )
G00 Z2.00000 ( retract )

G00 X8.59880 Y13.58015 ( rapid move to begin. )
G01 F12.50000
( Mill infeed pass 1/1 )
G01 Z-0.10000
G04 P0 ( dwell for no time -- G64 should not smooth over this point )
G01 F25.00000
G01 X8.59880 Y13.58015
G01 X8.70238 Y13.42942
G01 X8.73588 Y13.37235
G01 X11.05412 Y11.05417
G01 X11.11228 Y11.00532
G01 X11.14081 Y10.98625
G01 X11.22437 Y10.94540
G01 X11.28066 Y10.92834
G01 X11.31429 Y10.92165
G01 X11.38998 Y10.91503
G01 X14.88499 Y10.91503
G01 X14.96066 Y10.92165
G01 X15.05058 Y10.94540
G01 X15.13414 Y10.98625
G01 X15.16267 Y11.00532
G01 X15.22083 Y11.05417
G01 X15.61499 Y11.44832
G01 X15.61347 Y11.45211
G01 X15.61499 Y11.44832
G01 X15.66300 Y11.44502
G01 X16.04123 Y11.44502
G01 X16.04280 Y11.44876
G01 X16.04123 Y11.44502
G01 X16.32197 Y11.16430
G01 X16.32578 Y11.16588
G01 X16.32197 Y11.16430
G01 X16.32197 Y10.71277
G01 X16.32563 Y10.71129
G01 X16.32197 Y10.71277
G01 X16.30435 Y10.69874
G01 X16.24839 Y10.63662
G01 X16.20658 Y10.56420
G01 X16.18075 Y10.48467
G01 X16.17201 Y10.40151
G01 X16.17201 Y9.35150
G01 X16.17788 Y9.28645
G01 X16.18550 Y9.25067
G01 X16.20658 Y9.18882
G01 X16.23843 Y9.13177
G01 X16.25992 Y9.10218
G01 X16.30435 Y9.05427
G01 X16.35665 Y9.01511
G01 X16.43130 Y8.97767
G01 X16.47509 Y8.96471
G01 X16.57244 Y8.95153
G01 X17.04595 Y8.95277
G01 X17.08189 Y8.95658
G01 X17.14559 Y8.97111
G01 X17.20567 Y8.99682
G01 X17.23734 Y9.01511
G01 X17.28964 Y9.05427
G01 X17.33406 Y9.10218
G01 X17.35555 Y9.13177
G01 X17.38738 Y9.18882
G01 X17.41323 Y9.26834
G01 X17.42197 Y9.35150
G01 X17.42101 Y10.41980
G01 X17.41323 Y10.48467
G01 X17.39396 Y10.54711
G01 X17.37907 Y10.58051
G01 X17.33406 Y10.65084
G01 X17.28964 Y10.69874
G01 X17.27196 Y10.71279
G01 X17.26843 Y10.71134
G01 X17.27196 Y10.71279
G01 X17.27196 Y11.36102
G01 X17.26343 Y11.44881
G01 X17.25243 Y11.49460
G01 X17.22593 Y11.56420
G01 X17.17272 Y11.65102
G01 X17.13282 Y11.69691
G01 X16.83798 Y11.99176
G01 X16.83424 Y11.99023
G01 X16.83798 Y11.99176
G01 X16.83798 Y12.37001
G01 X16.83155 Y12.44027
G01 X16.82393 Y12.47606
G01 X16.80122 Y12.54286
G01 X16.75680 Y12.61980
G01 X16.69736 Y12.68584
G01 X16.62548 Y12.73806
G01 X16.54433 Y12.77420
G01 X16.47549 Y12.78980
G01 X16.41298 Y12.79498
G01 X15.65383 Y12.79475
G01 X15.60049 Y12.78980
G01 X15.54936 Y12.77893
G01 X15.46681 Y12.74637
G01 X15.43513 Y12.72808
G01 X15.37862 Y12.68584
G01 X15.31918 Y12.61980
G01 X15.28306 Y12.55919
G01 X15.26818 Y12.52577
G01 X15.24664 Y12.45513
G01 X15.24453 Y12.41690
G01 X14.68837 Y11.86501
G01 X14.68995 Y11.86120
G01 X14.68837 Y11.86501
G01 X11.58670 Y11.86501
G01 X11.58513 Y11.86120
G01 X11.58670 Y11.86501
G01 X8.51216 Y14.93955
G01 X8.49667 Y14.93828
G01 X8.51216 Y14.93955
G01 X8.58757 Y15.04501
G01 X8.68112 Y15.25510
G01 X8.72895 Y15.48004
G01 X8.72895 Y15.70999
G01 X8.68112 Y15.93493
G01 X8.58757 Y16.14501
G01 X8.45242 Y16.33104
G01 X8.28153 Y16.48492
G01 X8.08239 Y16.59990
G01 X7.88138 Y16.66622
G01 X7.84559 Y16.67382
G01 X7.63500 Y16.69500
G01 X6.71666 Y16.69403
G01 X6.50630 Y16.67094
G01 X6.28758 Y16.59990
G01 X6.08844 Y16.48492
G01 X5.93048 Y16.34400
G01 X5.90602 Y16.31682
G01 X5.78232 Y16.14501
G01 X5.69540 Y15.95202
G01 X5.68410 Y15.91723
G01 X5.64384 Y15.72807
G01 X5.64008 Y15.69170
G01 X5.64008 Y15.49833
G01 X5.69002 Y15.49833
G01 X5.64008 Y15.49833
G01 X5.64384 Y15.46196
G01 X5.68885 Y15.25510
G01 X5.78232 Y15.04501
G01 X5.91755 Y14.85899
G01 X6.07419 Y14.71664
G01 X6.10381 Y14.69513
G01 X6.28758 Y14.59013
G01 X6.50630 Y14.51908
G01 X6.73500 Y14.49503
G01 X7.61320 Y14.49503
G01 X7.61480 Y14.49884
G01 X7.61320 Y14.49503
G01 X7.95478 Y14.15347
G01 X8.07673 Y14.07872
G01 X8.16766 Y14.01129
G01 X11.08945 Y11.08950
G01 X11.15386 Y11.03664
G01 X11.23888 Y10.99323
G01 X11.30705 Y10.97319
G01 X11.38998 Y10.96501
G01 X14.89724 Y10.96562
G01 X14.96790 Y10.97319
G01 X15.03607 Y10.99323
G01 X15.13094 Y11.04396
G01 X15.18550 Y11.08950
G01 X15.59787 Y11.50187
G01 X15.66300 Y11.49501
G01 X16.06193 Y11.49501
G01 X16.37196 Y11.18500
G01 X16.37196 Y10.68729
G01 X16.33780 Y10.66161
G01 X16.29706 Y10.61741
G01 X16.25819 Y10.55554
G01 X16.22965 Y10.47428
G01 X16.22266 Y10.41457
G01 X16.22200 Y9.35150
G01 X16.22965 Y9.27873
G01 X16.25819 Y9.19750
G01 X16.28883 Y9.14579
G01 X16.32853 Y9.10065
G01 X16.39698 Y9.04840
G01 X16.46696 Y9.01767
G01 X16.57232 Y9.00152
G01 X17.04582 Y9.00274
G01 X17.11750 Y9.01526
G01 X17.19698 Y9.04840
G01 X17.25619 Y9.09141
G01 X17.30513 Y9.14579
G01 X17.33579 Y9.19750
G01 X17.36434 Y9.27873
G01 X17.37198 Y9.35150
G01 X17.37130 Y10.41457
G01 X17.36434 Y10.47428
G01 X17.33579 Y10.55554
G01 X17.29690 Y10.61741
G01 X17.25619 Y10.66161
G01 X17.22197 Y10.68731
G01 X17.22197 Y11.36102
G01 X17.21481 Y11.43715
G01 X17.20384 Y11.48292
G01 X17.17976 Y11.54507
G01 X17.13472 Y11.61855
G01 X17.09749 Y11.66156
G01 X16.78799 Y11.97106
G01 X16.78799 Y12.37001
G01 X16.77978 Y12.44799
G01 X16.75558 Y12.52254
G01 X16.71636 Y12.59043
G01 X16.66391 Y12.64870
G01 X16.60049 Y12.69478
G01 X16.52886 Y12.72665
G01 X16.46510 Y12.74090
G01 X16.41298 Y12.74502
G01 X15.65644 Y12.74484
G01 X15.61088 Y12.74090
G01 X15.55975 Y12.73003
G01 X15.48715 Y12.70072
G01 X15.41207 Y12.64870
G01 X15.35248 Y12.57946
G01 X15.31573 Y12.51032
G01 X15.29571 Y12.44565
G01 X15.29142 Y12.39577
G01 X14.70905 Y11.81502
G01 X11.56600 Y11.81502
G01 X8.44663 Y14.93440
G01 X8.54432 Y15.07001
G01 X8.63357 Y15.27054
G01 X8.67924 Y15.48525
G01 X8.67924 Y15.70478
G01 X8.63357 Y15.91949
G01 X8.54432 Y16.12002
G01 X8.41528 Y16.29759
G01 X8.25217 Y16.44448
G01 X8.06205 Y16.55423
G01 X7.84038 Y16.62411
G01 X7.63500 Y16.64501
G01 X6.72192 Y16.64433
G01 X6.51669 Y16.62208
G01 X6.30792 Y16.55423
G01 X6.11780 Y16.44448
G01 X5.96391 Y16.30686
G01 X5.83279 Y16.13099
G01 X5.81971 Y16.10836
G01 X5.73632 Y15.91949
G01 X5.69002 Y15.69170
G01 X5.69073 Y15.48525
G01 X5.73632 Y15.27054
G01 X5.82565 Y15.07001
G01 X5.95468 Y14.89244
G01 X6.12878 Y14.73841
G01 X6.30792 Y14.63580
G01 X6.51669 Y14.56795
G01 X6.73500 Y14.54502
G01 X7.63393 Y14.54502
G01 X8.16766 Y14.01129
G04 P0 ( dwell for no time -- G64 should not smooth over this point )
G00 Z2.00000 ( retract )

G00 X5.63498 Y19.75001 ( rapid move to begin. )
G01 F12.50000
( Mill infeed pass 1/1 )
G01 Z-0.10000
G04 P0 ( dwell for no time -- G64 should not smooth over this point )
G01 F25.00000
G01 X5.63498 Y19.75001
G01 X5.63835 Y19.71587
G01 X5.64834 Y19.68305
G01 X5.66449 Y19.65280
G01 X5.68626 Y19.62629
G01 X5.71275 Y19.60452
G01 X5.74303 Y19.58836
G01 X5.77584 Y19.57841
G01 X5.80998 Y19.57503
G01 X8.55996 Y19.57503
G01 X8.59413 Y19.57841
G01 X8.62694 Y19.58836
G01 X8.65719 Y19.60452
G01 X8.68371 Y19.62629
G01 X8.70548 Y19.65280
G01 X8.72166 Y19.68305
G01 X8.73162 Y19.71587
G01 X8.73492 Y19.75001
G01 X8.73492 Y21.60002
G01 X8.73162 Y21.63416
G01 X8.72166 Y21.66697
G01 X8.70548 Y21.69722
G01 X8.68371 Y21.72374
G01 X8.65719 Y21.74551
G01 X8.62694 Y21.76166
G01 X8.59413 Y21.77162
G01 X8.55996 Y21.77500
G01 X7.65996 Y21.77500
G01 X7.64538 Y21.76047
G01 X7.65996 Y21.77500
G01 X7.65996 Y24.43529
G01 X7.65613 Y24.43687
G01 X7.65996 Y24.43529
G01 X7.71869 Y24.49404
G01 X7.71711 Y24.49783
G01 X7.71869 Y24.49404
G01 X8.13225 Y24.49564
G01 X8.22829 Y24.51482
G01 X8.29316 Y24.54266
G01 X8.32481 Y24.56095
G01 X8.38135 Y24.60319
G01 X8.44081 Y24.66923
G01 X8.48524 Y24.74616
G01 X8.50794 Y24.81297
G01 X8.51554 Y24.84875
G01 X8.52196 Y24.91901
G01 X8.52196 Y25.66902
G01 X8.51267 Y25.75736
G01 X8.48524 Y25.84187
G01 X8.45077 Y25.90344
G01 X8.42923 Y25.93305
G01 X8.38135 Y25.98485
G01 X8.32481 Y26.02709
G01 X8.24541 Y26.06663
G01 X8.15951 Y26.08881
G01 X8.10612 Y26.09376
G01 X7.55234 Y26.09165
G01 X7.46565 Y26.07319
G01 X7.40081 Y26.04537
G01 X7.36913 Y26.02709
G01 X7.31262 Y25.98485
G01 X7.25313 Y25.91881
G01 X7.21706 Y25.85818
G01 X7.20213 Y25.82477
G01 X7.18130 Y25.75736
G01 X7.17201 Y25.66902
G01 X7.17201 Y25.29079
G01 X7.17566 Y25.28929
G01 X7.17201 Y25.29079
G01 X6.84912 Y24.96788
G01 X6.79004 Y24.89592
G01 X6.75344 Y24.82932
G01 X6.74036 Y24.79762
G01 X6.71912 Y24.72470
G01 X6.70998 Y24.63202
G01 X6.70998 Y21.77500
G01 X6.72448 Y21.76052
G01 X6.70998 Y21.77500
G01 X5.80998 Y21.77500
G01 X5.77584 Y21.77162
G01 X5.74303 Y21.76166
G01 X5.71275 Y21.74551
G01 X5.68626 Y21.72374
G01 X5.66449 Y21.69722
G01 X5.64834 Y21.66697
G01 X5.63835 Y21.63416
G01 X5.63498 Y21.60002
G01 X5.63498 Y19.75001
G01 X5.68499 Y19.75001
G01 X5.68499 Y21.60002
G01 X5.68740 Y21.62440
G01 X5.70604 Y21.66946
G01 X5.74051 Y21.70395
G01 X5.78555 Y21.72260
G01 X5.80998 Y21.72501
G01 X6.75997 Y21.72501
G01 X6.75997 Y24.63202
G01 X6.76815 Y24.71495
G01 X6.78816 Y24.78312
G01 X6.83157 Y24.86813
G01 X6.87622 Y24.92346
G01 X7.22199 Y25.27009
G01 X7.22199 Y25.66902
G01 X7.23017 Y25.74697
G01 X7.25440 Y25.82155
G01 X7.28648 Y25.87847
G01 X7.34607 Y25.94769
G01 X7.42115 Y25.99970
G01 X7.48110 Y26.02566
G01 X7.55763 Y26.04194
G01 X8.09667 Y26.04400
G01 X8.14912 Y26.03991
G01 X8.21287 Y26.02566
G01 X8.28445 Y25.99376
G01 X8.33771 Y25.95591
G01 X8.35717 Y25.93844
G01 X8.40744 Y25.87847
G01 X8.43957 Y25.82155
G01 X8.46039 Y25.75962
G01 X8.47198 Y25.66902
G01 X8.47198 Y24.91901
G01 X8.46583 Y24.85396
G01 X8.43957 Y24.76648
G01 X8.40035 Y24.69859
G01 X8.34790 Y24.64032
G01 X8.27284 Y24.58830
G01 X8.21287 Y24.56237
G01 X8.12966 Y24.54555
G01 X7.69794 Y24.54401
G01 X7.60998 Y24.45599
G01 X7.60998 Y21.72501
G01 X8.55996 Y21.72501
G01 X8.60782 Y21.71549
G01 X8.62943 Y21.70395
G01 X8.64838 Y21.68841
G01 X8.67548 Y21.64785
G01 X8.68498 Y21.60002
G01 X8.68498 Y19.75001
G01 X8.67548 Y19.70218
G01 X8.64838 Y19.66162
G01 X8.62943 Y19.64607
G01 X8.60782 Y19.63452
G01 X8.55996 Y19.62502
G01 X5.80998 Y19.62502
G01 X5.76215 Y19.63452
G01 X5.72159 Y19.66162
G01 X5.69451 Y19.70218
G01 X5.68499 Y19.75001
G04 P0 ( dwell for no time -- G64 should not smooth over this point )
G00 Z2.00000 ( retract )

G00 X14.98317 Y23.48830 ( rapid move to begin. )
G01 F12.50000
( Mill infeed pass 1/1 )
G01 Z-0.10000
G04 P0 ( dwell for no time -- G64 should not smooth over this point )
G01 F25.00000
G01 X14.98317 Y23.48830
G01 X14.91654 Y23.51317
G01 X14.82584 Y23.51259
G01 X14.73673 Y23.50100
G01 X14.69368 Y23.48505
G01 X13.34078 Y23.48505
G01 X13.33940 Y23.48856
G01 X13.34078 Y23.48505
G01 X13.18086 Y23.32514
G01 X13.09752 Y23.25673
G01 X13.01797 Y23.21325
G01 X12.91594 Y23.17878
G01 X12.88228 Y23.17210
G01 X12.79198 Y23.16405
G01 X12.01312 Y23.16646
G01 X11.98411 Y23.13667
G01 X11.91015 Y23.08765
G01 X11.84533 Y23.05983
G01 X11.74929 Y23.04063
G01 X10.91942 Y23.04137
G01 X10.83265 Y23.05983
G01 X10.75150 Y23.09598
G01 X10.67962 Y23.14820
G01 X10.62018 Y23.21421
G01 X10.58406 Y23.27484
G01 X10.56918 Y23.30824
G01 X10.54830 Y23.37566
G01 X10.53997 Y23.44573
G01 X10.53900 Y23.46402
G01 X10.58899 Y23.46402
G01 X10.53900 Y23.46402
G01 X10.53900 Y23.96402
G01 X10.54830 Y24.05236
G01 X10.57576 Y24.13687
G01 X10.61020 Y24.19844
G01 X10.63169 Y24.22805
G01 X10.67962 Y24.27984
G01 X10.73613 Y24.32209
G01 X10.76781 Y24.34037
G01 X10.83265 Y24.36819
G01 X10.90149 Y24.38381
G01 X10.93786 Y24.38762
G01 X11.75841 Y24.38665
G01 X11.84533 Y24.36819
G01 X11.91015 Y24.34037
G01 X11.98411 Y24.29135
G01 X12.01309 Y24.26151
G01 X12.56417 Y24.26400
G01 X12.56549 Y24.26059
G01 X12.56417 Y24.26400
G01 X12.72409 Y24.42391
G01 X12.80743 Y24.49232
G01 X12.88698 Y24.53580
G01 X12.91868 Y24.54893
G01 X13.02267 Y24.57695
G01 X13.11299 Y24.58500
G01 X14.91169 Y24.58249
G01 X14.95286 Y24.62153
G01 X14.99165 Y24.64505
G01 X15.09160 Y24.64505
G01 X15.15870 Y24.67001
G01 X16.49924 Y24.67001
G01 X16.56642 Y24.69501
G01 X16.66637 Y24.69501
G01 X16.71936 Y24.73001
G01 X16.81776 Y24.81990
G01 X16.90683 Y24.94253
G01 X16.96193 Y25.06389
G01 X16.97323 Y25.09866
G01 X16.99713 Y25.21114
G01 X17.00097 Y25.24753
G01 X17.00000 Y25.38078
G01 X16.97323 Y25.51136
G01 X16.96193 Y25.54614
G01 X16.91517 Y25.65119
G01 X16.89685 Y25.68286
G01 X16.81776 Y25.79013
G01 X16.71936 Y25.88002
G01 X16.68977 Y25.90151
G01 X16.59017 Y25.95899
G01 X16.55677 Y25.97387
G01 X16.42972 Y26.01416
G01 X16.28337 Y26.02813
G01 X15.79086 Y26.39696
G01 X15.74141 Y26.42272
G01 X15.68636 Y26.43158
G01 X14.14088 Y26.42912
G01 X14.08550 Y26.40974
G01 X14.06104 Y26.39338
G01 X13.36648 Y25.83902
G01 X13.36745 Y25.83620
G01 X13.36648 Y25.83902
G01 X12.07324 Y25.83902
G01 X12.07083 Y25.83405
G01 X12.07324 Y25.83902
G01 X12.05780 Y25.86381
G01 X12.01131 Y25.91688
G01 X11.94185 Y25.97207
G01 X11.91015 Y25.99038
G01 X11.84533 Y26.01820
G01 X11.77649 Y26.03379
G01 X11.74042 Y26.03763
G01 X10.96430 Y26.03900
G01 X10.90149 Y26.03379
G01 X10.83265 Y26.01820
G01 X10.76781 Y25.99038
G01 X10.73613 Y25.97207
G01 X10.67962 Y25.92983
G01 X10.62018 Y25.86381
G01 X10.57576 Y25.78688
G01 X10.56895 Y25.76902
G01 X10.57281 Y25.76229
G01 X10.56895 Y25.76902
G01 X10.15955 Y25.76902
G01 X10.15450 Y25.76110
G01 X10.15955 Y25.76902
G01 X10.13522 Y25.84187
G01 X10.09080 Y25.91881
G01 X10.03136 Y25.98485
G01 X9.97484 Y26.02709
G01 X9.96778 Y26.02714
G01 X9.97197 Y26.02894
G01 X9.97197 Y26.44728
G01 X9.96816 Y26.44885
G01 X9.97197 Y26.44728
G01 X10.93766 Y27.41296
G01 X10.93568 Y27.42282
G01 X10.93766 Y27.41296
G01 X11.03999 Y27.36843
G01 X11.28261 Y27.31588
G01 X11.31901 Y27.31205
G01 X11.56725 Y27.31301
G01 X11.82798 Y27.36843
G01 X12.05516 Y27.46854
G01 X12.08683 Y27.48682
G01 X12.28711 Y27.63351
G01 X12.46547 Y27.83160
G01 X12.59874 Y28.06244
G01 X12.68111 Y28.31593
G01 X12.70898 Y28.58100
G01 X12.68398 Y28.82799
G01 X12.67636 Y28.86378
G01 X12.59874 Y29.09960
G01 X12.47545 Y29.31506
G01 X12.45394 Y29.34466
G01 X12.28711 Y29.52850
G01 X12.08683 Y29.67521
G01 X12.05516 Y29.69350
G01 X11.82798 Y29.79360
G01 X11.58536 Y29.84615
G01 X11.54896 Y29.84996
G01 X11.30072 Y29.84900
G01 X11.05770 Y29.79833
G01 X11.02290 Y29.78702
G01 X10.79651 Y29.68517
G01 X10.58086 Y29.52850
G01 X10.41404 Y29.34466
G01 X10.39252 Y29.31506
G01 X10.27756 Y29.11590
G01 X10.26268 Y29.08250
G01 X10.18686 Y28.84610
G01 X10.15902 Y28.58100
G01 X10.18686 Y28.31593
G01 X10.26219 Y28.08096
G01 X10.27045 Y28.07900
G01 X10.26219 Y28.08096
G01 X9.16113 Y26.97987
G01 X9.10205 Y26.90791
G01 X9.06545 Y26.84131
G01 X9.05237 Y26.80961
G01 X9.03108 Y26.73669
G01 X9.02199 Y26.64400
G01 X9.02199 Y26.02894
G01 X9.02615 Y26.02711
G01 X9.01914 Y26.02709
G01 X8.94968 Y25.97189
G01 X8.90317 Y25.91881
G01 X8.86707 Y25.85818
G01 X8.85219 Y25.82477
G01 X8.83126 Y25.75736
G01 X8.82201 Y25.66902
G01 X8.82201 Y24.91901
G01 X8.83126 Y24.83064
G01 X8.85872 Y24.74616
G01 X8.90317 Y24.66923
G01 X8.96263 Y24.60319
G01 X9.01914 Y24.56095
G01 X9.05077 Y24.54266
G01 X9.11566 Y24.51482
G01 X9.20233 Y24.49638
G01 X9.74652 Y24.49404
G01 X9.80949 Y24.49922
G01 X9.86062 Y24.51010
G01 X9.89542 Y24.52140
G01 X9.95948 Y24.55096
G01 X10.01711 Y24.59166
G01 X10.04431 Y24.61614
G01 X10.09080 Y24.66923
G01 X10.12691 Y24.72983
G01 X10.15958 Y24.81904
G01 X10.15328 Y24.82805
G01 X10.15958 Y24.81904
G01 X10.65955 Y24.81904
G01 X10.66042 Y24.82163
G01 X10.66666 Y24.81114
G01 X10.69384 Y24.78668
G01 X10.76781 Y24.73765
G01 X10.83265 Y24.70984
G01 X10.91942 Y24.69138
G01 X11.74929 Y24.69064
G01 X11.84533 Y24.70984
G01 X11.92648 Y24.74596
G01 X11.98411 Y24.78668
G01 X12.01131 Y24.81114
G01 X12.05780 Y24.86422
G01 X12.07324 Y24.88904
G01 X12.07100 Y24.89384
G01 X12.07324 Y24.88904
G01 X14.78880 Y24.88904
G01 X14.79147 Y24.89437
G01 X14.78880 Y24.88904
G01 X14.84021 Y24.81990
G01 X14.93861 Y24.73001
G01 X14.96821 Y24.70852
G01 X14.99160 Y24.69501
G01 X15.09155 Y24.69501
G01 X15.15870 Y24.67001
G01 X15.10445 Y24.68838
G01 X14.98223 Y24.75891
G01 X14.87737 Y24.85335
G01 X14.81426 Y24.93903
G01 X12.04439 Y24.93903
G01 X12.01736 Y24.89359
G01 X11.97415 Y24.84459
G01 X11.90149 Y24.78924
G01 X11.82986 Y24.75737
G01 X11.76610 Y24.74312
G01 X11.71378 Y24.73900
G01 X10.92468 Y24.74108
G01 X10.84810 Y24.75737
G01 X10.77649 Y24.78924
G01 X10.71307 Y24.83534
G01 X10.68180 Y24.86902
G01 X10.11741 Y24.86902
G01 X10.11040 Y24.82841
G01 X10.08363 Y24.75483
G01 X10.05036 Y24.69859
G01 X9.99791 Y24.64032
G01 X9.93448 Y24.59425
G01 X9.87507 Y24.56704
G01 X9.79910 Y24.54812
G01 X9.75353 Y24.54418
G01 X9.22054 Y24.54538
G01 X9.19486 Y24.54812
G01 X9.13111 Y24.56237
G01 X9.05948 Y24.59425
G01 X8.99606 Y24.64032
G01 X8.94360 Y24.69859
G01 X8.89971 Y24.77870
G01 X8.88018 Y24.84106
G01 X8.87195 Y24.91901
G01 X8.82201 Y24.91901
G01 X8.87195 Y24.91901
G01 X8.87266 Y25.68208
G01 X8.88018 Y25.74697
G01 X8.89971 Y25.80933
G01 X8.93649 Y25.87847
G01 X8.99606 Y25.94769
G01 X9.07198 Y26.00009
G01 X9.07198 Y26.64400
G01 X9.08015 Y26.72693
G01 X9.10952 Y26.81774
G01 X9.14358 Y26.88012
G01 X9.19646 Y26.94453
G01 X10.32163 Y28.06970
G01 X10.31020 Y28.09498
G01 X10.23575 Y28.32632
G01 X10.20967 Y28.59409
G01 X10.23575 Y28.83572
G01 X10.31020 Y29.06706
G01 X10.43580 Y29.29007
G01 X10.45117 Y29.31123
G01 X10.61431 Y29.49137
G01 X10.81050 Y29.63477
G01 X11.04322 Y29.74138
G01 X11.30593 Y29.79929
G01 X11.56204 Y29.79929
G01 X11.81253 Y29.74605
G01 X12.04649 Y29.64189
G01 X12.25368 Y29.49137
G01 X12.43217 Y29.29007
G01 X12.55307 Y29.07928
G01 X12.63428 Y28.82279
G01 X12.65899 Y28.58100
G01 X12.63428 Y28.33925
G01 X12.55777 Y28.09498
G01 X12.42503 Y27.86097
G01 X12.25368 Y27.67067
G01 X12.04649 Y27.52012
G01 X11.81253 Y27.41596
G01 X11.56204 Y27.36272
G01 X11.30593 Y27.36272
G01 X11.05544 Y27.41596
G01 X10.92658 Y27.47257
G01 X9.92199 Y26.46798
G01 X9.92199 Y26.00009
G01 X9.99791 Y25.94769
G01 X10.05036 Y25.88944
G01 X10.08958 Y25.82155
G01 X10.11040 Y25.75962
G01 X10.11741 Y25.71903
G01 X10.60525 Y25.71903
G01 X10.62140 Y25.76653
G01 X10.66059 Y25.83443
G01 X10.72323 Y25.90092
G01 X10.77649 Y25.93877
G01 X10.84810 Y25.97065
G01 X10.91188 Y25.98492
G01 X10.96420 Y25.98901
G01 X11.74035 Y25.98764
G01 X11.76610 Y25.98492
G01 X11.82986 Y25.97065
G01 X11.91246 Y25.93166
G01 X11.97415 Y25.88345
G01 X12.01736 Y25.83443
G01 X12.04436 Y25.78904
G01 X13.38398 Y25.78904
G01 X14.09224 Y26.35431
G01 X14.12889 Y26.37458
G01 X14.14926 Y26.37984
G01 X15.70628 Y26.38002
G01 X15.74407 Y26.36750
G01 X15.76102 Y26.35688
G01 X16.26711 Y25.98002
G01 X16.40640 Y25.96732
G01 X16.43196 Y25.96188
G01 X16.55355 Y25.92165
G01 X16.66477 Y25.85823
G01 X16.78062 Y25.75668
G01 X16.86950 Y25.63085
G01 X16.92096 Y25.51360
G01 X16.95029 Y25.37558
G01 X16.95029 Y25.23445
G01 X16.91626 Y25.08421
G01 X16.86355 Y24.96752
G01 X16.77135 Y24.84411
G01 X16.66477 Y24.75180
G01 X16.55355 Y24.68838
G01 X16.49924 Y24.67001
G01 X16.55355 Y24.65165
G01 X16.66477 Y24.58823
G01 X16.72794 Y24.53504
G01 X18.24574 Y24.53504
G01 X18.28059 Y24.59442
G01 X18.34323 Y24.66092
G01 X18.39649 Y24.69877
G01 X18.45588 Y24.72597
G01 X18.53188 Y24.74492
G01 X18.58400 Y24.74901
G01 X19.33398 Y24.74901
G01 X19.38610 Y24.74492
G01 X19.44986 Y24.73067
G01 X19.53246 Y24.69166
G01 X19.58491 Y24.65269
G01 X19.62913 Y24.60461
G01 X19.67658 Y24.52653
G01 X19.70078 Y24.45198
G01 X19.70899 Y24.37400
G01 X19.70830 Y23.86095
G01 X19.69741 Y23.78340
G01 X19.67658 Y23.72148
G01 X19.64450 Y23.66456
G01 X19.58491 Y23.59534
G01 X19.52149 Y23.54926
G01 X19.44986 Y23.51736
G01 X19.36035 Y23.50037
G01 X18.57744 Y23.49918
G01 X18.53188 Y23.50311
G01 X18.48075 Y23.51398
G01 X18.42791 Y23.53502
G01 X16.72797 Y23.53502
G01 X16.67575 Y23.48891
G01 X16.59236 Y23.44002
G01 X16.53711 Y23.42651
G01 X16.42215 Y23.40832
G01 X16.28791 Y23.40024
G01 X15.37006 Y23.40024
G01 X15.23582 Y23.40832
G01 X15.12083 Y23.42651
G01 X15.06559 Y23.44002
G01 X14.97008 Y23.44002
G01 X14.90712 Y23.46255
G01 X14.83054 Y23.46255
G01 X14.74872 Y23.45231
G01 X14.70201 Y23.43479
G01 X14.68350 Y23.41223
G01 X14.66732 Y23.38198
G01 X14.65736 Y23.34914
G01 X14.65401 Y23.31500
G01 X14.65401 Y22.93288
G01 X14.65688 Y22.93187
G01 X14.65401 Y22.93288
G01 X13.98495 Y22.10497
G01 X13.95320 Y22.04589
G01 X13.94019 Y22.01320
G01 X13.79793 Y21.50949
G01 X10.97118 Y18.68499
G01 X10.97276 Y18.68118
G01 X10.97118 Y18.68499
G01 X8.58757 Y18.68501
G01 X8.58483 Y18.67955
G01 X8.58757 Y18.68501
G01 X8.57762 Y18.70035
G01 X8.45242 Y18.87104
G01 X8.28153 Y19.02492
G01 X8.08239 Y19.13990
G01 X7.86370 Y19.21094
G01 X7.63500 Y19.23500
G01 X6.73500 Y19.23500
G01 X6.52438 Y19.21382
G01 X6.48859 Y19.20622
G01 X6.28758 Y19.13990
G01 X6.08844 Y19.02492
G01 X5.93048 Y18.88400
G01 X5.90602 Y18.85682
G01 X5.78232 Y18.68501
G01 X5.74747 Y18.60902
G01 X5.75255 Y18.60109
G01 X5.74747 Y18.60902
G01 X5.33122 Y18.60902
G01 X5.32896 Y18.60424
G01 X5.33122 Y18.60902
G01 X5.31580 Y18.63381
G01 X5.26932 Y18.68689
G01 X5.24211 Y18.71135
G01 X5.18448 Y18.75207
G01 X5.10330 Y18.78819
G01 X5.01656 Y18.80665
G01 X4.18669 Y18.80739
G01 X4.09066 Y18.78819
G01 X4.00950 Y18.75207
G01 X3.93762 Y18.69985
G01 X3.87816 Y18.63381
G01 X3.83376 Y18.55687
G01 X3.81103 Y18.49007
G01 X3.80343 Y18.45428
G01 X3.79701 Y18.38402
G01 X3.79701 Y17.88402
G01 X3.84699 Y17.88402
G01 X3.79701 Y17.88402
G01 X3.80630 Y17.79566
G01 X3.82718 Y17.72825
G01 X3.84207 Y17.69484
G01 X3.88969 Y17.61999
G01 X3.93762 Y17.56820
G01 X3.99414 Y17.52593
G01 X4.02581 Y17.50765
G01 X4.09066 Y17.47983
G01 X4.15946 Y17.46424
G01 X4.19556 Y17.46040
G01 X5.00726 Y17.46063
G01 X5.10330 Y17.47983
G01 X5.18448 Y17.51598
G01 X5.24211 Y17.55667
G01 X5.26932 Y17.58115
G01 X5.31580 Y17.63421
G01 X5.33122 Y17.65903
G01 X5.32896 Y17.66383
G01 X5.33122 Y17.65903
G01 X5.74836 Y17.65903
G01 X5.75306 Y17.66660
G01 X5.74836 Y17.65903
G01 X5.78232 Y17.58501
G01 X5.91755 Y17.39899
G01 X6.07419 Y17.25664
G01 X6.10381 Y17.23513
G01 X6.28758 Y17.13013
G01 X6.48859 Y17.06381
G01 X6.52438 Y17.05621
G01 X6.73500 Y17.03503
G01 X7.63500 Y17.03503
G01 X7.84559 Y17.05621
G01 X7.88138 Y17.06381
G01 X8.08239 Y17.13013
G01 X8.28153 Y17.24511
G01 X8.45242 Y17.39899
G01 X8.57762 Y17.56967
G01 X8.58757 Y17.58501
G01 X8.58483 Y17.59048
G01 X8.58757 Y17.58501
G01 X9.71000 Y17.58504
G01 X9.72463 Y17.59967
G01 X9.71000 Y17.58504
G01 X9.71000 Y15.23252
G01 X9.72057 Y15.12523
G01 X9.75186 Y15.02205
G01 X9.79384 Y14.94171
G01 X9.81292 Y14.91319
G01 X9.87109 Y14.84364
G01 X11.57177 Y13.14294
G01 X11.57560 Y13.14451
G01 X11.57177 Y13.14294
G01 X11.57002 Y13.11695
G01 X11.57096 Y12.45978
G01 X11.57941 Y12.38856
G01 X11.60067 Y12.32005
G01 X11.61553 Y12.28663
G01 X11.65223 Y12.22501
G01 X11.71246 Y12.15813
G01 X11.78528 Y12.10522
G01 X11.86750 Y12.06862
G01 X11.96468 Y12.04916
G01 X13.39859 Y12.04776
G01 X13.45254 Y12.05277
G01 X13.50478 Y12.06387
G01 X13.58838 Y12.09689
G01 X13.62005 Y12.11520
G01 X13.67750 Y12.15813
G01 X13.73775 Y12.22501
G01 X13.78274 Y12.30296
G01 X13.80582 Y12.37085
G01 X13.81342 Y12.40664
G01 X13.81997 Y12.47807
G01 X13.81901 Y13.13524
G01 X13.81055 Y13.20646
G01 X13.78931 Y13.27496
G01 X13.77443 Y13.30839
G01 X13.72622 Y13.38426
G01 X13.67750 Y13.43692
G01 X13.60471 Y13.48982
G01 X13.52246 Y13.52642
G01 X13.43460 Y13.54512
G01 X12.72292 Y13.54735
G01 X12.72137 Y13.54362
G01 X12.72292 Y13.54735
G01 X10.80995 Y15.46033
G01 X10.80614 Y15.45876
G01 X10.80995 Y15.46033
G01 X10.80995 Y17.58504
G01 X10.79552 Y17.59931
G01 X10.80995 Y17.58504
G01 X11.19900 Y17.58504
G01 X11.27139 Y17.59020
G01 X11.35572 Y17.60823
G01 X11.43618 Y17.63922
G01 X11.53306 Y17.69858
G01 X11.58787 Y17.74613
G01 X14.96389 Y21.12397
G01 X15.83460 Y21.41285
G01 X15.87580 Y21.43055
G01 X16.78618 Y21.96740
G01 X16.82040 Y21.99379
G01 X16.87140 Y22.04592
G01 X16.89594 Y22.05336
G01 X16.92619 Y22.06951
G01 X16.95271 Y22.09128
G01 X16.97447 Y22.11780
G01 X16.99065 Y22.14805
G01 X17.00061 Y22.18087
G01 X17.00396 Y22.21500
G01 X17.00396 Y23.31500
G01 X17.00061 Y23.34914
G01 X16.99065 Y23.38198
G01 X16.97447 Y23.41223
G01 X16.95596 Y23.43479
G01 X16.90922 Y23.45231
G01 X16.82741 Y23.46255
G01 X16.75083 Y23.46255
G01 X16.68786 Y23.44002
G01 X16.59236 Y23.44002
G01 X16.85337 Y23.43761
G01 X16.87681 Y23.43049
G01 X16.91738 Y23.40339
G01 X16.93292 Y23.38447
G01 X16.95159 Y23.33941
G01 X16.95398 Y22.21500
G01 X16.94448 Y22.16717
G01 X16.91738 Y22.12664
G01 X16.87681 Y22.09953
G01 X16.84410 Y22.09151
G01 X16.78519 Y22.02928
G01 X16.76076 Y22.01043
G01 X15.85505 Y21.47602
G01 X15.81880 Y21.46027
G01 X14.93757 Y21.16652
G01 X11.55254 Y17.78146
G01 X11.50060 Y17.73658
G01 X11.41706 Y17.68540
G01 X11.34406 Y17.65682
G01 X11.26745 Y17.64001
G01 X11.19900 Y17.63500
G01 X10.75998 Y17.63500
G01 X10.75998 Y15.43963
G01 X12.70219 Y13.49742
G01 X13.42932 Y13.49541
G01 X13.50702 Y13.47888
G01 X13.57971 Y13.44652
G01 X13.64408 Y13.39975
G01 X13.68909 Y13.35081
G01 X13.73115 Y13.28340
G01 X13.74177 Y13.25952
G01 X13.76168 Y13.19607
G01 X13.76930 Y13.13003
G01 X13.76999 Y12.47807
G01 X13.76371 Y12.41187
G01 X13.73709 Y12.32328
G01 X13.68909 Y12.24421
G01 X13.64408 Y12.19526
G01 X13.59069 Y12.15561
G01 X13.50702 Y12.11614
G01 X13.44212 Y12.10164
G01 X13.38944 Y12.09752
G01 X11.99399 Y12.09767
G01 X11.94784 Y12.10164
G01 X11.88294 Y12.11614
G01 X11.81027 Y12.14850
G01 X11.75607 Y12.18703
G01 X11.73664 Y12.20451
G01 X11.68553 Y12.26537
G01 X11.65290 Y12.32328
G01 X11.62625 Y12.41187
G01 X11.61998 Y12.47807
G01 X11.61998 Y13.11695
G01 X11.62396 Y13.16143
G01 X9.90642 Y14.87897
G01 X9.85155 Y14.94489
G01 X9.79389 Y15.05274
G01 X9.76959 Y15.13498
G01 X9.75996 Y15.23252
G01 X9.75996 Y17.63500
G01 X8.55620 Y17.63500
G01 X8.53718 Y17.59904
G01 X8.41528 Y17.43244
G01 X8.25217 Y17.28555
G01 X8.06205 Y17.17580
G01 X7.85328 Y17.10795
G01 X7.63500 Y17.08502
G01 X6.73500 Y17.08502
G01 X6.52959 Y17.10592
G01 X6.30792 Y17.17580
G01 X6.11780 Y17.28555
G01 X5.94646 Y17.44260
G01 X5.82565 Y17.61001
G01 X5.78082 Y17.70902
G01 X5.30239 Y17.70902
G01 X5.27536 Y17.66360
G01 X5.23213 Y17.61458
G01 X5.17046 Y17.56637
G01 X5.08783 Y17.52736
G01 X5.00467 Y17.51054
G01 X4.19563 Y17.51039
G01 X4.10610 Y17.52736
G01 X4.03450 Y17.55926
G01 X3.97107 Y17.60533
G01 X3.91860 Y17.66360
G01 X3.87940 Y17.73150
G01 X3.85517 Y17.80605
G01 X3.84699 Y17.88402
G01 X3.84699 Y18.38402
G01 X3.85858 Y18.47462
G01 X3.87940 Y18.53655
G01 X3.91148 Y18.59347
G01 X3.96180 Y18.65344
G01 X3.98123 Y18.67092
G01 X4.03450 Y18.70876
G01 X4.10610 Y18.74066
G01 X4.16988 Y18.75491
G01 X4.21545 Y18.75885
G01 X5.01130 Y18.75695
G01 X5.08783 Y18.74066
G01 X5.17046 Y18.70165
G01 X5.23213 Y18.65344
G01 X5.27536 Y18.60444
G01 X5.30239 Y18.55903
G01 X5.77996 Y18.55903
G01 X5.82565 Y18.66002
G01 X5.94646 Y18.82743
G01 X6.11780 Y18.98448
G01 X6.32009 Y19.09893
G01 X6.51669 Y19.16208
G01 X6.73500 Y19.18501
G01 X7.63500 Y19.18501
G01 X7.86593 Y19.15867
G01 X8.06205 Y19.09423
G01 X8.25217 Y18.98448
G01 X8.41528 Y18.83759
G01 X8.53718 Y18.67099
G01 X8.55620 Y18.63503
G01 X10.99189 Y18.63503
G01 X13.84100 Y21.48417
G01 X13.98825 Y21.99946
G01 X14.02673 Y22.07759
G01 X14.70399 Y22.91518
G01 X14.70399 Y23.31500
G01 X14.70638 Y23.33941
G01 X14.72505 Y23.38447
G01 X14.75954 Y23.41894
G01 X14.80460 Y23.43761
G01 X15.06559 Y23.44002
G01 X14.98223 Y23.48891
G01 X14.93000 Y23.53502
G01 X13.32008 Y23.53502
G01 X13.14553 Y23.36047
G01 X13.06976 Y23.29829
G01 X12.97176 Y23.24794
G01 X12.87738 Y23.22183
G01 X12.79198 Y23.21401
G01 X11.99166 Y23.21401
G01 X11.95475 Y23.17710
G01 X11.88983 Y23.13331
G01 X11.82986 Y23.10736
G01 X11.74667 Y23.09057
G01 X10.93763 Y23.09039
G01 X10.91188 Y23.09311
G01 X10.84810 Y23.10736
G01 X10.77649 Y23.13926
G01 X10.71307 Y23.18533
G01 X10.66885 Y23.23342
G01 X10.62734 Y23.29984
G01 X10.61673 Y23.32371
G01 X10.59717 Y23.38604
G01 X10.58899 Y23.46402
G01 X10.58899 Y23.96402
G01 X10.60057 Y24.05462
G01 X10.62734 Y24.12821
G01 X10.66059 Y24.18444
G01 X10.70380 Y24.23344
G01 X10.77649 Y24.28876
G01 X10.84810 Y24.32066
G01 X10.93786 Y24.33766
G01 X11.75317 Y24.33697
G01 X11.82986 Y24.32066
G01 X11.90149 Y24.28876
G01 X11.96491 Y24.24268
G01 X11.99166 Y24.21403
G01 X12.58487 Y24.21403
G01 X12.75942 Y24.38858
G01 X12.83519 Y24.45076
G01 X12.93318 Y24.50110
G01 X13.00354 Y24.52244
G01 X13.10072 Y24.53443
G01 X14.93003 Y24.53504
G01 X14.99320 Y24.58823
G01 X15.10445 Y24.65165
G01 X15.15870 Y24.67001
G01 X16.49924 Y24.67001
G01 X16.56637 Y24.64505
G01 X16.66632 Y24.64505
G01 X16.70511 Y24.62153
G01 X16.74628 Y24.58249
G01 X18.21666 Y24.58500
G01 X18.21923 Y24.57982
G01 X18.21666 Y24.58500
G01 X18.24018 Y24.62381
G01 X18.28666 Y24.67687
G01 X18.31384 Y24.70136
G01 X18.37150 Y24.74205
G01 X18.43556 Y24.77164
G01 X18.47036 Y24.78294
G01 X18.52149 Y24.79379
G01 X18.58400 Y24.79900
G01 X19.33398 Y24.79900
G01 X19.39649 Y24.79379
G01 X19.44762 Y24.78294
G01 X19.48242 Y24.77164
G01 X19.54648 Y24.74205
G01 X19.61836 Y24.68983
G01 X19.67780 Y24.62381
G01 X19.71392 Y24.56318
G01 X19.72880 Y24.52978
G01 X19.74968 Y24.46237
G01 X19.75898 Y24.37400
G01 X19.75898 Y23.87400
G01 X19.74968 Y23.78566
G01 X19.72880 Y23.71825
G01 X19.71392 Y23.68485
G01 X19.67780 Y23.62422
G01 X19.63131 Y23.57113
G01 X19.60411 Y23.54667
G01 X19.54648 Y23.50596
G01 X19.46533 Y23.46984
G01 X19.39649 Y23.45422
G01 X19.36042 Y23.45041
G01 X18.58430 Y23.44904
G01 X18.52149 Y23.45422
G01 X18.47036 Y23.46509
G01 X18.41692 Y23.48533
G01 X16.96426 Y23.48505
G01 X16.91844 Y23.50202
G01 X16.83208 Y23.51233
G01 X16.74590 Y23.51411
G01 X16.67483 Y23.48833
G04 P0 ( dwell for no time -- G64 should not smooth over this point )
G00 Z2.00000 ( retract )

G00 X20.22837 Y19.09995 ( rapid move to begin. )
G01 F12.50000
( Mill infeed pass 1/1 )
G01 Z-0.10000
G04 P0 ( dwell for no time -- G64 should not smooth over this point )
G01 F25.00000
G01 X20.22837 Y19.09995
G01 X20.28115 Y19.11295
G01 X20.37292 Y19.14671
G01 X20.39585 Y19.17361
G01 X20.42674 Y19.22517
G01 X20.44160 Y19.25860
G01 X20.45928 Y19.31605
G01 X20.46746 Y19.39400
G01 X20.46652 Y19.81232
G01 X20.45453 Y19.88966
G01 X20.43505 Y19.94653
G01 X20.40584 Y19.99906
G01 X20.38432 Y20.02865
G01 X20.34340 Y20.07267
G01 X20.29535 Y20.10878
G01 X20.22547 Y20.14406
G01 X20.19067 Y20.15537
G01 X20.11374 Y20.16789
G01 X19.63937 Y20.16886
G01 X19.63779 Y20.16510
G01 X19.63937 Y20.16886
G01 X19.43396 Y20.37426
G01 X19.43015 Y20.37269
G01 X19.43396 Y20.37426
G01 X19.43396 Y21.81218
G01 X19.42522 Y21.81815
G01 X19.43396 Y21.81218
G01 X19.46533 Y21.81983
G01 X19.53015 Y21.84764
G01 X19.56185 Y21.86596
G01 X19.61836 Y21.90820
G01 X19.66627 Y21.95999
G01 X19.68778 Y21.98958
G01 X19.72222 Y22.05115
G01 X19.74493 Y22.11797
G01 X19.75255 Y22.15374
G01 X19.75898 Y22.22402
G01 X19.75898 Y22.72402
G01 X19.74968 Y22.81236
G01 X19.72222 Y22.89687
G01 X19.67780 Y22.97380
G01 X19.61836 Y23.03984
G01 X19.54648 Y23.09206
G01 X19.48242 Y23.12163
G01 X19.44762 Y23.13293
G01 X19.36042 Y23.14761
G01 X18.54869 Y23.14739
G01 X18.45265 Y23.12818
G01 X18.38781 Y23.10037
G01 X18.35613 Y23.08208
G01 X18.29962 Y23.03984
G01 X18.25169 Y22.98805
G01 X18.23020 Y22.95846
G01 X18.19576 Y22.89687
G01 X18.16830 Y22.81236
G01 X18.15997 Y22.74231
G01 X18.15900 Y22.22402
G01 X18.20899 Y22.22402
G01 X18.15900 Y22.22402
G01 X18.16830 Y22.13565
G01 X18.19576 Y22.05115
G01 X18.23020 Y21.98958
G01 X18.25169 Y21.95999
G01 X18.29962 Y21.90820
G01 X18.37150 Y21.85597
G01 X18.45265 Y21.81983
G01 X18.48397 Y21.81218
G01 X18.49271 Y21.81815
G01 X18.48397 Y21.81218
G01 X18.48484 Y20.03337
G01 X18.49312 Y19.95786
G01 X18.51435 Y19.88493
G01 X18.52748 Y19.85323
G01 X18.56403 Y19.78664
G01 X18.62014 Y19.72090
G01 X18.61846 Y19.37571
G01 X18.62570 Y19.31605
G01 X18.64336 Y19.25860
G01 X18.65824 Y19.22517
G01 X18.68913 Y19.17361
G01 X18.71206 Y19.14668
G01 X18.76317 Y19.12616
G01 X18.85664 Y19.09995
G01 X18.89205 Y19.08491
G01 X18.95844 Y19.07079
G01 X20.09238 Y19.06901
G01 X20.18978 Y19.08394
G01 X20.25499 Y19.11255
G01 X20.31920 Y19.16175
G01 X20.35542 Y19.20299
G01 X20.38346 Y19.25016
G01 X20.40701 Y19.31381
G01 X20.41750 Y19.39400
G01 X20.41681 Y19.80708
G01 X20.40701 Y19.87422
G01 X20.38938 Y19.92621
G01 X20.36256 Y19.97406
G01 X20.30995 Y20.03553
G01 X20.25499 Y20.07546
G01 X20.19291 Y20.10309
G01 X20.12659 Y20.11722
G01 X19.61861 Y20.11892
G01 X19.38397 Y20.35334
G01 X19.38397 Y21.85288
G01 X19.44986 Y21.86738
G01 X19.50983 Y21.89331
G01 X19.58491 Y21.94533
G01 X19.63736 Y22.00360
G01 X19.67063 Y22.05983
G01 X19.70078 Y22.14604
G01 X19.70899 Y22.22402
G01 X19.70830 Y22.73707
G01 X19.69741 Y22.81462
G01 X19.67658 Y22.87655
G01 X19.64450 Y22.93347
G01 X19.58491 Y23.00268
G01 X19.52149 Y23.04878
G01 X19.44986 Y23.08066
G01 X19.37330 Y23.09694
G01 X18.57744 Y23.09885
G01 X18.53188 Y23.09491
G01 X18.48075 Y23.08404
G01 X18.40815 Y23.05470
G01 X18.33307 Y23.00268
G01 X18.28059 Y22.94444
G01 X18.24140 Y22.87655
G01 X18.21717 Y22.80197
G01 X18.20899 Y22.72402
G01 X18.20899 Y22.22402
G01 X18.21514 Y22.15897
G01 X18.22057 Y22.13342
G01 X18.24734 Y22.05983
G01 X18.28059 Y22.00360
G01 X18.33307 Y21.94533
G01 X18.40815 Y21.89331
G01 X18.46810 Y21.86738
G01 X18.53396 Y21.85288
G01 X18.53396 Y20.05052
G01 X18.54033 Y19.97975
G01 X18.56218 Y19.89944
G01 X18.59929 Y19.82494
G01 X18.66807 Y19.74132
G01 X18.66749 Y19.39423
G01 X18.67460 Y19.32644
G01 X18.69091 Y19.27404
G01 X18.72956 Y19.20299
G01 X18.76576 Y19.16175
G01 X18.81902 Y19.11968
G01 X18.85664 Y19.09995
G04 P0 ( dwell for no time -- G64 should not smooth over this point )
G00 Z2.00000 ( retract )

G00 X14.71601 Y17.95100 ( rapid move to begin. )
G01 F12.50000
( Mill infeed pass 1/1 )
G01 Z-0.10000
G04 P0 ( dwell for no time -- G64 should not smooth over this point )
G01 F25.00000
G01 X14.71601 Y17.95100
G01 X14.57499 Y17.95100
G01 X14.52716 Y17.96053
G01 X14.48660 Y17.98763
G01 X14.47105 Y18.00658
G01 X14.45949 Y18.02817
G01 X14.44999 Y18.07602
G01 X14.40001 Y18.07602
G01 X14.44999 Y18.07602
G01 X14.44999 Y19.17602
G01 X14.45238 Y19.20040
G01 X14.47105 Y19.24546
G01 X14.50554 Y19.27996
G01 X14.55060 Y19.29860
G01 X14.78840 Y19.30101
G01 X16.22345 Y19.82509
G01 X16.25378 Y19.82689
G01 X16.29787 Y19.81856
G01 X18.28961 Y19.05103
G01 X20.59484 Y19.05103
G01 X20.61757 Y19.08491
G01 X20.65829 Y19.12911
G01 X20.71750 Y19.17213
G01 X20.78745 Y19.20284
G01 X20.89263 Y19.21902
G01 X21.97914 Y19.21709
G01 X22.05064 Y19.20188
G01 X22.11749 Y19.17213
G01 X22.17667 Y19.12911
G01 X22.22935 Y19.06904
G01 X23.54144 Y19.06904
G01 X23.56793 Y19.10086
G01 X23.73278 Y19.24562
G01 X23.91193 Y19.34823
G01 X24.12069 Y19.41608
G01 X24.33898 Y19.43901
G01 X25.23900 Y19.43901
G01 X25.46994 Y19.41267
G01 X25.66605 Y19.34823
G01 X25.85617 Y19.23848
G01 X26.01929 Y19.09159
G01 X26.14118 Y18.92499
G01 X26.15426 Y18.90236
G01 X26.24098 Y18.70084
G01 X26.28324 Y18.49878
G01 X26.28324 Y18.27925
G01 X26.23760 Y18.06454
G01 X26.15426 Y17.87567
G01 X26.14118 Y17.85304
G01 X26.01004 Y17.67717
G01 X25.85617 Y17.53955
G01 X25.66605 Y17.42980
G01 X25.45729 Y17.36195
G01 X25.28899 Y17.34359
G01 X25.28899 Y16.89444
G01 X25.45729 Y16.87608
G01 X25.66605 Y16.80823
G01 X25.85617 Y16.69848
G01 X26.01929 Y16.55159
G01 X26.14832 Y16.37402
G01 X26.23760 Y16.17349
G01 X26.28324 Y15.95878
G01 X26.28393 Y15.75233
G01 X26.24098 Y15.53719
G01 X26.23290 Y15.51232
G01 X26.14832 Y15.32401
G01 X26.01929 Y15.14644
G01 X25.84520 Y14.99241
G01 X25.66605 Y14.88980
G01 X25.45729 Y14.82195
G01 X25.23900 Y14.79902
G01 X24.33898 Y14.79902
G01 X24.12069 Y14.82195
G01 X23.91193 Y14.88980
G01 X23.72181 Y14.99955
G01 X23.55869 Y15.14644
G01 X23.42966 Y15.32401
G01 X23.34038 Y15.52454
G01 X23.29473 Y15.73925
G01 X23.29473 Y15.95878
G01 X23.34507 Y16.18570
G01 X23.42966 Y16.37402
G01 X23.55046 Y16.54143
G01 X23.72181 Y16.69848
G01 X23.92412 Y16.81293
G01 X24.12069 Y16.87608
G01 X24.28896 Y16.89444
G01 X24.28896 Y17.34359
G01 X24.12069 Y17.36195
G01 X23.92412 Y17.42510
G01 X23.73278 Y17.53241
G01 X23.71165 Y17.54778
G01 X23.55869 Y17.68644
G01 X23.42966 Y17.86401
G01 X23.34038 Y18.06454
G01 X23.30685 Y18.21902
G01 X22.22938 Y18.21902
G01 X22.17667 Y18.15890
G01 X22.11749 Y18.11590
G01 X22.04752 Y18.08517
G01 X21.94233 Y18.06901
G01 X20.85582 Y18.07094
G01 X20.78432 Y18.08613
G01 X20.71750 Y18.11590
G01 X20.65829 Y18.15890
G01 X20.61945 Y18.20102
G01 X20.19636 Y18.20102
G01 X20.09235 Y18.21001
G01 X18.97145 Y18.20947
G01 X18.88580 Y18.20071
G01 X18.83000 Y18.17546
G01 X18.77503 Y18.13553
G01 X18.72243 Y18.07407
G01 X18.69558 Y18.02621
G01 X18.67798 Y17.97422
G01 X18.66817 Y17.90709
G01 X18.66749 Y17.49401
G01 X18.61750 Y17.49401
G01 X18.66749 Y17.49401
G01 X18.67798 Y17.41379
G01 X18.69558 Y17.36182
G01 X18.72243 Y17.31395
G01 X18.77503 Y17.25250
G01 X18.83000 Y17.21255
G01 X18.89517 Y17.18395
G01 X18.99261 Y17.16901
G01 X20.12651 Y17.17079
G01 X20.19291 Y17.18491
G01 X20.24333 Y17.20661
G01 X20.30995 Y17.25250
G01 X20.35542 Y17.30297
G01 X20.38346 Y17.35017
G01 X20.40701 Y17.41379
G01 X20.41244 Y17.43937
G01 X20.41750 Y17.49401
G01 X20.41750 Y17.89401
G01 X20.41038 Y17.96160
G01 X20.38938 Y18.02621
G01 X20.35542 Y18.08504
G01 X20.30995 Y18.13553
G01 X20.24333 Y18.18141
G01 X20.19918 Y18.20061
G01 X20.09235 Y18.21001
G01 X18.97145 Y18.20947
G01 X18.88580 Y18.20071
G01 X18.83000 Y18.17546
G01 X18.79858 Y18.15349
G01 X18.74214 Y18.13320
G01 X18.68364 Y18.10597
G01 X18.64994 Y18.04653
G01 X18.63045 Y17.98966
G01 X18.62283 Y17.95387
G01 X18.61750 Y17.89401
G01 X18.61750 Y17.49401
G01 X18.62570 Y17.41605
G01 X18.64994 Y17.34150
G01 X18.68913 Y17.27361
G01 X18.74158 Y17.21534
G01 X18.80500 Y17.16927
G01 X18.88100 Y17.13602
G01 X18.99266 Y17.11903
G01 X20.13177 Y17.12108
G01 X20.20835 Y17.13739
G01 X20.26365 Y17.16096
G01 X20.29535 Y17.17925
G01 X20.35636 Y17.22830
G01 X20.39585 Y17.27361
G01 X20.43505 Y17.34150
G01 X20.45928 Y17.41605
G01 X20.46652 Y17.47572
G01 X20.46746 Y17.89401
G01 X20.45928 Y17.97198
G01 X20.44160 Y18.02944
G01 X20.40134 Y18.10597
G01 X20.34282 Y18.13320
G01 X20.28641 Y18.15349
G01 X20.25499 Y18.17546
G01 X20.19636 Y18.20102
G01 X20.30185 Y18.20102
G01 X20.36256 Y18.17912
G01 X20.42296 Y18.15103
G01 X20.59720 Y18.15103
G01 X20.59824 Y18.15397
G01 X20.59720 Y18.15103
G01 X20.62484 Y18.12177
G01 X20.67713 Y18.08260
G01 X20.70881 Y18.06431
G01 X20.76888 Y18.03861
G01 X20.83258 Y18.02408
G01 X20.86878 Y18.02027
G01 X21.94228 Y18.01902
G01 X22.06171 Y18.03726
G01 X22.12615 Y18.06431
G01 X22.15783 Y18.08260
G01 X22.21013 Y18.12177
G01 X22.25399 Y18.16904
G01 X22.25295 Y18.17196
G01 X22.25399 Y18.16904
G01 X23.26636 Y18.16904
G01 X23.27522 Y18.18006
G01 X23.26636 Y18.16904
G01 X23.29285 Y18.04910
G01 X23.38637 Y17.83901
G01 X23.52155 Y17.65299
G01 X23.67820 Y17.51064
G01 X23.70779 Y17.48913
G01 X23.87527 Y17.39246
G01 X23.90867 Y17.37757
G01 X24.11030 Y17.31308
G01 X24.23900 Y17.29858
G01 X24.25170 Y17.30993
G01 X24.23900 Y17.29858
G01 X24.23900 Y16.93945
G01 X24.25170 Y16.92809
G01 X24.23900 Y16.93945
G01 X24.11030 Y16.92494
G01 X23.90867 Y16.86045
G01 X23.87527 Y16.84557
G01 X23.69244 Y16.73892
G01 X23.53448 Y16.59800
G01 X23.51002 Y16.57082
G01 X23.38637 Y16.39901
G01 X23.29940 Y16.20602
G01 X23.28810 Y16.17123
G01 X23.24502 Y15.96399
G01 X23.24502 Y15.73404
G01 X23.29285 Y15.50910
G01 X23.38637 Y15.29901
G01 X23.52155 Y15.11299
G01 X23.69244 Y14.95911
G01 X23.89158 Y14.84413
G01 X24.11030 Y14.77308
G01 X24.33898 Y14.74903
G01 X25.23900 Y14.74903
G01 X25.44959 Y14.77021
G01 X25.48538 Y14.77781
G01 X25.66930 Y14.83757
G01 X25.70270 Y14.85246
G01 X25.88553 Y14.95911
G01 X26.05642 Y15.11299
G01 X26.19160 Y15.29901
G01 X26.27857 Y15.49200
G01 X26.28987 Y15.52680
G01 X26.33008 Y15.71596
G01 X26.33389 Y15.75233
G01 X26.33295 Y15.96399
G01 X26.28512 Y16.18893
G01 X26.19160 Y16.39901
G01 X26.05642 Y16.58504
G01 X25.88553 Y16.73892
G01 X25.68640 Y16.85390
G01 X25.46768 Y16.92494
G01 X25.33895 Y16.93945
G01 X25.32625 Y16.92809
G01 X25.33895 Y16.93945
G01 X25.33895 Y17.29858
G01 X25.32625 Y17.30993
G01 X25.33895 Y17.29858
G01 X25.46768 Y17.31308
G01 X25.68640 Y17.38413
G01 X25.88553 Y17.49911
G01 X26.04347 Y17.64003
G01 X26.06795 Y17.66721
G01 X26.18162 Y17.82367
G01 X26.19991 Y17.85535
G01 X26.28512 Y18.04910
G01 X26.33295 Y18.27404
G01 X26.33295 Y18.50399
G01 X26.28512 Y18.72893
G01 X26.19160 Y18.93901
G01 X26.06795 Y19.11082
G01 X26.04347 Y19.13800
G01 X25.89978 Y19.26738
G01 X25.87019 Y19.28890
G01 X25.68640 Y19.39390
G01 X25.46768 Y19.46494
G01 X25.23900 Y19.48900
G01 X24.33898 Y19.48900
G01 X24.11030 Y19.46494
G01 X23.89158 Y19.39390
G01 X23.70779 Y19.28890
G01 X23.67820 Y19.26738
G01 X23.53448 Y19.13800
G01 X23.51665 Y19.11902
G01 X23.51795 Y19.11564
G01 X23.51665 Y19.11902
G01 X22.25397 Y19.11902
G01 X22.25280 Y19.11587
G01 X22.25397 Y19.11902
G01 X22.21013 Y19.16627
G01 X22.14249 Y19.21542
G01 X22.06608 Y19.24943
G01 X21.98440 Y19.26680
G01 X20.89268 Y19.26898
G01 X20.77327 Y19.25077
G01 X20.69250 Y19.21542
G01 X20.62484 Y19.16627
G01 X20.58041 Y19.11834
G01 X20.56687 Y19.10101
G01 X20.56817 Y19.09764
G01 X20.56687 Y19.10101
G01 X20.39316 Y19.10101
G01 X20.29598 Y19.06523
G01 X20.23855 Y19.05103
G01 X18.84638 Y19.05103
G01 X18.78887 Y19.06525
G01 X18.69179 Y19.10101
G01 X18.30102 Y19.10015
G01 X16.31583 Y19.86520
G01 X16.28547 Y19.87383
G01 X16.25411 Y19.87686
G01 X16.21486 Y19.87432
G01 X16.18469 Y19.86621
G01 X14.77966 Y19.35029
G01 X14.57499 Y19.35100
G01 X14.54085 Y19.34762
G01 X14.50803 Y19.33767
G01 X14.47778 Y19.32151
G01 X14.45126 Y19.29974
G01 X14.42950 Y19.27323
G01 X14.41332 Y19.24297
G01 X14.40336 Y19.21016
G01 X14.40001 Y19.17602
G01 X14.40001 Y18.07602
G01 X14.40336 Y18.04188
G01 X14.41332 Y18.00904
G01 X14.42950 Y17.97879
G01 X14.44799 Y17.95629
G01 X14.49475 Y17.93874
G01 X14.57654 Y17.92852
G01 X14.65314 Y17.92852
G01 X14.71601 Y17.95100
G01 X14.81149 Y17.95100
G01 X14.86681 Y17.96454
G01 X14.98182 Y17.98275
G01 X15.11608 Y17.99081
G01 X16.02500 Y17.99103
G01 X16.16818 Y17.98275
G01 X16.28314 Y17.96454
G01 X16.33833 Y17.95105
G01 X16.43394 Y17.95100
G01 X16.57498 Y17.90104
G01 X16.60912 Y17.90439
G01 X16.64194 Y17.91435
G01 X16.67219 Y17.93053
G01 X16.69871 Y17.95227
G01 X16.72047 Y17.97879
G01 X16.73665 Y18.00904
G01 X16.74661 Y18.04188
G01 X16.74996 Y18.07602
G01 X16.74996 Y18.15103
G01 X16.73630 Y18.16515
G01 X16.74996 Y18.15103
G01 X18.66200 Y18.15103
G01 X18.72357 Y18.17960
G01 X18.78308 Y18.20102
G01 X18.88773 Y18.20102
G01 X16.69998 Y18.20102
G01 X16.69759 Y18.05164
G01 X16.67892 Y18.00658
G01 X16.64443 Y17.97209
G01 X16.62281 Y17.96053
G01 X16.57498 Y17.95100
G01 X16.33833 Y17.95105
G01 X16.42075 Y17.90274
G01 X16.55045 Y17.85438
G01 X16.57529 Y17.82687
G01 X16.65283 Y17.71849
G01 X16.70793 Y17.59713
G01 X16.71923 Y17.56236
G01 X16.74313 Y17.44989
G01 X16.74697 Y17.41351
G01 X16.74600 Y17.28024
G01 X16.71923 Y17.14968
G01 X16.70793 Y17.11489
G01 X16.65283 Y16.99352
G01 X16.58286 Y16.89558
G01 X16.46211 Y16.84534
G01 X16.42175 Y16.80993
G01 X16.36625 Y16.77714
G01 X16.43221 Y16.79464
G01 X16.50300 Y16.80102
G01 X17.13452 Y16.80102
G01 X17.17521 Y16.84107
G01 X17.19487 Y16.85283
G01 X17.27887 Y16.87770
G01 X17.31148 Y16.88202
G01 X18.26899 Y16.88202
G01 X18.30419 Y16.87694
G01 X18.39393 Y16.84811
G01 X18.50787 Y16.75941
G01 X18.66604 Y16.67679
G01 X18.83800 Y16.62759
G01 X18.93998 Y16.61852
G01 X20.14498 Y16.61854
G01 X20.24696 Y16.62759
G01 X20.41892 Y16.67679
G01 X20.57673 Y16.75924
G01 X20.71475 Y16.87176
G01 X20.82725 Y17.00976
G01 X20.90970 Y17.16759
G01 X20.96459 Y17.35479
G01 X21.01038 Y17.42954
G01 X21.04282 Y17.46401
G01 X21.12669 Y17.50549
G01 X21.14355 Y17.51189
G01 X21.17917 Y17.51715
G01 X21.98661 Y17.51852
G01 X22.11902 Y17.53157
G01 X22.28874 Y17.58303
G01 X22.40759 Y17.64552
G01 X22.49572 Y17.66759
G01 X22.78089 Y17.66726
G01 X22.88564 Y17.63584
G01 X22.92059 Y17.61011
G01 X22.97055 Y17.55644
G01 X23.00535 Y17.49792
G01 X23.13306 Y17.33147
G01 X23.18114 Y17.28161
G01 X23.23362 Y17.18344
G01 X23.23923 Y17.13648
G01 X23.23105 Y17.04623
G01 X23.21475 Y17.00810
G01 X23.17840 Y16.95288
G01 X23.13306 Y16.90656
G01 X23.00535 Y16.74011
G01 X22.90045 Y16.55842
G01 X22.82018 Y16.36460
G01 X22.76588 Y16.16193
G01 X22.73847 Y15.95393
G01 X22.73847 Y15.74412
G01 X22.76588 Y15.53612
G01 X22.82018 Y15.33346
G01 X22.90045 Y15.13963
G01 X23.00535 Y14.95794
G01 X23.13306 Y14.79147
G01 X23.28142 Y14.64311
G01 X23.44787 Y14.51540
G01 X23.62958 Y14.41052
G01 X23.82341 Y14.33023
G01 X24.02607 Y14.27593
G01 X24.23407 Y14.24852
G01 X25.34388 Y14.24852
G01 X25.55188 Y14.27593
G01 X25.75454 Y14.33023
G01 X25.94837 Y14.41050
G01 X26.13006 Y14.51540
G01 X26.29653 Y14.64311
G01 X26.44489 Y14.79147
G01 X26.57260 Y14.95794
G01 X26.67750 Y15.13963
G01 X26.75777 Y15.33346
G01 X26.81207 Y15.53612
G01 X26.83948 Y15.74412
G01 X26.83948 Y15.95393
G01 X26.81207 Y16.16193
G01 X26.75777 Y16.36460
G01 X26.67748 Y16.55842
G01 X26.57260 Y16.74013
G01 X26.44489 Y16.90656
G01 X26.40852 Y16.94293
G01 X26.38716 Y16.97145
G01 X26.34433 Y17.05464
G01 X26.33872 Y17.10158
G01 X26.34690 Y17.19180
G01 X26.36320 Y17.22990
G01 X26.39955 Y17.28514
G01 X26.44489 Y17.33150
G01 X26.57260 Y17.49794
G01 X26.67750 Y17.67963
G01 X26.75777 Y17.87346
G01 X26.81207 Y18.07612
G01 X26.83948 Y18.28412
G01 X26.83948 Y18.49393
G01 X26.81207 Y18.70193
G01 X26.75777 Y18.90460
G01 X26.67750 Y19.09842
G01 X26.57260 Y19.28011
G01 X26.44489 Y19.44658
G01 X26.29653 Y19.59494
G01 X26.13006 Y19.72265
G01 X25.94837 Y19.82756
G01 X25.82414 Y19.87902
G01 X23.75384 Y19.87902
G01 X23.62958 Y19.82753
G01 X23.44789 Y19.72265
G01 X23.36565 Y19.66113
G01 X23.26222 Y19.62209
G01 X22.61551 Y19.61953
G01 X22.58020 Y19.62461
G01 X22.51317 Y19.64429
G01 X22.47114 Y19.66596
G01 X22.39542 Y19.75275
G01 X22.37992 Y19.79314
G01 X22.36667 Y19.87935
G01 X22.47162 Y22.29369
G01 X20.32854 Y24.33473
G01 X20.30652 Y24.36270
G01 X20.26400 Y24.43862
G01 X20.25557 Y24.47187
G01 X20.24633 Y24.55467
G01 X20.19316 Y24.72991
G01 X20.10723 Y24.89069
G01 X19.99156 Y25.03163
G01 X19.85064 Y25.14728
G01 X19.68986 Y25.23321
G01 X19.51541 Y25.28614
G01 X19.37945 Y25.29953
G01 X18.53851 Y25.29953
G01 X18.40254 Y25.28614
G01 X18.22809 Y25.23321
G01 X18.06731 Y25.14728
G01 X18.03053 Y25.12363
G01 X17.96622 Y25.09630
G01 X17.93444 Y25.08754
G01 X17.73602 Y25.08675
G01 X17.62913 Y25.11909
G01 X17.59195 Y25.14835
G01 X17.54620 Y25.20115
G01 X17.52464 Y25.23656
G01 X17.50518 Y25.32117
G01 X17.50447 Y25.40146
G01 X17.47430 Y25.59198
G01 X17.41471 Y25.77545
G01 X17.32713 Y25.94733
G01 X17.21374 Y26.10336
G01 X17.07732 Y26.23979
G01 X16.92129 Y26.35317
G01 X16.74941 Y26.44075
G01 X16.56597 Y26.50034
G01 X16.52774 Y26.50732
G01 X16.44478 Y26.54245
G01 X16.10399 Y26.79688
G01 X16.04991 Y26.83346
G01 X15.90432 Y26.90095
G01 X15.84130 Y26.91888
G01 X15.67933 Y26.93712
G01 X14.17372 Y26.93712
G01 X14.09701 Y26.93280
G01 X13.94151 Y26.89716
G01 X13.86991 Y26.86777
G01 X13.73244 Y26.78111
G01 X13.24868 Y26.39409
G01 X13.21799 Y26.37603
G01 X13.13016 Y26.34255
G01 X12.36018 Y26.34080
G01 X12.26310 Y26.36872
G01 X12.04510 Y26.48797
G01 X11.96676 Y26.56640
G01 X11.94774 Y26.60976
G01 X11.93230 Y26.67791
G01 X11.93075 Y26.72518
G01 X11.93669 Y26.74817
G01 X11.96051 Y26.81383
G01 X11.98480 Y26.85444
G01 X12.07319 Y26.92299
G01 X12.17344 Y26.96183
G01 X12.39633 Y27.08357
G01 X12.59966 Y27.23577
G01 X12.77923 Y27.41535
G01 X12.93143 Y27.61867
G01 X13.05317 Y27.84156
G01 X13.14189 Y28.07951
G01 X13.19589 Y28.32772
G01 X13.21403 Y28.58103
G01 X13.19589 Y28.83434
G01 X13.14189 Y29.08253
G01 X13.05317 Y29.32050
G01 X12.93143 Y29.54339
G01 X12.77923 Y29.74671
G01 X12.59966 Y29.92629
G01 X12.39633 Y30.07849
G01 X12.17342 Y30.20020
G01 X11.93547 Y30.28898
G01 X11.68729 Y30.34295
G01 X11.43397 Y30.36106
G01 X11.18066 Y30.34295
G01 X10.93248 Y30.28898
G01 X10.69450 Y30.20020
G01 X10.47162 Y30.07849
G01 X10.26829 Y29.92629
G01 X10.08871 Y29.74671
G01 X9.93652 Y29.54339
G01 X9.81480 Y29.32050
G01 X9.72603 Y29.08250
G01 X9.67205 Y28.83434
G01 X9.65394 Y28.58103
G01 X9.67256 Y28.30287
G01 X9.65516 Y28.21695
G01 X9.64274 Y28.18362
G01 X9.60025 Y28.12688
G01 X8.75290 Y27.27951
G01 X8.66260 Y27.15530
G01 X8.59288 Y27.01850
G01 X8.54551 Y26.87245
G01 X8.52864 Y26.77420
G01 X8.49227 Y26.69445
G01 X8.46426 Y26.65627
G01 X8.36865 Y26.59592
G01 X8.33078 Y26.58652
G01 X8.28541 Y26.58258
G01 X8.14244 Y26.59452
G01 X7.55151 Y26.59452
G01 X7.41549 Y26.58114
G01 X7.24109 Y26.52823
G01 X7.08029 Y26.44227
G01 X6.93937 Y26.32663
G01 X6.82372 Y26.18568
G01 X6.73779 Y26.02490
G01 X6.68486 Y25.85045
G01 X6.67145 Y25.71449
G01 X6.67018 Y25.58345
G01 X6.63754 Y25.47626
G01 X6.59850 Y25.42516
G01 X6.44089 Y25.26752
G01 X6.35067 Y25.14329
G01 X6.28095 Y25.00649
G01 X6.23350 Y24.86044
G01 X6.20947 Y24.70880
G01 X6.20947 Y22.52450
G01 X6.20437 Y22.48930
G01 X6.18468 Y22.42227
G01 X6.17589 Y22.40019
G01 X6.14661 Y22.36301
G01 X6.09383 Y22.31726
G01 X6.05842 Y22.29570
G01 X5.97381 Y22.27624
G01 X5.77198 Y22.27553
G01 X5.65870 Y22.26275
G01 X5.51501 Y22.21249
G01 X5.38611 Y22.13151
G01 X5.27844 Y22.02387
G01 X5.19751 Y21.89499
G01 X5.14722 Y21.75130
G01 X5.13447 Y21.63797
G01 X5.13447 Y20.37066
G01 X5.17046 Y20.35166
G01 X5.22291 Y20.31270
G01 X5.27536 Y20.25443
G01 X5.31458 Y20.18653
G01 X5.33879 Y20.11198
G01 X5.34699 Y20.03401
G01 X5.34699 Y19.53401
G01 X5.33879 Y19.45605
G01 X5.31458 Y19.38148
G01 X5.27536 Y19.31359
G01 X5.21275 Y19.24709
G01 X5.15949 Y19.20924
G01 X5.10008 Y19.18207
G01 X5.01118 Y19.16106
G01 X4.18278 Y19.16106
G01 X4.10610 Y19.17737
G01 X4.04615 Y19.20332
G01 X3.98123 Y19.24709
G01 X3.95639 Y19.27061
G01 X3.86609 Y19.24323
G01 X3.70531 Y19.15727
G01 X3.56437 Y19.04163
G01 X3.44872 Y18.90068
G01 X3.36279 Y18.73990
G01 X3.30986 Y18.56545
G01 X3.29647 Y18.42949
G01 X3.29647 Y17.83856
G01 X3.34638 Y17.84102
G01 X3.29647 Y17.83856
G01 X3.30986 Y17.70259
G01 X3.36279 Y17.52814
G01 X3.44872 Y17.36736
G01 X3.56437 Y17.22642
G01 X3.70531 Y17.11077
G01 X3.86609 Y17.02484
G01 X4.04054 Y16.97191
G01 X4.17651 Y16.95852
G01 X5.01745 Y16.95852
G01 X5.15337 Y16.97191
G01 X5.23823 Y16.99632
G01 X5.32588 Y16.99838
G01 X5.37236 Y16.98982
G01 X5.45273 Y16.94189
G01 X5.48727 Y16.90955
G01 X5.49934 Y16.88908
G01 X5.52893 Y16.82578
G01 X5.54049 Y16.77991
G01 X5.52690 Y16.67049
G01 X5.51382 Y16.63973
G01 X5.49068 Y16.60249
G01 X5.40135 Y16.48611
G01 X5.29644 Y16.30442
G01 X5.21615 Y16.11060
G01 X5.16187 Y15.90793
G01 X5.13447 Y15.69993
G01 X5.13447 Y15.49012
G01 X5.16187 Y15.28212
G01 X5.21615 Y15.07946
G01 X5.29644 Y14.88563
G01 X5.40135 Y14.70394
G01 X5.52906 Y14.53747
G01 X5.67742 Y14.38911
G01 X5.84381 Y14.26140
G01 X6.02555 Y14.15652
G01 X6.21938 Y14.07623
G01 X6.37124 Y14.03554
G01 X6.51669 Y14.08208
G01 X6.72192 Y14.10433
G01 X7.64805 Y14.10433
G01 X7.85328 Y14.08208
G01 X8.04985 Y14.01893
G01 X8.25217 Y13.90448
G01 X8.41528 Y13.75759
G01 X8.53718 Y13.59099
G01 X8.63357 Y13.37949
G01 X8.67988 Y13.15170
G01 X8.67924 Y12.94525
G01 X8.64051 Y12.75990
G01 X10.75447 Y10.64594
G01 X10.87870 Y10.55572
G01 X10.95404 Y10.51589
G01 X11.01866 Y10.45661
G01 X11.04627 Y10.41820
G01 X11.07426 Y10.30718
G01 X11.06948 Y10.23794
G01 X11.06948 Y9.72971
G01 X11.06440 Y9.69450
G01 X11.04472 Y9.62747
G01 X11.03555 Y9.60477
G01 X10.99653 Y9.55366
G01 X10.43591 Y8.99301
G01 X10.34566 Y8.86880
G01 X10.27594 Y8.73200
G01 X10.22851 Y8.58595
G01 X10.20449 Y8.43428
G01 X10.20449 Y7.19227
G01 X10.19941 Y7.15707
G01 X10.17286 Y7.07198
G01 X10.15130 Y7.04010
G01 X10.10469 Y6.99294
G01 X10.01427 Y6.92530
G01 X9.83471 Y6.74572
G01 X9.68252 Y6.54239
G01 X9.56080 Y6.31948
G01 X9.47203 Y6.08151
G01 X9.41805 Y5.83335
G01 X9.39994 Y5.58003
G01 X9.41805 Y5.32672
G01 X9.47203 Y5.07854
G01 X9.56080 Y4.84059
G01 X9.68252 Y4.61768
G01 X9.83471 Y4.41433
G01 X10.01429 Y4.23477
G01 X10.21762 Y4.08255
G01 X10.44050 Y3.96086
G01 X10.67848 Y3.87211
G01 X10.92666 Y3.81811
G01 X11.17997 Y3.79998
G01 X11.43329 Y3.81811
G01 X11.68147 Y3.87211
G01 X11.91944 Y3.96086
G01 X12.14233 Y4.08255
G01 X12.34566 Y4.23475
G01 X12.52523 Y4.41433
G01 X12.67743 Y4.61765
G01 X12.79917 Y4.84056
G01 X12.88789 Y5.07851
G01 X12.94189 Y5.32672
G01 X12.96003 Y5.58003
G01 X12.94189 Y5.83335
G01 X12.88792 Y6.08153
G01 X12.79917 Y6.31948
G01 X12.67743 Y6.54239
G01 X12.52523 Y6.74572
G01 X12.34563 Y6.92530
G01 X12.24179 Y7.00462
G01 X12.18823 Y7.07404
G01 X12.17017 Y7.10805
G01 X12.15546 Y7.19227
G01 X12.15546 Y7.85031
G01 X12.16054 Y7.88554
G01 X12.18939 Y7.97528
G01 X12.22841 Y8.02639
G01 X12.75112 Y8.54909
G01 X12.77959 Y8.57043
G01 X12.84090 Y8.60390
G01 X12.86343 Y8.61348
G01 X12.92719 Y8.62204
G01 X13.43516 Y8.62204
G01 X13.57194 Y8.63550
G01 X13.64713 Y8.65697
G01 X13.73478 Y8.65905
G01 X13.77890 Y8.65143
G01 X13.86618 Y8.60134
G01 X14.64855 Y7.82039
G01 X14.66988 Y7.79189
G01 X14.70336 Y7.73055
G01 X14.71675 Y7.69235
G01 X14.72139 Y7.43302
G01 X14.73450 Y7.30000
G01 X14.78599 Y7.13025
G01 X14.86960 Y6.97383
G01 X14.98215 Y6.83670
G01 X15.11926 Y6.72415
G01 X15.27570 Y6.64054
G01 X15.44545 Y6.58905
G01 X15.57775 Y6.57602
G01 X16.11618 Y6.57602
G01 X16.24852 Y6.58905
G01 X16.41824 Y6.64054
G01 X16.57468 Y6.72415
G01 X16.65357 Y6.78725
G01 X16.73376 Y6.82268
G01 X16.78001 Y6.83261
G01 X16.87257 Y6.81905
G01 X16.90440 Y6.80909
G01 X16.95494 Y6.77696
G01 X17.01926 Y6.72415
G01 X17.17569 Y6.64054
G01 X17.34544 Y6.58905
G01 X17.47775 Y6.57602
G01 X18.01618 Y6.57602
G01 X18.14851 Y6.58905
G01 X18.31824 Y6.64054
G01 X18.47468 Y6.72415
G01 X18.61181 Y6.83670
G01 X18.72433 Y6.97381
G01 X18.80795 Y7.13025
G01 X18.85943 Y7.30000
G01 X18.87246 Y7.43228
G01 X18.87246 Y8.57078
G01 X18.85943 Y8.70307
G01 X18.80795 Y8.87279
G01 X18.72433 Y9.02925
G01 X18.61181 Y9.16636
G01 X18.47468 Y9.27888
G01 X18.31895 Y9.36212
G01 X18.12454 Y9.41848
G01 X18.02664 Y9.45973
G01 X17.99248 Y9.49250
G01 X17.95212 Y9.54955
G01 X17.93531 Y9.58300
G01 X17.93086 Y9.60124
G01 X17.92248 Y9.66192
G01 X17.92248 Y10.44574
G01 X17.90945 Y10.57807
G01 X17.85796 Y10.74779
G01 X17.79550 Y10.86664
G01 X17.77341 Y10.95475
G01 X17.77247 Y11.43778
G01 X17.74844 Y11.58945
G01 X17.70102 Y11.73550
G01 X17.63129 Y11.87230
G01 X17.54105 Y11.99651
G01 X17.39972 Y12.13964
G01 X17.34844 Y12.23423
G01 X17.34133 Y12.27342
G01 X17.33858 Y12.41429
G01 X17.32507 Y12.55147
G01 X17.27216 Y12.72592
G01 X17.21052 Y12.84395
G01 X17.19142 Y12.92947
G01 X17.18971 Y12.97016
G01 X17.20810 Y13.03869
G01 X17.27216 Y13.16414
G01 X17.32507 Y13.33859
G01 X17.33846 Y13.47456
G01 X17.33846 Y14.06549
G01 X17.32507 Y14.20146
G01 X17.27216 Y14.37590
G01 X17.18623 Y14.53668
G01 X17.07056 Y14.67763
G01 X16.92964 Y14.79328
G01 X16.76886 Y14.87923
G01 X16.59441 Y14.93211
G01 X16.45845 Y14.94552
G01 X15.71225 Y14.94552
G01 X15.67702 Y14.95060
G01 X15.60999 Y14.97029
G01 X15.58728 Y14.97946
G01 X15.53617 Y15.01847
G01 X15.14362 Y15.41100
G01 X14.98464 Y15.42576
G01 X14.85045 Y15.46937
G01 X14.72823 Y15.53993
G01 X14.63262 Y15.62510
G01 X14.54042 Y15.74852
G01 X14.48301 Y15.87742
G01 X14.45368 Y16.01545
G01 X14.45368 Y16.15657
G01 X14.48771 Y16.30681
G01 X14.54042 Y16.42352
G01 X14.61512 Y16.52751
G01 X14.72823 Y16.63211
G01 X14.85045 Y16.70264
G01 X14.90465 Y16.72103
G01 X14.83760 Y16.69604
G01 X14.73765 Y16.69604
G01 X14.68461 Y16.66101
G01 X14.58621 Y16.57112
G01 X14.49714 Y16.44849
G01 X14.43549 Y16.31004
G01 X14.40397 Y16.16180
G01 X14.40397 Y16.01024
G01 X14.43549 Y15.86198
G01 X14.49714 Y15.72352
G01 X14.57471 Y15.61514
G01 X14.59917 Y15.58797
G01 X14.69886 Y15.49950
G01 X14.83011 Y15.42370
G01 X14.97425 Y15.37687
G01 X15.10669 Y15.36198
G01 X15.12279 Y15.36114
G01 X15.12411 Y15.36389
G01 X15.12279 Y15.36114
G01 X15.50082 Y14.98311
G01 X15.56411 Y14.93516
G01 X15.59589 Y14.92233
G01 X15.66292 Y14.90265
G01 X15.71225 Y14.89556
G01 X16.45598 Y14.89556
G01 X16.58461 Y14.88286
G01 X16.74966 Y14.83282
G01 X16.90173 Y14.75152
G01 X17.03505 Y14.64212
G01 X17.14448 Y14.50880
G01 X17.22576 Y14.35670
G01 X17.27582 Y14.19165
G01 X17.28849 Y14.06303
G01 X17.28849 Y13.47702
G01 X17.27582 Y13.34840
G01 X17.22576 Y13.18335
G01 X17.16607 Y13.06971
G01 X17.14590 Y13.00428
G01 X17.13897 Y12.94766
G01 X17.15672 Y12.85089
G01 X17.17371 Y12.80412
G01 X17.22576 Y12.70672
G01 X17.27610 Y12.54172
G01 X17.28865 Y12.41134
G01 X17.29137 Y12.27245
G01 X17.30132 Y12.21756
G01 X17.35969 Y12.10969
G01 X17.50292 Y11.96394
G01 X17.58857 Y11.84611
G01 X17.65469 Y11.71629
G01 X17.69970 Y11.57774
G01 X17.72250 Y11.43385
G01 X17.72380 Y10.94863
G01 X17.74887 Y10.84866
G01 X17.81156 Y10.72859
G01 X17.86055 Y10.56834
G01 X17.87252 Y10.44330
G01 X17.87252 Y9.66192
G01 X17.88781 Y9.56753
G01 X17.91133 Y9.52069
G01 X17.95169 Y9.46364
G01 X17.97338 Y9.43842
G01 X17.99949 Y9.41777
G01 X18.11062 Y9.37048
G01 X18.30000 Y9.31559
G01 X18.44679 Y9.23713
G01 X18.57630 Y9.13085
G01 X18.68255 Y9.00134
G01 X18.76154 Y8.85356
G01 X18.81018 Y8.69326
G01 X18.82250 Y8.56832
G01 X18.82250 Y7.43474
G01 X18.81018 Y7.30980
G01 X18.76154 Y7.14948
G01 X18.68257 Y7.00170
G01 X18.57630 Y6.87221
G01 X18.44679 Y6.76591
G01 X18.29903 Y6.68694
G01 X18.13871 Y6.63833
G01 X18.01374 Y6.62598
G01 X17.48019 Y6.62598
G01 X17.35517 Y6.63784
G01 X17.19482 Y6.68671
G01 X17.04709 Y6.76581
G01 X16.98664 Y6.81557
G01 X16.92555 Y6.85435
G01 X16.88100 Y6.86832
G01 X16.77897 Y6.88257
G01 X16.74595 Y6.87871
G01 X16.71423 Y6.86870
G01 X16.62769 Y6.83002
G01 X16.54679 Y6.76591
G01 X16.39904 Y6.68694
G01 X16.23871 Y6.63833
G01 X16.11375 Y6.62598
G01 X15.58019 Y6.62598
G01 X15.45517 Y6.63784
G01 X15.29482 Y6.68671
G01 X15.14702 Y6.76571
G01 X15.01751 Y6.87203
G01 X14.91116 Y7.00160
G01 X14.83216 Y7.14937
G01 X14.78339 Y7.30975
G01 X14.77135 Y7.43576
G01 X14.76597 Y7.70101
G01 X14.74725 Y7.75450
G01 X14.71377 Y7.81584
G01 X14.68390 Y7.85575
G01 X13.89676 Y8.64086
G01 X13.79607 Y8.69834
G01 X13.76569 Y8.70647
G01 X13.73432 Y8.70901
G01 X13.63958 Y8.70637
G01 X13.56216 Y8.68475
G01 X13.43270 Y8.67200
G01 X12.92719 Y8.67200
G01 X12.84850 Y8.66116
G01 X12.75564 Y8.61429
G01 X12.71576 Y8.58445
G01 X12.19305 Y8.06174
G01 X12.14510 Y7.99844
G01 X12.11258 Y7.89964
G01 X12.10550 Y7.85031
G01 X12.10550 Y7.19227
G01 X12.10827 Y7.16121
G01 X12.12295 Y7.09169
G01 X12.14822 Y7.04407
G01 X12.20646 Y6.96929
G01 X12.31281 Y6.88742
G01 X12.48736 Y6.71290
G01 X12.63527 Y6.51529
G01 X12.75358 Y6.29865
G01 X12.83984 Y6.06741
G01 X12.89229 Y5.82621
G01 X12.90992 Y5.58003
G01 X12.89229 Y5.33386
G01 X12.83984 Y5.09263
G01 X12.75358 Y4.86139
G01 X12.63527 Y4.64476
G01 X12.48736 Y4.44714
G01 X12.31284 Y4.27262
G01 X12.11523 Y4.12472
G01 X11.89864 Y4.00643
G01 X11.66735 Y3.92017
G01 X11.42615 Y3.86772
G01 X11.17997 Y3.85009
G01 X10.93377 Y3.86759
G01 X10.69257 Y3.92007
G01 X10.46125 Y4.00630
G01 X10.24464 Y4.12459
G01 X10.04701 Y4.27254
G01 X9.87248 Y4.44707
G01 X9.72453 Y4.64468
G01 X9.60639 Y4.86139
G01 X9.52001 Y5.09263
G01 X9.46750 Y5.33383
G01 X9.44990 Y5.58003
G01 X9.46750 Y5.82624
G01 X9.51998 Y6.06744
G01 X9.60627 Y6.29870
G01 X9.72458 Y6.51536
G01 X9.87243 Y6.71303
G01 X10.04708 Y6.88742
G01 X10.15788 Y6.97381
G01 X10.20471 Y7.02720
G01 X10.22768 Y7.07594
G01 X10.24736 Y7.14297
G01 X10.25445 Y7.19227
G01 X10.25432 Y8.43037
G01 X10.27710 Y8.57429
G01 X10.32211 Y8.71287
G01 X10.38825 Y8.84269
G01 X10.47390 Y8.96055
G01 X11.03189 Y9.51830
G01 X11.07985 Y9.58160
G01 X11.11236 Y9.68041
G01 X11.11944 Y9.72971
G01 X11.11944 Y10.23555
G01 X11.12412 Y10.31086
G01 X11.10268 Y10.40779
G01 X11.09163 Y10.43918
G01 X11.07487 Y10.46791
G01 X11.05297 Y10.49295
G01 X10.98284 Y10.55673
G01 X10.90489 Y10.59844
G01 X10.78686 Y10.68386
G01 X8.69507 Y12.77606
G01 X8.68854 Y12.77410
G01 X8.69507 Y12.77606
G01 X8.72605 Y12.92196
G01 X8.72989 Y12.95833
G01 X8.72895 Y13.16999
G01 X8.69197 Y13.34852
G01 X8.66083 Y13.40166
G01 X8.55760 Y13.55182
G01 X8.53718 Y13.59099
G01 X8.42351 Y13.74743
G01 X8.25217 Y13.90448
G01 X8.13721 Y13.97161
G01 X8.04897 Y14.03714
G01 X7.92872 Y14.11083
G01 X7.84559 Y14.13382
G01 X7.65323 Y14.15403
G01 X6.71666 Y14.15403
G01 X6.50630 Y14.13094
G01 X6.36992 Y14.08556
G01 X6.23546 Y14.12355
G01 X6.04765 Y14.20135
G01 X5.87158 Y14.30295
G01 X5.71034 Y14.42670
G01 X5.56665 Y14.57044
G01 X5.44290 Y14.73171
G01 X5.34122 Y14.90773
G01 X5.26350 Y15.09551
G01 X5.21087 Y15.29185
G01 X5.18435 Y15.49340
G01 X5.18435 Y15.69665
G01 X5.21087 Y15.89820
G01 X5.26350 Y16.09454
G01 X5.34120 Y16.28235
G01 X5.44300 Y16.45830
G01 X5.54191 Y16.58918
G01 X5.56733 Y16.63511
G01 X5.57508 Y16.65725
G01 X5.58910 Y16.74948
G01 X5.59037 Y16.78273
G01 X5.58537 Y16.81560
G01 X5.54458 Y16.91024
G01 X5.52771 Y16.93891
G01 X5.50569 Y16.96386
G01 X5.47937 Y16.98418
G01 X5.39058 Y17.03640
G01 X5.35860 Y17.04547
G01 X5.32540 Y17.04834
G01 X5.23066 Y17.04572
G01 X5.14361 Y17.02119
G01 X5.01499 Y17.00849
G01 X4.17897 Y17.00843
G01 X4.05029 Y17.02093
G01 X3.88522 Y17.07102
G01 X3.73307 Y17.15233
G01 X3.59972 Y17.26177
G01 X3.49028 Y17.39512
G01 X3.40897 Y17.54727
G01 X3.35888 Y17.71234
G01 X3.34638 Y17.84102
G01 X3.34638 Y18.42702
G01 X3.35888 Y18.55570
G01 X3.40897 Y18.72078
G01 X3.49028 Y18.87292
G01 X3.59972 Y19.00627
G01 X3.73307 Y19.11572
G01 X3.88522 Y19.19705
G01 X3.94257 Y19.21420
G01 X3.94313 Y19.21879
G01 X3.94257 Y19.21420
G01 X3.95184 Y19.20665
G01 X4.02581 Y19.15766
G01 X4.09066 Y19.12984
G01 X4.17757 Y19.11135
G01 X4.99810 Y19.11041
G01 X5.03449 Y19.11422
G01 X5.12042 Y19.13640
G01 X5.18448 Y19.16596
G01 X5.24211 Y19.20665
G01 X5.26932 Y19.23114
G01 X5.31580 Y19.28422
G01 X5.36022 Y19.36116
G01 X5.38768 Y19.44567
G01 X5.39698 Y19.53401
G01 X5.39698 Y20.03401
G01 X5.38768 Y20.12237
G01 X5.36022 Y20.20688
G01 X5.31580 Y20.28382
G01 X5.25634 Y20.34983
G01 X5.19985 Y20.39207
G01 X5.18446 Y20.40205
G01 X5.18014 Y20.40015
G01 X5.18446 Y20.40205
G01 X5.18435 Y21.63517
G01 X5.19596 Y21.74018
G01 X5.24255 Y21.87330
G01 X5.31758 Y21.99270
G01 X5.41730 Y22.09242
G01 X5.53668 Y22.16745
G01 X5.66980 Y22.21427
G01 X5.77485 Y22.22557
G01 X5.97917 Y22.22656
G01 X6.07699 Y22.24929
G01 X6.12654 Y22.27949
G01 X6.17935 Y22.32524
G01 X6.20228 Y22.34929
G01 X6.22029 Y22.37728
G01 X6.23261 Y22.40817
G01 X6.25232 Y22.47520
G01 X6.25941 Y22.52450
G01 X6.25926 Y24.70489
G01 X6.28209 Y24.84875
G01 X6.32713 Y24.98736
G01 X6.39327 Y25.11718
G01 X6.47892 Y25.23501
G01 X6.63386 Y25.38980
G01 X6.68179 Y25.45310
G01 X6.69469 Y25.48490
G01 X6.71966 Y25.57634
G01 X6.72143 Y25.71202
G01 X6.73375 Y25.84070
G01 X6.78394 Y26.00578
G01 X6.86527 Y26.15792
G01 X6.97472 Y26.29127
G01 X7.10805 Y26.40072
G01 X7.26022 Y26.48205
G01 X7.42529 Y26.53211
G01 X7.55397 Y26.54464
G01 X8.13997 Y26.54456
G01 X8.28973 Y26.53277
G01 X8.36210 Y26.54121
G01 X8.38808 Y26.54987
G01 X8.47177 Y26.59942
G01 X8.49822 Y26.61962
G01 X8.52039 Y26.64446
G01 X8.53743 Y26.67306
G01 X8.57640 Y26.75944
G01 X8.59425 Y26.86074
G01 X8.63898 Y26.99940
G01 X8.70523 Y27.12919
G01 X8.79090 Y27.24705
G01 X9.63560 Y28.09152
G01 X9.68661 Y28.15967
G01 X9.70400 Y28.20633
G01 X9.72242 Y28.29932
G01 X9.70393 Y28.58103
G01 X9.72153 Y28.82723
G01 X9.77398 Y29.06843
G01 X9.86027 Y29.29972
G01 X9.97855 Y29.51636
G01 X10.12648 Y29.71397
G01 X10.30101 Y29.88852
G01 X10.49864 Y30.03642
G01 X10.71528 Y30.15474
G01 X10.94657 Y30.24100
G01 X11.18777 Y30.29347
G01 X11.43397 Y30.31095
G01 X11.68018 Y30.29335
G01 X11.92135 Y30.24089
G01 X12.15262 Y30.15461
G01 X12.36923 Y30.03632
G01 X12.56684 Y29.88842
G01 X12.74136 Y29.71390
G01 X12.88929 Y29.51628
G01 X13.00758 Y29.29967
G01 X13.09384 Y29.06841
G01 X13.14629 Y28.82721
G01 X13.16392 Y28.58103
G01 X13.14629 Y28.33485
G01 X13.09384 Y28.09363
G01 X13.00758 Y27.86239
G01 X12.88929 Y27.64578
G01 X12.74136 Y27.44816
G01 X12.56684 Y27.27364
G01 X12.36923 Y27.12571
G01 X12.15262 Y27.00742
G01 X12.04903 Y26.96676
G01 X11.97192 Y26.91032
G01 X11.94751 Y26.88774
G01 X11.92780 Y26.86092
G01 X11.88973 Y26.76521
G01 X11.88139 Y26.73303
G01 X11.87931 Y26.69983
G01 X11.88355 Y26.66686
G01 X11.89900 Y26.59871
G01 X11.90941 Y26.56709
G01 X11.92562 Y26.53803
G01 X11.94703 Y26.51256
G01 X12.01535 Y26.44781
G01 X12.24400 Y26.32251
G01 X12.35310 Y26.29132
G01 X13.10611 Y26.29023
G01 X13.13984 Y26.29353
G01 X13.23694 Y26.32978
G01 X13.27989 Y26.35505
G01 X13.76143 Y26.74039
G01 X13.89269 Y26.82366
G01 X13.95670 Y26.84936
G01 X14.10397 Y26.88360
G01 X14.17514 Y26.88716
G01 X15.67653 Y26.88716
G01 X15.83173 Y26.87014
G01 X15.88687 Y26.85396
G01 X16.02545 Y26.79013
G01 X16.41987 Y26.49912
G01 X16.51397 Y26.45927
G01 X16.55426 Y26.45160
G01 X16.73023 Y26.39442
G01 X16.89510 Y26.31042
G01 X17.04478 Y26.20166
G01 X17.17562 Y26.07082
G01 X17.28438 Y25.92114
G01 X17.36838 Y25.75627
G01 X17.42555 Y25.58030
G01 X17.45451 Y25.39752
G01 X17.45550 Y25.31581
G01 X17.47823 Y25.21799
G01 X17.50843 Y25.16844
G01 X17.55418 Y25.11563
G01 X17.57826 Y25.09267
G01 X17.60625 Y25.07466
G01 X17.63714 Y25.06229
G01 X17.72903 Y25.03725
G01 X17.94130 Y25.03801
G01 X17.98578 Y25.05030
G01 X18.05009 Y25.07763
G01 X18.24719 Y25.18706
G01 X18.41229 Y25.23712
G01 X18.54097 Y25.24962
G01 X19.37698 Y25.24957
G01 X19.50561 Y25.23687
G01 X19.67066 Y25.18680
G01 X19.82275 Y25.10552
G01 X19.95605 Y24.99612
G01 X20.06548 Y24.86280
G01 X20.14714 Y24.71083
G01 X20.19715 Y24.54456
G01 X20.20589 Y24.46631
G01 X20.21770 Y24.41977
G01 X20.26324 Y24.33771
G01 X20.29405 Y24.29854
G01 X22.42069 Y22.27317
G01 X22.42526 Y22.27502
G01 X22.42069 Y22.27317
G01 X22.31673 Y19.88153
G01 X22.31978 Y19.84048
G01 X22.33923 Y19.75438
G01 X22.35254 Y19.72705
G01 X22.37040 Y19.70241
G01 X22.44022 Y19.62667
G01 X22.46822 Y19.60868
G01 X22.49908 Y19.59634
G01 X22.56611 Y19.57665
G01 X22.61554 Y19.56957
G01 X23.23938 Y19.57000
G01 X23.27139 Y19.57297
G01 X23.30230 Y19.58173
G01 X23.39011 Y19.61755
G01 X23.47571 Y19.68100
G01 X23.65165 Y19.78278
G01 X23.76359 Y19.82999
G01 X25.81454 Y19.83043
G01 X25.92622 Y19.78265
G01 X26.10224 Y19.68100
G01 X26.26351 Y19.55727
G01 X26.40722 Y19.41356
G01 X26.53095 Y19.25230
G01 X26.63260 Y19.07627
G01 X26.71035 Y18.88852
G01 X26.76295 Y18.69215
G01 X26.78952 Y18.49065
G01 X26.78952 Y18.28740
G01 X26.76295 Y18.08590
G01 X26.71035 Y17.88954
G01 X26.63260 Y17.70178
G01 X26.53095 Y17.52576
G01 X26.40725 Y17.36452
G01 X26.36061 Y17.31651
G01 X26.32114 Y17.25690
G01 X26.29831 Y17.20358
G01 X26.28886 Y17.10513
G01 X26.28965 Y17.07191
G01 X26.29671 Y17.03942
G01 X26.34326 Y16.94750
G01 X26.35680 Y16.92647
G01 X26.40725 Y16.87354
G01 X26.53095 Y16.71230
G01 X26.63257 Y16.53627
G01 X26.71035 Y16.34849
G01 X26.76295 Y16.15215
G01 X26.78952 Y15.95065
G01 X26.78952 Y15.74740
G01 X26.76295 Y15.54590
G01 X26.71035 Y15.34954
G01 X26.63260 Y15.16178
G01 X26.53095 Y14.98576
G01 X26.40722 Y14.82449
G01 X26.26351 Y14.68078
G01 X26.10224 Y14.55706
G01 X25.92622 Y14.45540
G01 X25.73847 Y14.37765
G01 X25.54210 Y14.32505
G01 X25.34060 Y14.29848
G01 X24.23735 Y14.29838
G01 X24.03583 Y14.32492
G01 X23.83946 Y14.37755
G01 X23.65168 Y14.45535
G01 X23.47563 Y14.55695
G01 X23.31439 Y14.68070
G01 X23.17065 Y14.82444
G01 X23.04690 Y14.98571
G01 X22.94528 Y15.16173
G01 X22.86750 Y15.34951
G01 X22.81487 Y15.54588
G01 X22.78833 Y15.74740
G01 X22.78833 Y15.95065
G01 X22.81487 Y16.15218
G01 X22.86750 Y16.34854
G01 X22.94528 Y16.53632
G01 X23.04690 Y16.71235
G01 X23.17070 Y16.87354
G01 X23.21731 Y16.92152
G01 X23.27042 Y17.00681
G01 X23.28411 Y17.06322
G01 X23.28831 Y17.16617
G01 X23.28122 Y17.19866
G01 X23.26814 Y17.22924
G01 X23.22117 Y17.31156
G01 X23.17073 Y17.36449
G01 X23.04701 Y17.52576
G01 X23.02201 Y17.56901
G01 X22.99712 Y17.60229
G01 X22.93387 Y17.66475
G01 X22.90784 Y17.68062
G01 X22.78800 Y17.71671
G01 X22.48963 Y17.71720
G01 X22.38960 Y17.69215
G01 X22.26951 Y17.62944
G01 X22.10921 Y17.58082
G01 X21.98409 Y17.56850
G01 X21.17909 Y17.56711
G01 X21.12923 Y17.55977
G01 X21.04223 Y17.52134
G01 X21.01353 Y17.50452
G01 X20.98854 Y17.48255
G01 X20.96817 Y17.45626
G01 X20.91897 Y17.37524
G01 X20.86304 Y17.18621
G01 X20.78552 Y17.03726
G01 X20.67940 Y16.90709
G01 X20.54925 Y16.80097
G01 X20.40027 Y16.72345
G01 X20.23787 Y16.67646
G01 X20.14274 Y16.66851
G01 X18.94219 Y16.66848
G01 X18.84709 Y16.67646
G01 X18.68458 Y16.72319
G01 X18.53528 Y16.80127
G01 X18.44574 Y16.87361
G01 X18.41709 Y16.89238
G01 X18.31829 Y16.92489
G01 X18.26899 Y16.93198
G01 X17.28844 Y16.93048
G01 X17.20330 Y16.90904
G01 X17.17326 Y16.89789
G01 X17.14575 Y16.88143
G01 X17.12169 Y16.86023
G01 X17.11390 Y16.84829
G01 X17.11296 Y16.85101
G01 X16.60546 Y16.85101
G01 X16.48215 Y16.79957
G01 X16.43221 Y16.79464
G01 X16.36625 Y16.77714
G01 X16.42175 Y16.80993
G01 X16.51735 Y16.89510
G01 X16.60955 Y17.01852
G01 X16.66696 Y17.14742
G01 X16.69698 Y17.29853
G01 X16.69629 Y17.42657
G01 X16.67034 Y17.55197
G01 X16.61550 Y17.68186
G01 X16.52662 Y17.80767
G01 X16.42075 Y17.90274
G01 X16.52662 Y17.80767
G01 X16.61550 Y17.68186
G01 X16.66696 Y17.56459
G01 X16.69424 Y17.43950
G01 X16.69629 Y17.28545
G01 X16.66226 Y17.13521
G01 X16.60955 Y17.01852
G01 X16.53485 Y16.91451
G01 X16.42175 Y16.80993
G01 X16.25286 Y16.71854
G01 X16.24519 Y16.72103
G01 X16.27831 Y16.73391
G01 X16.24519 Y16.72103
G01 X14.90465 Y16.72103
G01 X14.85045 Y16.73937
G01 X14.73920 Y16.80280
G01 X14.67600 Y16.85601
G01 X14.06719 Y16.85601
G01 X14.06719 Y15.70892
G01 X15.44943 Y14.32668
G01 X15.47549 Y14.34476
G01 X15.54710 Y14.37666
G01 X15.63031 Y14.39348
G01 X16.45230 Y14.39295
G01 X16.52886 Y14.37666
G01 X16.61146 Y14.33765
G01 X16.66391 Y14.29869
G01 X16.70813 Y14.25060
G01 X16.75558 Y14.17255
G01 X16.77978 Y14.09798
G01 X16.78799 Y14.02002
G01 X16.78730 Y13.50694
G01 X16.77978 Y13.44205
G01 X16.75558 Y13.36750
G01 X16.71636 Y13.29960
G01 X16.66391 Y13.24134
G01 X16.60049 Y13.19526
G01 X16.54107 Y13.16806
G01 X16.45217 Y13.14708
G01 X15.63686 Y13.14639
G01 X15.54710 Y13.16336
G01 X15.46452 Y13.20237
G01 X15.41207 Y13.24134
G01 X15.38530 Y13.27001
G01 X15.29899 Y13.27001
G01 X15.21357 Y13.27784
G01 X15.09655 Y13.31332
G01 X15.02119 Y13.35429
G01 X14.94542 Y13.41647
G01 X13.21362 Y15.14827
G01 X13.14515 Y15.23455
G01 X13.10524 Y15.31047
G01 X13.07679 Y15.40427
G01 X13.06717 Y15.50181
G01 X13.01721 Y15.50181
G01 X13.06717 Y15.50181
G01 X13.06778 Y17.36828
G01 X13.07679 Y17.45357
G01 X13.10110 Y17.53581
G01 X13.15876 Y17.64366
G01 X13.22272 Y17.71781
G01 X13.28939 Y17.77176
G01 X13.38739 Y17.82210
G01 X13.48177 Y17.84821
G01 X13.56719 Y17.85603
G01 X14.67603 Y17.85603
G01 X14.72823 Y17.90211
G01 X14.81149 Y17.95100
G01 X14.72924 Y17.90277
G01 X14.66257 Y17.87788
G01 X14.57184 Y17.87846
G01 X14.48273 Y17.89004
G01 X14.43971 Y17.90599
G01 X13.56719 Y17.90599
G01 X13.47687 Y17.89794
G01 X13.44321 Y17.89126
G01 X13.34118 Y17.85679
G01 X13.26163 Y17.81331
G01 X13.19102 Y17.75644
G01 X13.12013 Y17.67536
G01 X13.10105 Y17.64684
G01 X13.05906 Y17.56650
G01 X13.03194 Y17.47999
G01 X13.02526 Y17.44633
G01 X13.01721 Y17.35601
G01 X13.01721 Y15.50181
G01 X13.02777 Y15.39452
G01 X13.05906 Y15.29134
G01 X13.10105 Y15.21100
G01 X13.12013 Y15.18248
G01 X13.17829 Y15.11293
G01 X14.92282 Y13.36961
G01 X14.99343 Y13.31273
G01 X15.07298 Y13.26925
G01 X15.10468 Y13.25612
G01 X15.20867 Y13.22810
G01 X15.29899 Y13.22005
G01 X15.36376 Y13.22190
G01 X15.39284 Y13.19267
G01 X15.45050 Y13.15198
G01 X15.51456 Y13.12239
G01 X15.54936 Y13.11108
G01 X15.63686 Y13.09640
G01 X16.45741 Y13.09737
G01 X16.52662 Y13.11108
G01 X16.56142 Y13.12239
G01 X16.62548 Y13.15198
G01 X16.68311 Y13.19267
G01 X16.71031 Y13.21715
G01 X16.76678 Y13.28558
G01 X16.80122 Y13.34715
G01 X16.82868 Y13.43166
G01 X16.83798 Y13.52002
G01 X16.83798 Y14.02002
G01 X16.82868 Y14.10836
G01 X16.80780 Y14.17578
G01 X16.79292 Y14.20918
G01 X16.75680 Y14.26981
G01 X16.69736 Y14.33585
G01 X16.64085 Y14.37809
G01 X16.60915 Y14.39637
G01 X16.54433 Y14.42419
G01 X16.47549 Y14.43981
G01 X16.43942 Y14.44362
G01 X15.62769 Y14.44339
G01 X15.53165 Y14.42419
G01 X15.45596 Y14.39084
G01 X15.45401 Y14.38042
G01 X15.45596 Y14.39084
G01 X14.11715 Y15.72962
G01 X14.11334 Y15.72805
G01 X14.11715 Y15.72962
G01 X14.11715 Y16.80605
G01 X14.10252 Y16.82068
G01 X14.11715 Y16.80605
G01 X14.65766 Y16.80856
G01 X14.69886 Y16.76950
G01 X14.73760 Y16.74600
G01 X14.83757 Y16.74600
G04 P0 ( dwell for no time -- G64 should not smooth over this point )
G00 Z2.00000 ( retract )

G00 X17.12200 Y7.47650 ( rapid move to begin. )
G01 F12.50000
( Mill infeed pass 1/1 )
G01 Z-0.10000
G04 P0 ( dwell for no time -- G64 should not smooth over this point )
G01 F25.00000
G01 X17.12200 Y7.47650
G01 X17.13074 Y7.39334
G01 X17.15001 Y7.33093
G01 X17.16490 Y7.29751
G01 X17.19840 Y7.24140
G01 X17.25436 Y7.17927
G01 X17.30663 Y7.14010
G01 X17.38128 Y7.10266
G01 X17.41608 Y7.09136
G01 X17.49802 Y7.07777
G01 X17.99936 Y7.07869
G01 X18.09121 Y7.09474
G01 X18.17198 Y7.13012
G01 X18.23962 Y7.17927
G01 X18.28405 Y7.22717
G01 X18.32908 Y7.29751
G01 X18.34394 Y7.33093
G01 X18.36322 Y7.39334
G01 X18.37102 Y7.45821
G01 X18.37196 Y8.52651
G01 X18.36322 Y8.60967
G01 X18.33739 Y8.68920
G01 X18.29558 Y8.76161
G01 X18.25258 Y8.81081
G01 X18.22540 Y8.83527
G01 X18.17198 Y8.87292
G01 X18.11270 Y8.90035
G01 X18.07790 Y8.91165
G01 X18.01402 Y8.92428
G01 X17.52245 Y8.92648
G01 X17.40277 Y8.90827
G01 X17.33830 Y8.88122
G01 X17.30663 Y8.86293
G01 X17.25436 Y8.82377
G01 X17.20993 Y8.77584
G01 X17.16490 Y8.70553
G01 X17.15001 Y8.67210
G01 X17.13074 Y8.60967
G01 X17.12296 Y8.54480
G01 X17.12200 Y7.47650
G01 X17.17199 Y7.47650
G01 X17.17199 Y8.52651
G01 X17.18303 Y8.61193
G01 X17.20224 Y8.66888
G01 X17.23170 Y8.72125
G01 X17.28778 Y8.78661
G01 X17.33602 Y8.82250
G01 X17.40163 Y8.85470
G01 X17.43289 Y8.86395
G01 X17.52230 Y8.87652
G01 X18.02149 Y8.87256
G01 X18.08014 Y8.85938
G01 X18.13533 Y8.83555
G01 X18.20617 Y8.78661
G01 X18.25514 Y8.73223
G01 X18.28580 Y8.68054
G01 X18.31095 Y8.61193
G01 X18.31638 Y8.58635
G01 X18.32200 Y8.52651
G01 X18.32200 Y7.47650
G01 X18.31435 Y7.40375
G01 X18.29642 Y7.34638
G01 X18.25514 Y7.27079
G01 X18.20617 Y7.21640
G01 X18.15796 Y7.18054
G01 X18.09235 Y7.14833
G01 X18.06106 Y7.13906
G01 X17.97165 Y7.12651
G01 X17.47247 Y7.13048
G01 X17.41384 Y7.14363
G01 X17.34699 Y7.17340
G01 X17.28778 Y7.21640
G01 X17.24707 Y7.26063
G01 X17.23170 Y7.28176
G01 X17.19756 Y7.34638
G01 X17.17963 Y7.40375
G01 X17.17199 Y7.47650
G04 P0 ( dwell for no time -- G64 should not smooth over this point )
G00 Z2.00000 ( retract )

G00 X19.38054 Y6.18745 ( rapid move to begin. )
G01 F12.50000
( Mill infeed pass 1/1 )
G01 Z-0.10000
G04 P0 ( dwell for no time -- G64 should not smooth over this point )
G01 F25.00000
G01 X19.38054 Y6.18745
G01 X19.35908 Y6.16411
G01 X19.34808 Y6.13807
G01 X19.29164 Y5.89017
G01 X19.29159 Y5.46607
G01 X19.34790 Y5.21537
G01 X19.36164 Y5.19134
G01 X19.47704 Y5.06993
G01 X19.59202 Y5.00721
G01 X19.61163 Y5.00424
G01 X19.82141 Y5.00424
G01 X19.84104 Y5.00721
G01 X19.95585 Y5.06985
G01 X20.07140 Y5.19134
G01 X20.08509 Y5.21532
G01 X20.13949 Y5.45098
G01 X20.14145 Y5.47864
G01 X20.13711 Y5.44072
G01 X20.14145 Y5.47864
G01 X20.14145 Y5.87986
G01 X20.13711 Y5.91778
G01 X20.14145 Y5.87986
G01 X20.14145 Y5.89240
G01 X20.08288 Y6.14983
G01 X20.05257 Y6.18737
G01 X20.07988 Y6.15090
G01 X20.09232 Y6.11168
G01 X20.08305 Y6.14808
G01 X20.06954 Y6.16733
G01 X19.95920 Y6.28709
G01 X19.93985 Y6.29819
G01 X19.97081 Y6.27465
G01 X19.95725 Y6.28839
G01 X19.83599 Y6.35204
G01 X19.79281 Y6.35425
G01 X19.83213 Y6.35118
G01 X19.86134 Y6.33891
G01 X19.82408 Y6.35382
G01 X19.61163 Y6.35425
G01 X19.59202 Y6.35128
G01 X19.56240 Y6.33543
G01 X19.59464 Y6.34991
G01 X19.64026 Y6.35425
G01 X19.59426 Y6.35136
G01 X19.47025 Y6.28331
G01 X19.46451 Y6.27719
G01 X19.47673 Y6.28699
G01 X19.35524 Y6.15946
G01 X19.34701 Y6.13932
G01 X19.29598 Y5.91819
G01 X19.29151 Y5.88885
G01 X19.29200 Y5.46457
G01 X19.35133 Y5.21120
G01 X19.35976 Y5.19418
G01 X19.47742 Y5.07018
G01 X19.58836 Y5.00887
G01 X19.64026 Y5.00427
G01 X19.82054 Y5.00546
G01 X19.84467 Y5.00887
G01 X19.95585 Y5.06985
G01 X20.06980 Y5.19159
G01 X20.08247 Y5.21316
G01 X20.09266 Y5.24813
G04 P0 ( dwell for no time -- G64 should not smooth over this point )
G00 Z2.00000 ( retract )

G00 X19.84757 Y5.06726 ( rapid move to begin. )
G01 F12.50000
( Mill infeed pass 1/1 )
G01 Z-0.10000
G04 P0 ( dwell for no time -- G64 should not smooth over this point )
G01 F25.00000
G01 X19.84757 Y5.06726
G01 X19.81338 Y5.05596
G01 X19.79276 Y5.05425
G01 X19.61648 Y5.05532
G01 X19.58074 Y5.06934
G01 X19.50454 Y5.11250
G01 X19.41900 Y5.20269
G01 X19.39713 Y5.23150
G01 X19.38933 Y5.25850
G01 X19.39570 Y5.23884
G01 X19.41486 Y5.20803
G01 X19.39570 Y5.23884
G01 X19.38905 Y5.25936
G01 X19.34470 Y5.45156
G01 X19.34155 Y5.47874
G01 X19.34470 Y5.45156
G01 X19.34297 Y5.45956
G01 X19.34150 Y5.87866
G01 X19.34470 Y5.90693
G01 X19.34150 Y5.87866
G01 X19.34160 Y5.88583
G01 X19.39568 Y6.12276
G01 X19.41610 Y6.15207
G01 X19.39570 Y6.11968
G01 X19.38920 Y6.09959
G01 X19.40579 Y6.13876
G01 X19.41902 Y6.15583
G01 X19.50457 Y6.24597
G01 X19.48946 Y6.23210
G01 X19.52171 Y6.25720
G01 X19.58067 Y6.28915
G01 X19.60652 Y6.30129
G01 X19.63942 Y6.30419
G01 X19.61963 Y6.30254
G01 X19.58963 Y6.29309
G01 X19.61963 Y6.30254
G01 X19.64026 Y6.30427
G01 X19.81666 Y6.30317
G01 X19.83342 Y6.29746
G01 X19.79319 Y6.30421
G01 X19.83342 Y6.29746
G01 X19.85237 Y6.28915
G01 X19.92641 Y6.24826
G01 X19.94361 Y6.23208
G01 X19.91450 Y6.25512
G01 X19.94361 Y6.23208
G01 X20.01402 Y6.15580
G01 X20.03589 Y6.12705
G01 X20.04396 Y6.09913
G01 X20.03731 Y6.11966
G01 X20.01615 Y6.15306
G01 X20.03731 Y6.11966
G01 X20.04396 Y6.09913
G01 X20.08829 Y5.90714
G01 X20.09151 Y5.87881
G01 X20.08829 Y5.90714
G01 X20.09128 Y5.88895
G01 X20.09128 Y5.46954
G01 X20.08829 Y5.45136
G01 X20.09149 Y5.47910
G01 X20.08829 Y5.45136
G01 X20.03589 Y5.23145
G01 X20.01823 Y5.20813
G01 X20.03731 Y5.23884
G01 X20.04368 Y5.25850
G01 X20.02722 Y5.21974
G01 X20.01402 Y5.20269
G01 X19.92847 Y5.11250
G01 X19.85232 Y5.06934
G01 X19.81653 Y5.05532
G01 X19.64018 Y5.05425
G01 X19.61966 Y5.05596
G01 X19.58544 Y5.06726
G04 P0 ( dwell for no time -- G64 should not smooth over this point )
G00 Z2.00000 ( retract )

G00 X19.41420 Y3.64626 ( rapid move to begin. )
G01 F12.50000
( Mill infeed pass 1/1 )
G01 Z-0.10000
G04 P0 ( dwell for no time -- G64 should not smooth over this point )
G01 F25.00000
G01 X19.41420 Y3.64626
G01 X19.43068 Y3.58037
G01 X19.52367 Y3.58037
G01 X19.47582 Y3.58989
G01 X19.45420 Y3.60145
G01 X19.41973 Y3.63592
G01 X19.40106 Y3.68098
G01 X19.40106 Y4.11072
G01 X19.41973 Y4.15578
G01 X19.43528 Y4.17470
G01 X19.47300 Y4.20028
G01 X19.43528 Y4.17470
G01 X19.40967 Y4.13696
G01 X19.42055 Y4.18944
G01 X19.49926 Y4.20892
G01 X19.52367 Y4.21133
G01 X19.79281 Y4.21133
G01 X19.81341 Y4.20960
G01 X19.84719 Y4.19848
G01 X19.81341 Y4.20960
G01 X19.79319 Y4.21128
G01 X19.81653 Y4.21026
G01 X19.85237 Y4.19622
G01 X19.91132 Y4.16426
G01 X19.94358 Y4.13917
G01 X19.98387 Y4.09045
G01 X19.97101 Y4.10887
G01 X19.97927 Y4.09944
G01 X20.02286 Y4.00818
G01 X20.03154 Y3.98070
G01 X20.02418 Y4.00470
G01 X20.03103 Y3.98822
G01 X20.03439 Y3.95576
G01 X20.03439 Y3.83592
G01 X20.03063 Y3.80676
G01 X20.03393 Y3.82964
G01 X20.03337 Y3.81405
G01 X20.02286 Y3.78352
G01 X19.98943 Y3.71113
G01 X19.97063 Y3.68235
G01 X19.98785 Y3.70831
G01 X19.97541 Y3.68761
G01 X19.94363 Y3.65256
G01 X19.91127 Y3.62738
G01 X19.83340 Y3.58715
G01 X19.79281 Y3.58037
G01 X19.81338 Y3.58207
G01 X19.84828 Y3.59368
G01 X19.82067 Y3.58182
G01 X19.49926 Y3.58278
G01 X19.45420 Y3.60145
G01 X19.41973 Y3.63592
G01 X19.40818 Y3.65753
G01 X19.34866 Y3.70536
G01 X19.38692 Y3.54930
G01 X19.39863 Y3.53384
G01 X19.39863 Y3.52754
G01 X19.40320 Y3.53178
G01 X19.83228 Y3.53112
G01 X19.87269 Y3.54997
G01 X19.83393 Y3.53358
G01 X19.79281 Y3.53038
G01 X19.83055 Y3.53135
G01 X19.85057 Y3.53917
G01 X19.95661 Y3.59640
G01 X19.96278 Y3.60275
G01 X19.94810 Y3.59170
G01 X20.01483 Y3.65634
G01 X20.02842 Y3.67669
G01 X20.03170 Y3.68415
G01 X20.01000 Y3.65136
G01 X20.03170 Y3.68415
G01 X20.08427 Y3.80955
G01 X20.08397 Y3.83094
G01 X20.08260 Y3.80450
G01 X20.07388 Y3.77986
G01 X20.08364 Y3.80427
G01 X20.08176 Y3.99734
G01 X20.06926 Y4.02642
G01 X20.07973 Y4.00010
G01 X20.08206 Y3.97516
G01 X20.07797 Y4.00551
G01 X20.01739 Y4.13272
G01 X20.00904 Y4.14133
G01 X20.02976 Y4.11057
G01 X20.02126 Y4.12756
G01 X19.95656 Y4.19533
G01 X19.94805 Y4.20003
G01 X19.96294 Y4.18878
G01 X19.84104 Y4.25835
G01 X19.79281 Y4.26132
G01 X19.83840 Y4.25697
G01 X19.87302 Y4.24153
G01 X19.84429 Y4.25520
G01 X19.82082 Y4.26132
G01 X19.37980 Y4.26132
G01 X19.36114 Y4.25507
G01 X19.35489 Y4.24882
G01 X19.34866 Y4.23020
G01 X19.34866 Y4.08888
G01 X19.37493 Y4.21565
G01 X19.38173 Y4.22825
G01 X19.39433 Y4.23505
G01 X19.52110 Y4.26132
G01 X19.39433 Y4.23505
G01 X19.38173 Y4.22825
G01 X19.37551 Y4.23447
G01 X19.38173 Y4.22825
G01 X19.37493 Y4.21565
G01 X19.34866 Y4.08888
G01 X19.34866 Y2.94242
G01 X19.39116 Y3.52390
G01 X19.39863 Y3.53384
G01 X19.39863 Y3.52754
G01 X19.40320 Y3.53178
G01 X19.52367 Y3.53038
G01 X19.47582 Y3.52086
G01 X19.45420 Y3.50930
G01 X19.41973 Y3.47483
G01 X19.40106 Y3.42977
G01 X19.39819 Y2.93775
G01 X19.38618 Y2.91756
G01 X19.36926 Y2.91420
G01 X19.35489 Y2.92380
G01 X19.34866 Y2.94242
G04 P0 ( dwell for no time -- G64 should not smooth over this point )
G00 Z2.00000 ( retract )

G00 X20.66738 Y2.97600 ( rapid move to begin. )
G01 F12.50000
( Mill infeed pass 1/1 )
G01 Z-0.10000
G04 P0 ( dwell for no time -- G64 should not smooth over this point )
G01 F25.00000
G01 X20.66738 Y2.97600
G01 X20.59540 Y3.01862
G01 X20.58559 Y3.03615
G01 X20.61229 Y3.00770
G01 X20.58559 Y3.03615
G01 X20.57548 Y3.05395
G01 X20.54343 Y3.12662
G01 X20.54152 Y3.15454
G01 X20.55255 Y3.10387
G01 X20.54279 Y3.13701
G01 X20.54236 Y3.23434
G01 X20.54521 Y3.24181
G01 X20.54152 Y3.21321
G01 X20.54521 Y3.24181
G01 X20.55303 Y3.26531
G01 X20.59552 Y3.34913
G01 X20.61079 Y3.35883
G01 X20.58679 Y3.33323
G01 X20.61264 Y3.36051
G01 X20.62943 Y3.37143
G01 X20.70203 Y3.40546
G01 X20.72511 Y3.40648
G01 X20.68976 Y3.40089
G01 X20.72598 Y3.40656
G01 X20.96235 Y3.40414
G01 X21.00741 Y3.38547
G01 X21.02633 Y3.36993
G01 X21.04721 Y3.34097
G01 X21.02633 Y3.36993
G01 X21.00741 Y3.38547
G01 X20.98580 Y3.39703
G01 X20.93797 Y3.40656
G01 X21.03058 Y3.40729
G01 X21.04721 Y3.34097
G01 X21.06055 Y3.30595
G01 X21.06296 Y3.08756
G01 X21.04315 Y2.98896
G01 X20.96514 Y2.96338
G01 X20.72669 Y2.96132
G01 X20.70586 Y2.96295
G01 X20.66738 Y2.97600
G01 X20.69806 Y2.96277
G01 X20.72669 Y2.96132
G01 X20.96296 Y2.96510
G01 X21.00779 Y2.98390
G01 X21.02661 Y2.99945
G01 X21.05293 Y3.03879
G04 P0 ( dwell for no time -- G64 should not smooth over this point )
G00 Z2.00000 ( retract )

G00 X20.72598 Y3.45654 ( rapid move to begin. )
G01 F12.50000
( Mill infeed pass 1/1 )
G01 Z-0.10000
G04 P0 ( dwell for no time -- G64 should not smooth over this point )
G01 F25.00000
G01 X20.72598 Y3.45654
G01 X20.68285 Y3.45439
G01 X20.56040 Y3.38873
G01 X20.53393 Y3.34082
G01 X20.49258 Y3.24750
G01 X20.49400 Y3.11372
G01 X20.55539 Y2.98418
G01 X20.64328 Y2.93216
G01 X20.69375 Y2.91143
G01 X20.96753 Y2.91270
G01 X21.08044 Y2.95030
G01 X21.08574 Y2.94539
G01 X21.08044 Y2.95030
G01 X21.08938 Y2.96503
G01 X21.11282 Y3.08271
G01 X21.11295 Y3.60988
G01 X21.10843 Y3.63226
G01 X21.04386 Y3.76200
G01 X20.92153 Y3.82581
G01 X20.90711 Y3.82799
G01 X20.69733 Y3.82799
G01 X20.67769 Y3.82502
G01 X20.56324 Y3.76335
G01 X20.55369 Y3.75159
G01 X20.55212 Y3.73442
G01 X20.56311 Y3.72114
G01 X20.57157 Y3.71862
G01 X20.58188 Y3.71971
G01 X20.66908 Y3.76427
G01 X20.70637 Y3.77643
G01 X20.87851 Y3.77798
G01 X20.91909 Y3.77120
G01 X20.99182 Y3.73193
G01 X21.01915 Y3.70280
G01 X21.05923 Y3.61458
G01 X21.06187 Y3.56792
G01 X21.05664 Y3.54506
G01 X21.03390 Y3.50422
G01 X21.01617 Y3.48596
G01 X20.97851 Y3.46414
G01 X20.93555 Y3.45654
G01 X20.69486 Y3.45497
G01 X20.65801 Y3.44141
G01 X20.56057 Y3.39055
G01 X20.55171 Y3.38100
G01 X20.49380 Y3.24679
G01 X20.49151 Y3.12944
G01 X20.49636 Y3.10607
G01 X20.55196 Y2.98652
G01 X20.56179 Y2.97646
G01 X20.66786 Y2.91878
G01 X20.68646 Y2.91207
G01 X20.96756 Y2.91133
G01 X21.01534 Y2.92325
G01 X21.03776 Y2.92452
G01 X21.09232 Y2.91420
G01 X21.10670 Y2.92378
G01 X21.11295 Y2.94247
G01 X21.11295 Y3.28156
G01 X21.07426 Y3.43851
G01 X21.06299 Y3.45375
G01 X21.07048 Y3.46368
G01 X21.06299 Y3.45375
G01 X21.06299 Y3.46239
G01 X21.05694 Y3.45632
G01 X20.93555 Y3.45654
G04 P0 ( dwell for no time -- G64 should not smooth over this point )
G00 Z2.00000 ( retract )

G00 X21.46583 Y3.79861 ( rapid move to begin. )
G01 F12.50000
( Mill infeed pass 1/1 )
G01 Z-0.10000
G04 P0 ( dwell for no time -- G64 should not smooth over this point )
G01 F25.00000
G01 X21.46583 Y3.79861
G01 X21.47541 Y3.78423
G01 X21.48696 Y3.77945
G01 X21.53985 Y3.77420
G01 X21.58249 Y3.75436
G01 X21.61478 Y3.72017
G01 X21.63215 Y3.67648
G01 X21.63438 Y3.12939
G01 X21.63888 Y3.10701
G01 X21.69946 Y2.98156
G01 X21.81076 Y2.91878
G01 X21.82930 Y2.91207
G01 X21.94365 Y2.91179
G01 X21.95762 Y2.91756
G01 X21.96720 Y2.93193
G01 X21.96720 Y2.94070
G01 X21.95762 Y2.95507
G01 X21.94787 Y2.95911
G01 X21.84597 Y2.96343
G01 X21.80929 Y2.97641
G01 X21.75547 Y3.00737
G01 X21.72814 Y3.03653
G01 X21.71831 Y3.05400
G01 X21.69588 Y3.10262
G01 X21.68567 Y3.13704
G01 X21.68437 Y3.65296
G01 X21.69369 Y3.70031
G01 X21.72021 Y3.74059
G01 X21.76004 Y3.76782
G01 X21.80718 Y3.77796
G01 X21.94843 Y3.78044
G01 X21.96385 Y3.79045
G01 X21.96720 Y3.80737
G01 X21.95762 Y3.82175
G01 X21.94843 Y3.82553
G01 X21.78310 Y3.83079
G01 X21.73880 Y3.84984
G01 X21.70500 Y3.88423
G01 X21.69369 Y3.90567
G01 X21.68437 Y3.95299
G01 X21.68391 Y4.23485
G01 X21.67812 Y4.24885
G01 X21.66377 Y4.25842
G01 X21.64683 Y4.25507
G01 X21.63484 Y4.23490
G01 X21.63438 Y3.95299
G01 X21.62554 Y3.90681
G01 X21.60025 Y3.86716
G01 X21.58249 Y3.85162
G01 X21.53985 Y3.83178
G01 X21.48696 Y3.82652
G01 X21.47541 Y3.82175
G01 X21.46918 Y3.81552
G01 X21.46583 Y3.79861
G01 X21.59794 Y3.80297
G01 X21.63659 Y3.83285
G01 X21.65691 Y3.85893
G01 X21.65948 Y3.88433
G01 X21.65948 Y3.86391
G01 X21.68457 Y3.83036
G01 X21.72074 Y3.80297
G01 X21.74165 Y3.80297
G01 X21.72074 Y3.80297
G01 X21.68457 Y3.77562
G01 X21.65948 Y3.74207
G01 X21.65948 Y3.72164
G01 X21.65691 Y3.74704
G01 X21.63659 Y3.77313
G01 X21.59794 Y3.80297
G04 P0 ( dwell for no time -- G64 should not smooth over this point )
G00 Z2.00000 ( retract )

G00 X20.60581 Y5.79827 ( rapid move to begin. )
G01 F12.50000
( Mill infeed pass 1/1 )
G01 Z-0.10000
G04 P0 ( dwell for no time -- G64 should not smooth over this point )
G01 F25.00000
G01 X20.60581 Y5.79827
G01 X20.64406 Y5.64221
G01 X20.65504 Y5.62710
G01 X20.60581 Y5.03536
G01 X20.61203 Y5.01671
G01 X20.61826 Y5.01049
G01 X20.63517 Y5.00714
G01 X20.64955 Y5.01671
G01 X20.65580 Y5.03541
G01 X20.65821 Y5.52268
G01 X20.67688 Y5.56774
G01 X20.71135 Y5.60221
G01 X20.73296 Y5.61377
G01 X20.78082 Y5.62329
G01 X20.66035 Y5.62469
G01 X20.65577 Y5.62045
G01 X20.65577 Y5.62675
G01 X20.64825 Y5.61669
G01 X20.60581 Y5.03536
G01 X20.60581 Y6.18181
G01 X20.63207 Y6.30858
G01 X20.63888 Y6.32118
G01 X20.63266 Y6.32740
G01 X20.63888 Y6.32118
G01 X20.65148 Y6.32799
G01 X20.77825 Y6.35425
G01 X20.65148 Y6.32799
G01 X20.63888 Y6.32118
G01 X20.63207 Y6.30858
G01 X20.60581 Y6.18181
G01 X20.60581 Y6.32314
G01 X20.61203 Y6.34178
G01 X20.61826 Y6.34800
G01 X20.63695 Y6.35425
G01 X21.07797 Y6.35425
G01 X21.10144 Y6.34813
G01 X21.13022 Y6.33444
G01 X21.09555 Y6.34991
G01 X21.04993 Y6.35425
G01 X21.09819 Y6.35128
G01 X21.21368 Y6.28826
G01 X21.22006 Y6.28174
G01 X21.20520 Y6.29296
G01 X21.26629 Y6.23414
G01 X21.28691 Y6.20348
G01 X21.26629 Y6.23414
G01 X21.27457 Y6.22563
G01 X21.33510 Y6.09847
G01 X21.33919 Y6.06787
G01 X21.33685 Y6.09304
G01 X21.32628 Y6.11958
G01 X21.33891 Y6.09027
G01 X21.34076 Y5.89715
G01 X21.33096 Y5.87264
G01 X21.33972 Y5.89738
G01 X21.34109 Y5.92395
G01 X21.34140 Y5.90244
G01 X21.28879 Y5.77696
G01 X21.26728 Y5.74442
G01 X21.28879 Y5.77696
G01 X21.28557 Y5.76962
G01 X21.27198 Y5.74928
G01 X21.21371 Y5.68928
G01 X21.20520 Y5.68458
G01 X21.21991 Y5.69568
G01 X21.21371 Y5.68928
G01 X21.09590 Y5.62619
G01 X21.04993 Y5.62329
G01 X21.09555 Y5.62763
G01 X21.13022 Y5.64310
G01 X21.09819 Y5.62626
G01 X21.07856 Y5.62329
G01 X20.66035 Y5.62469
G01 X20.65577 Y5.62045
G01 X20.66532 Y5.75044
G01 X20.67688 Y5.72883
G01 X20.71135 Y5.69436
G01 X20.73296 Y5.68280
G01 X20.78082 Y5.67328
G01 X20.73296 Y5.68280
G01 X20.71135 Y5.69436
G01 X20.67688 Y5.72883
G01 X20.65821 Y5.77389
G01 X20.65580 Y6.17925
G01 X20.65821 Y6.20366
G01 X20.67769 Y6.28237
G01 X20.73014 Y6.29322
