( pcb2gcode 2.5.0 )
( Software-independent Gcode )

G94 ( Millimeters per minute feed rate. )
G21 ( Units == Millimeters. )

G90 ( Absolute coordinates. )
G00 S15000 ( RPM spindle speed. )
G01 F8.00000 ( Feedrate. )


G00 Z25.00000 (Retract to tool change height)
T0
M5      (Spindle stop.)
G04 P1.00000 (Wait for spindle to stop)
(MSG, Change tool bit to cutter diameter 2.00000mm)
M6      (Tool change.)
M0      (Temporary machine stop.)
M3 ( Spindle on clockwise. )
G04 P1.00000 (Wait for spindle to get up to speed)
G04 P0 ( dwell for no time -- G64 should not smooth over this point )
G00 Z2.00000 ( retract )

G00 X1.02498 Y2.02500 ( rapid move to begin. )
G01 Z-1.00000 F4.00000 ( plunge. )
G04 P0 ( dwell for no time -- G64 should not smooth over this point )
G01 F8.00000
G01 X1.02498 Y13.44750
G01 X1.02498 Y20.44750
G01 X1.02498 Y31.87000
G01 X1.04420 Y32.06510
G01 X1.10110 Y32.25270
G01 X1.19351 Y32.42557
G01 X1.31789 Y32.57711
G01 X1.46943 Y32.70149
G01 X1.64230 Y32.79390
G01 X1.82990 Y32.85080
G01 X2.02500 Y32.87002
G01 X11.54250 Y32.87002
G01 X18.54250 Y32.87002
G01 X28.06000 Y32.87002
G01 X28.25507 Y32.85080
G01 X28.44268 Y32.79390
G01 X28.61555 Y32.70149
G01 X28.76709 Y32.57711
G01 X28.89147 Y32.42557
G01 X28.98387 Y32.25270
G01 X29.04077 Y32.06510
G01 X29.06000 Y31.87000
G01 X29.06000 Y20.44750
G01 X29.06000 Y13.44750
G01 X29.06000 Y2.02500
G01 X29.04077 Y1.82993
G01 X28.98387 Y1.64232
G01 X28.89147 Y1.46945
G01 X28.76709 Y1.31791
G01 X28.61555 Y1.19353
G01 X28.44268 Y1.10113
G01 X28.25507 Y1.04423
G01 X28.06000 Y1.02500
G01 X18.54250 Y1.02500
G01 X11.54250 Y1.02500
G01 X2.02500 Y1.02500
G01 X1.82990 Y1.04423
G01 X1.64230 Y1.10113
G01 X1.46943 Y1.19353
G01 X1.31789 Y1.31791
G01 X1.19351 Y1.46945
G01 X1.10110 Y1.64232
G01 X1.04420 Y1.82993
G01 X1.02498 Y2.02500
G01 Z-2.00000 F4.00000 ( plunge. )
G04 P0 ( dwell for no time -- G64 should not smooth over this point )
G01 F8.00000
G01 X1.02498 Y13.44750
G00 Z-1.00000
G01 X1.02498 Y20.44750
G01 Z-2.00000 F4.00000
G01 F8.00000
G01 X1.02498 Y31.87000
G01 X1.04420 Y32.06510
G01 X1.10110 Y32.25270
G01 X1.19351 Y32.42557
G01 X1.31789 Y32.57711
G01 X1.46943 Y32.70149
G01 X1.64230 Y32.79390
G01 X1.82990 Y32.85080
G01 X2.02500 Y32.87002
G01 X11.54250 Y32.87002
G00 Z-1.00000
G01 X18.54250 Y32.87002
G01 Z-2.00000 F4.00000
G01 F8.00000
G01 X28.06000 Y32.87002
G01 X28.25507 Y32.85080
G01 X28.44268 Y32.79390
G01 X28.61555 Y32.70149
G01 X28.76709 Y32.57711
G01 X28.89147 Y32.42557
G01 X28.98387 Y32.25270
G01 X29.04077 Y32.06510
G01 X29.06000 Y31.87000
G01 X29.06000 Y20.44750
G00 Z-1.00000
G01 X29.06000 Y13.44750
G01 Z-2.00000 F4.00000
G01 F8.00000
G01 X29.06000 Y2.02500
G01 X29.04077 Y1.82993
G01 X28.98387 Y1.64232
G01 X28.89147 Y1.46945
G01 X28.76709 Y1.31791
G01 X28.61555 Y1.19353
G01 X28.44268 Y1.10113
G01 X28.25507 Y1.04423
G01 X28.06000 Y1.02500
G01 X18.54250 Y1.02500
G00 Z-1.00000
G01 X11.54250 Y1.02500
G01 Z-2.00000 F4.00000
G01 F8.00000
G01 X2.02500 Y1.02500
G01 X1.82990 Y1.04423
G01 X1.64230 Y1.10113
G01 X1.46943 Y1.19353
G01 X1.31789 Y1.31791
G01 X1.19351 Y1.46945
G01 X1.10110 Y1.64232
G01 X1.04420 Y1.82993
G01 X1.02498 Y2.02500

G04 P0 ( dwell for no time -- G64 should not smooth over this point )
G00 Z25.000000 ( retract )

M5 ( Spindle off. )
G04 P1.000000
M9 ( Coolant off. )
M2 ( Program end. )

